P3
400 225
255
204 226 255
204 226 255
204 226 255
204 226 255
204 226 255
204 226 255
204 226 255
204 226 255
204 226 255
204 226 255
204 226 255
204 226 255
204 226 255
204 226 255
204 226 255
203 226 255
203 226 255
203 226 255
203 226 255
203 226 255
203 226 255
203 226 255
203 226 255
203 225 255
203 225 255
203 225 255
203 225 255
203 225 255
203 225 255
203 225 255
203 225 255
203 225 255
202 225 255
202 225 255
202 225 255
202 225 255
202 225 255
202 225 255
202 225 255
202 225 255
202 225 255
202 225 255
202 225 255
202 225 255
202 225 255
202 225 255
202 225 255
202 225 255
201 225 255
201 225 255
201 225 255
201 225 255
201 224 255
201 224 255
201 224 255
201 224 255
201 224 255
201 224 255
201 224 255
201 224 255
201 224 255
201 224 255
201 224 255
200 224 255
200 224 255
200 224 255
200 224 255
200 224 255
200 224 255
200 224 255
200 224 255
200 224 255
200 224 255
200 224 255
200 224 255
200 224 255
200 224 255
200 224 255
199 224 255
199 224 255
199 223 255
199 223 255
199 223 255
199 223 255
199 223 255
199 223 255
199 223 255
199 223 255
199 223 255
199 223 255
199 223 255
199 223 255
198 223 255
198 223 255
198 223 255
198 223 255
198 223 255
198 223 255
198 223 255
198 223 255
198 223 255
198 223 255
198 223 255
198 223 255
198 223 255
198 223 255
197 223 255
197 222 255
197 222 255
197 222 255
197 222 255
197 222 255
197 222 255
197 222 255
197 222 255
197 222 255
197 222 255
197 222 255
197 222 255
197 222 255
197 222 255
196 222 255
196 222 255
196 222 255
196 222 255
196 222 255
196 222 255
196 222 255
196 222 255
196 222 255
196 222 255
196 222 255
196 222 255
196 222 255
196 222 255
196 221 255
196 221 255
195 221 255
195 221 255
195 221 255
195 221 255
195 221 255
195 221 255
195 221 255
195 221 255
195 221 255
195 221 255
195 221 255
195 221 255
195 221 255
195 221 255
195 221 255
195 221 255
195 221 255
195 221 255
194 221 255
194 221 255
194 221 255
194 221 255
194 221 255
194 221 255
194 221 255
194 221 255
194 221 255
194 221 255
194 221 255
194 221 255
194 221 255
194 221 255
194 221 255
194 221 255
194 221 255
194 221 255
194 221 255
194 221 255
194 221 255
194 221 255
194 220 255
194 220 255
194 220 255
194 220 255
194 220 255
194 220 255
194 220 255
194 220 255
194 220 255
193 220 255
193 220 255
193 220 255
193 220 255
193 220 255
193 220 255
193 220 255
193 220 255
193 220 255
193 220 255
193 220 255
193 220 255
193 220 255
193 220 255
193 220 255
193 220 255
193 220 255
193 220 255
193 220 255
193 220 255
193 220 255
193 220 255
193 220 255
193 220 255
193 220 255
193 220 255
193 220 255
193 220 255
194 220 255
194 220 255
194 220 255
194 220 255
194 220 255
194 220 255
194 220 255
194 220 255
194 220 255
194 221 255
194 221 255
194 221 255
194 221 255
194 221 255
194 221 255
194 221 255
194 221 255
194 221 255
194 221 255
194 221 255
194 221 255
194 221 255
194 221 255
194 221 255
194 221 255
194 221 255
194 221 255
194 221 255
194 221 255
194 221 255
194 221 255
195 221 255
195 221 255
195 221 255
195 221 255
195 221 255
195 221 255
195 221 255
195 221 255
195 221 255
195 221 255
195 221 255
195 221 255
195 221 255
195 221 255
195 221 255
195 221 255
195 221 255
195 221 255
196 221 255
196 221 255
196 222 255
196 222 255
196 222 255
196 222 255
196 222 255
196 222 255
196 222 255
196 222 255
196 222 255
196 222 255
196 222 255
196 222 255
196 222 255
196 222 255
197 222 255
197 222 255
197 222 255
197 222 255
197 222 255
197 222 255
197 222 255
197 222 255
197 222 255
197 222 255
197 222 255
197 222 255
197 222 255
197 222 255
197 223 255
198 223 255
198 223 255
198 223 255
198 223 255
198 223 255
198 223 255
198 223 255
198 223 255
198 223 255
198 223 255
198 223 255
198 223 255
198 223 255
198 223 255
199 223 255
199 223 255
199 223 255
199 223 255
199 223 255
199 223 255
199 223 255
199 223 255
199 223 255
199 223 255
199 223 255
199 223 255
199 224 255
199 224 255
200 224 255
200 224 255
200 224 255
200 224 255
200 224 255
200 224 255
200 224 255
200 224 255
200 224 255
200 224 255
200 224 255
200 224 255
200 224 255
200 224 255
200 224 255
201 224 255
201 224 255
201 224 255
201 224 255
201 224 255
201 224 255
201 224 255
201 224 255
201 224 255
201 224 255
201 224 255
201 225 255
201 225 255
201 225 255
201 225 255
202 225 255
202 225 255
202 225 255
202 225 255
202 225 255
202 225 255
202 225 255
202 225 255
202 225 255
202 225 255
202 225 255
202 225 255
202 225 255
202 225 255
202 225 255
202 225 255
203 225 255
203 225 255
203 225 255
203 225 255
203 225 255
203 225 255
203 225 255
203 225 255
203 225 255
203 226 255
203 226 255
203 226 255
203 226 255
203 226 255
203 226 255
203 226 255
203 226 255
204 226 255
204 226 255
204 226 255
204 226 255
204 226 255
204 226 255
204 226 255
204 226 255
204 226 255
204 226 255
204 226 255
204 226 255
204 226 255
204 226 255
204 226 255
204 226 255
204 226 255
204 226 255
204 226 255
204 226 255
204 226 255
204 226 255
204 226 255
204 226 255
204 226 255
204 226 255
204 226 255
204 226 255
204 226 255
204 226 255
204 226 255
204 226 255
204 226 255
203 226 255
203 226 255
203 226 255
203 226 255
203 226 255
203 226 255
203 226 255
203 225 255
203 225 255
203 225 255
203 225 255
203 225 255
203 225 255
203 225 255
203 225 255
203 225 255
202 225 255
202 225 255
202 225 255
202 225 255
202 225 255
202 225 255
202 225 255
202 225 255
202 225 255
202 225 255
202 225 255
202 225 255
202 225 255
202 225 255
202 225 255
202 225 255
201 225 255
201 225 255
201 225 255
201 225 255
201 225 255
201 224 255
201 224 255
201 224 255
201 224 255
201 224 255
201 224 255
201 224 255
201 224 255
201 224 255
201 224 255
200 224 255
200 224 255
200 224 255
200 224 255
200 224 255
200 224 255
200 224 255
200 224 255
200 224 255
200 224 255
200 224 255
200 224 255
200 224 255
200 224 255
200 224 255
199 224 255
199 224 255
199 223 255
199 223 255
199 223 255
199 223 255
199 223 255
199 223 255
199 223 255
199 223 255
199 223 255
199 223 255
199 223 255
199 223 255
198 223 255
198 223 255
198 223 255
198 223 255
198 223 255
198 223 255
198 223 255
198 223 255
198 223 255
198 223 255
198 223 255
198 223 255
198 223 255
198 223 255
197 223 255
197 222 255
197 222 255
197 222 255
197 222 255
197 222 255
197 222 255
197 222 255
197 222 255
197 222 255
197 222 255
197 222 255
197 222 255
197 222 255
197 222 255
196 222 255
196 222 255
196 222 255
196 222 255
196 222 255
196 222 255
196 222 255
196 222 255
196 222 255
196 222 255
196 222 255
196 222 255
196 222 255
196 222 255
196 222 255
196 221 255
195 221 255
195 221 255
195 221 255
195 221 255
195 221 255
195 221 255
195 221 255
195 221 255
195 221 255
195 221 255
195 221 255
195 221 255
195 221 255
195 221 255
195 221 255
195 221 255
195 221 255
195 221 255
195 221 255
194 221 255
194 221 255
194 221 255
194 221 255
194 221 255
194 221 255
194 221 255
194 221 255
194 221 255
194 221 255
194 221 255
194 221 255
194 221 255
194 221 255
194 221 255
194 221 255
194 221 255
194 221 255
194 221 255
194 221 255
194 221 255
194 221 255
194 221 255
194 221 255
194 221 255
194 220 255
194 220 255
194 220 255
194 220 255
194 220 255
194 220 255
194 220 255
194 220 255
194 220 255
194 220 255
194 220 255
194 220 255
194 220 255
194 220 255
194 220 255
194 220 255
194 220 255
194 220 255
194 220 255
194 220 255
194 220 255
194 220 255
194 220 255
194 220 255
194 220 255
194 220 255
194 220 255
194 220 255
194 220 255
194 220 255
194 220 255
194 220 255
194 220 255
194 220 255
194 221 255
194 221 255
194 221 255
194 221 255
194 221 255
194 221 255
194 221 255
194 221 255
194 221 255
194 221 255
194 221 255
194 221 255
194 221 255
194 221 255
194 221 255
194 221 255
194 221 255
194 221 255
194 221 255
194 221 255
194 221 255
194 221 255
194 221 255
194 221 255
194 221 255
195 221 255
195 221 255
195 221 255
195 221 255
195 221 255
195 221 255
195 221 255
195 221 255
195 221 255
195 221 255
195 221 255
195 221 255
195 221 255
195 221 255
195 221 255
195 221 255
195 221 255
195 221 255
195 221 255
196 221 255
196 222 255
196 222 255
196 222 255
196 222 255
196 222 255
196 222 255
196 222 255
196 222 255
196 222 255
196 222 255
196 222 255
196 222 255
196 222 255
196 222 255
196 222 255
197 222 255
197 222 255
197 222 255
197 222 255
197 222 255
197 222 255
197 222 255
197 222 255
197 222 255
197 222 255
197 222 255
197 222 255
197 222 255
197 222 255
197 223 255
198 223 255
198 223 255
198 223 255
198 223 255
198 223 255
198 223 255
198 223 255
198 223 255
198 223 255
198 223 255
198 223 255
198 223 255
198 223 255
198 223 255
199 223 255
199 223 255
199 223 255
199 223 255
199 223 255
199 223 255
199 223 255
199 223 255
199 223 255
199 223 255
199 223 255
199 223 255
199 224 255
199 224 255
200 224 255
200 224 255
200 224 255
200 224 255
200 224 255
200 224 255
200 224 255
200 224 255
200 224 255
200 224 255
200 224 255
200 224 255
200 224 255
200 224 255
200 224 255
201 224 255
201 224 255
201 224 255
201 224 255
201 224 255
201 224 255
201 224 255
201 224 255
201 224 255
201 224 255
201 225 255
201 225 255
201 225 255
201 225 255
201 225 255
202 225 255
202 225 255
202 225 255
202 225 255
202 225 255
202 225 255
202 225 255
202 225 255
202 225 255
202 225 255
202 225 255
202 225 255
202 225 255
202 225 255
202 225 255
202 225 255
203 225 255
203 225 255
203 225 255
203 225 255
203 225 255
203 225 255
203 225 255
203 225 255
203 225 255
203 226 255
203 226 255
203 226 255
203 226 255
203 226 255
203 226 255
203 226 255
204 226 255
204 226 255
204 226 255
204 226 255
204 226 255
204 226 255
204 226 255
204 226 255
204 226 255
204 226 255
204 226 255
204 226 255
204 226 255
204 226 255
204 226 255
204 226 255
204 226 255
204 226 255
205 226 255
205 226 255
204 226 255
204 226 255
204 226 255
204 226 255
204 226 255
204 226 255
204 226 255
204 226 255
204 226 255
204 226 255
204 226 255
204 226 255
204 226 255
204 226 255
204 226 255
204 226 255
204 226 255
204 226 255
203 226 255
203 226 255
203 226 255
203 226 255
203 226 255
203 226 255
203 226 255
203 225 255
203 225 255
203 225 255
203 225 255
203 225 255
203 225 255
203 225 255
203 225 255
203 225 255
203 225 255
202 225 255
202 225 255
202 225 255
202 225 255
202 225 255
202 225 255
202 225 255
202 225 255
202 225 255
202 225 255
202 225 255
202 225 255
202 225 255
202 225 255
202 225 255
201 225 255
201 225 255
201 225 255
201 225 255
201 225 255
201 224 255
201 224 255
201 224 255
201 224 255
201 224 255
201 224 255
201 224 255
201 224 255
201 224 255
201 224 255
200 224 255
200 224 255
200 224 255
200 224 255
200 224 255
200 224 255
200 224 255
200 224 255
200 224 255
200 224 255
200 224 255
200 224 255
200 224 255
200 224 255
200 224 255
199 224 255
199 224 255
199 223 255
199 223 255
199 223 255
199 223 255
199 223 255
199 223 255
199 223 255
199 223 255
199 223 255
199 223 255
199 223 255
199 223 255
198 223 255
198 223 255
198 223 255
198 223 255
198 223 255
198 223 255
198 223 255
198 223 255
198 223 255
198 223 255
198 223 255
198 223 255
198 223 255
198 223 255
197 223 255
197 222 255
197 222 255
197 222 255
197 222 255
197 222 255
197 222 255
197 222 255
197 222 255
197 222 255
197 222 255
197 222 255
197 222 255
197 222 255
197 222 255
196 222 255
196 222 255
196 222 255
196 222 255
196 222 255
196 222 255
196 222 255
196 222 255
196 222 255
196 222 255
196 222 255
196 222 255
196 222 255
196 222 255
196 222 255
196 221 255
196 221 255
195 221 255
195 221 255
195 221 255
195 221 255
195 221 255
195 221 255
195 221 255
195 221 255
195 221 255
195 221 255
195 221 255
195 221 255
195 221 255
195 221 255
195 221 255
195 221 255
195 221 255
195 221 255
195 221 255
195 221 255
194 221 255
194 221 255
194 221 255
194 221 255
194 221 255
194 221 255
194 221 255
194 221 255
194 221 255
194 221 255
194 221 255
194 221 255
194 221 255
194 221 255
194 221 255
194 221 255
194 221 255
194 221 255
194 221 255
194 221 255
194 221 255
194 221 255
194 221 255
194 221 255
194 221 255
194 221 255
194 221 255
194 221 255
194 221 255
194 221 255
194 220 255
194 220 255
194 220 255
194 220 255
194 220 255
194 220 255
194 220 255
194 220 255
194 220 255
194 220 255
194 220 255
194 220 255
194 220 255
194 220 255
194 220 255
194 220 255
194 221 255
194 221 255
194 221 255
194 221 255
194 221 255
194 221 255
194 221 255
194 221 255
194 221 255
194 221 255
194 221 255
194 221 255
194 221 255
194 221 255
194 221 255
194 221 255
194 221 255
194 221 255
194 221 255
194 221 255
194 221 255
194 221 255
194 221 255
194 221 255
194 221 255
194 221 255
194 221 255
194 221 255
194 221 255
194 221 255
195 221 255
195 221 255
195 221 255
195 221 255
195 221 255
195 221 255
195 221 255
195 221 255
195 221 255
195 221 255
195 221 255
195 221 255
195 221 255
195 221 255
195 221 255
195 221 255
195 221 255
195 221 255
195 221 255
195 221 255
195 221 255
196 221 255
196 222 255
196 222 255
196 222 255
196 222 255
196 222 255
196 222 255
196 222 255
196 222 255
196 222 255
196 222 255
196 222 255
196 222 255
196 222 255
196 222 255
196 222 255
197 222 255
197 222 255
197 222 255
197 222 255
197 222 255
197 222 255
197 222 255
197 222 255
197 222 255
197 222 255
197 222 255
197 222 255
197 222 255
197 222 255
197 223 255
198 223 255
198 223 255
198 223 255
198 223 255
198 223 255
198 223 255
198 223 255
198 223 255
198 223 255
198 223 255
198 223 255
198 223 255
198 223 255
198 223 255
199 223 255
199 223 255
199 223 255
199 223 255
199 223 255
199 223 255
199 223 255
199 223 255
199 223 255
199 223 255
199 223 255
199 223 255
199 224 255
199 224 255
200 224 255
200 224 255
200 224 255
200 224 255
200 224 255
200 224 255
200 224 255
200 224 255
200 224 255
200 224 255
200 224 255
200 224 255
200 224 255
200 224 255
200 224 255
201 224 255
201 224 255
201 224 255
201 224 255
201 224 255
201 224 255
201 224 255
201 224 255
201 224 255
201 224 255
201 225 255
201 225 255
201 225 255
201 225 255
201 225 255
202 225 255
202 225 255
202 225 255
202 225 255
202 225 255
202 225 255
202 225 255
202 225 255
202 225 255
202 225 255
202 225 255
202 225 255
202 225 255
202 225 255
202 225 255
203 225 255
203 225 255
203 225 255
203 225 255
203 225 255
203 225 255
203 225 255
203 225 255
203 225 255
203 225 255
203 226 255
203 226 255
203 226 255
203 226 255
203 226 255
203 226 255
203 226 255
204 226 255
204 226 255
204 226 255
204 226 255
204 226 255
204 226 255
204 226 255
204 226 255
204 226 255
204 226 255
204 226 255
204 226 255
204 226 255
204 226 255
204 226 255
204 226 255
204 226 255
204 226 255
205 226 255
205 226 255
205 226 255
205 226 255
205 226 255
205 226 255
204 226 255
204 226 255
204 226 255
204 226 255
204 226 255
204 226 255
204 226 255
204 226 255
204 226 255
204 226 255
204 226 255
204 226 255
204 226 255
204 226 255
204 226 255
204 226 255
204 226 255
204 226 255
203 226 255
203 226 255
203 226 255
203 226 255
203 226 255
203 226 255
203 226 255
203 226 255
203 225 255
203 225 255
203 225 255
203 225 255
203 225 255
203 225 255
203 225 255
203 225 255
203 225 255
202 225 255
202 225 255
202 225 255
202 225 255
202 225 255
202 225 255
202 225 255
202 225 255
202 225 255
202 225 255
202 225 255
202 225 255
202 225 255
202 225 255
202 225 255
201 225 255
201 225 255
201 225 255
201 225 255
201 225 255
201 224 255
201 224 255
201 224 255
201 224 255
201 224 255
201 224 255
201 224 255
201 224 255
201 224 255
201 224 255
200 224 255
200 224 255
200 224 255
200 224 255
200 224 255
200 224 255
200 224 255
200 224 255
200 224 255
200 224 255
200 224 255
200 224 255
200 224 255
200 224 255
200 224 255
199 224 255
199 224 255
199 223 255
199 223 255
199 223 255
199 223 255
199 223 255
199 223 255
199 223 255
199 223 255
199 223 255
199 223 255
199 223 255
199 223 255
198 223 255
198 223 255
198 223 255
198 223 255
198 223 255
198 223 255
198 223 255
198 223 255
198 223 255
198 223 255
198 223 255
198 223 255
198 223 255
198 223 255
197 223 255
197 222 255
197 222 255
197 222 255
197 222 255
197 222 255
197 222 255
197 222 255
197 222 255
197 222 255
197 222 255
197 222 255
197 222 255
197 222 255
197 222 255
196 222 255
196 222 255
196 222 255
196 222 255
196 222 255
196 222 255
196 222 255
196 222 255
196 222 255
196 222 255
196 222 255
196 222 255
196 222 255
196 222 255
196 222 255
196 222 255
196 221 255
195 221 255
195 221 255
195 221 255
195 221 255
195 221 255
195 221 255
195 221 255
195 221 255
195 221 255
195 221 255
195 221 255
195 221 255
195 221 255
195 221 255
195 221 255
195 221 255
195 221 255
195 221 255
195 221 255
195 221 255
195 221 255
194 221 255
194 221 255
194 221 255
194 221 255
194 221 255
194 221 255
194 221 255
194 221 255
194 221 255
194 221 255
194 221 255
194 221 255
194 221 255
194 221 255
194 221 255
194 221 255
194 221 255
194 221 255
194 221 255
194 221 255
194 221 255
194 221 255
194 221 255
194 221 255
194 221 255
194 221 255
194 221 255
194 221 255
194 221 255
194 221 255
194 221 255
194 221 255
194 221 255
194 221 255
194 221 255
194 221 255
194 221 255
194 221 255
194 221 255
194 221 255
194 221 255
194 221 255
194 221 255
194 221 255
194 221 255
194 221 255
194 221 255
194 221 255
194 221 255
194 221 255
194 221 255
194 221 255
194 221 255
194 221 255
194 221 255
194 221 255
194 221 255
194 221 255
194 221 255
194 221 255
194 221 255
194 221 255
194 221 255
194 221 255
194 221 255
194 221 255
194 221 255
194 221 255
194 221 255
194 221 255
195 221 255
195 221 255
195 221 255
195 221 255
195 221 255
195 221 255
195 221 255
195 221 255
195 221 255
195 221 255
195 221 255
195 221 255
195 221 255
195 221 255
195 221 255
195 221 255
195 221 255
195 221 255
195 221 255
195 221 255
195 221 255
196 221 255
196 222 255
196 222 255
196 222 255
196 222 255
196 222 255
196 222 255
196 222 255
196 222 255
196 222 255
196 222 255
196 222 255
196 222 255
196 222 255
196 222 255
196 222 255
196 222 255
197 222 255
197 222 255
197 222 255
197 222 255
197 222 255
197 222 255
197 222 255
197 222 255
197 222 255
197 222 255
197 222 255
197 222 255
197 222 255
197 222 255
197 223 255
198 223 255
198 223 255
198 223 255
198 223 255
198 223 255
198 223 255
198 223 255
198 223 255
198 223 255
198 223 255
198 223 255
198 223 255
198 223 255
198 223 255
199 223 255
199 223 255
199 223 255
199 223 255
199 223 255
199 223 255
199 223 255
199 223 255
199 223 255
199 223 255
199 223 255
199 223 255
199 224 255
199 224 255
200 224 255
200 224 255
200 224 255
200 224 255
200 224 255
200 224 255
200 224 255
200 224 255
200 224 255
200 224 255
200 224 255
200 224 255
200 224 255
200 224 255
200 224 255
201 224 255
201 224 255
201 224 255
201 224 255
201 224 255
201 224 255
201 224 255
201 224 255
201 224 255
201 224 255
201 225 255
201 225 255
201 225 255
201 225 255
201 225 255
202 225 255
202 225 255
202 225 255
202 225 255
202 225 255
202 225 255
202 225 255
202 225 255
202 225 255
202 225 255
202 225 255
202 225 255
202 225 255
202 225 255
202 225 255
203 225 255
203 225 255
203 225 255
203 225 255
203 225 255
203 225 255
203 225 255
203 225 255
203 225 255
203 226 255
203 226 255
203 226 255
203 226 255
203 226 255
203 226 255
203 226 255
203 226 255
204 226 255
204 226 255
204 226 255
204 226 255
204 226 255
204 226 255
204 226 255
204 226 255
204 226 255
204 226 255
204 226 255
204 226 255
204 226 255
204 226 255
204 226 255
204 226 255
204 226 255
204 226 255
205 226 255
205 226 255
205 226 255
205 226 255
205 226 255
205 226 255
205 226 255
205 226 255
205 226 255
205 226 255
205 226 255
204 226 255
204 226 255
204 226 255
204 226 255
204 226 255
204 226 255
204 226 255
204 226 255
204 226 255
204 226 255
204 226 255
204 226 255
204 226 255
204 226 255
204 226 255
204 226 255
204 226 255
203 226 255
203 226 255
203 226 255
203 226 255
203 226 255
203 226 255
203 226 255
203 226 255
203 225 255
203 225 255
203 225 255
203 225 255
203 225 255
203 225 255
203 225 255
203 225 255
203 225 255
202 225 255
202 225 255
202 225 255
202 225 255
202 225 255
202 225 255
202 225 255
202 225 255
202 225 255
202 225 255
202 225 255
202 225 255
202 225 255
202 225 255
202 225 255
201 225 255
201 225 255
201 225 255
201 225 255
201 225 255
201 224 255
201 224 255
201 224 255
201 224 255
201 224 255
201 224 255
201 224 255
201 224 255
201 224 255
201 224 255
200 224 255
200 224 255
200 224 255
200 224 255
200 224 255
200 224 255
200 224 255
200 224 255
200 224 255
200 224 255
200 224 255
200 224 255
200 224 255
200 224 255
200 224 255
199 224 255
199 224 255
199 223 255
199 223 255
199 223 255
199 223 255
199 223 255
199 223 255
199 223 255
199 223 255
199 223 255
199 223 255
199 223 255
199 223 255
198 223 255
198 223 255
198 223 255
198 223 255
198 223 255
198 223 255
198 223 255
198 223 255
198 223 255
198 223 255
198 223 255
198 223 255
198 223 255
198 223 255
197 223 255
197 222 255
197 222 255
197 222 255
197 222 255
197 222 255
197 222 255
197 222 255
197 222 255
197 222 255
197 222 255
197 222 255
197 222 255
197 222 255
197 222 255
197 222 255
196 222 255
196 222 255
196 222 255
196 222 255
196 222 255
196 222 255
196 222 255
196 222 255
196 222 255
196 222 255
196 222 255
196 222 255
196 222 255
196 222 255
196 222 255
196 221 255
196 221 255
195 221 255
195 221 255
195 221 255
195 221 255
195 221 255
195 221 255
195 221 255
195 221 255
195 221 255
195 221 255
195 221 255
195 221 255
195 221 255
195 221 255
195 221 255
195 221 255
195 221 255
195 221 255
195 221 255
195 221 255
195 221 255
195 221 255
194 221 255
194 221 255
194 221 255
194 221 255
194 221 255
194 221 255
194 221 255
194 221 255
194 221 255
194 221 255
194 221 255
194 221 255
194 221 255
194 221 255
194 221 255
194 221 255
194 221 255
194 221 255
194 221 255
194 221 255
194 221 255
194 221 255
194 221 255
194 221 255
194 221 255
194 221 255
194 221 255
194 221 255
194 221 255
194 221 255
194 221 255
194 221 255
194 221 255
194 221 255
194 221 255
194 221 255
194 221 255
194 221 255
194 221 255
194 221 255
194 221 255
194 221 255
194 221 255
194 221 255
194 221 255
194 221 255
194 221 255
194 221 255
194 221 255
194 221 255
194 221 255
194 221 255
194 221 255
194 221 255
194 221 255
194 221 255
194 221 255
194 221 255
194 221 255
194 221 255
194 221 255
194 221 255
195 221 255
195 221 255
195 221 255
195 221 255
195 221 255
195 221 255
195 221 255
195 221 255
195 221 255
195 221 255
195 221 255
195 221 255
195 221 255
195 221 255
195 221 255
195 221 255
195 221 255
195 221 255
195 221 255
195 221 255
195 221 255
195 221 255
196 221 255
196 221 255
196 222 255
196 222 255
196 222 255
196 222 255
196 222 255
196 222 255
196 222 255
196 222 255
196 222 255
196 222 255
196 222 255
196 222 255
196 222 255
196 222 255
196 222 255
197 222 255
197 222 255
197 222 255
197 222 255
197 222 255
197 222 255
197 222 255
197 222 255
197 222 255
197 222 255
197 222 255
197 222 255
197 222 255
197 222 255
197 222 255
197 223 255
198 223 255
198 223 255
198 223 255
198 223 255
198 223 255
198 223 255
198 223 255
198 223 255
198 223 255
198 223 255
198 223 255
198 223 255
198 223 255
198 223 255
199 223 255
199 223 255
199 223 255
199 223 255
199 223 255
199 223 255
199 223 255
199 223 255
199 223 255
199 223 255
199 223 255
199 223 255
199 224 255
199 224 255
200 224 255
200 224 255
200 224 255
200 224 255
200 224 255
200 224 255
200 224 255
200 224 255
200 224 255
200 224 255
200 224 255
200 224 255
200 224 255
200 224 255
200 224 255
201 224 255
201 224 255
201 224 255
201 224 255
201 224 255
201 224 255
201 224 255
201 224 255
201 224 255
201 224 255
201 225 255
201 225 255
201 225 255
201 225 255
201 225 255
202 225 255
202 225 255
202 225 255
202 225 255
202 225 255
202 225 255
202 225 255
202 225 255
202 225 255
202 225 255
202 225 255
202 225 255
202 225 255
202 225 255
202 225 255
203 225 255
203 225 255
203 225 255
203 225 255
203 225 255
203 225 255
203 225 255
203 225 255
203 225 255
203 226 255
203 226 255
203 226 255
203 226 255
203 226 255
203 226 255
203 226 255
203 226 255
204 226 255
204 226 255
204 226 255
204 226 255
204 226 255
204 226 255
204 226 255
204 226 255
204 226 255
204 226 255
204 226 255
204 226 255
204 226 255
204 226 255
204 226 255
204 226 255
204 226 255
205 226 255
205 226 255
205 226 255
205 226 255
205 226 255
205 226 255
205 226 255
205 227 255
205 227 255
205 226 255
205 226 255
205 226 255
205 226 255
205 226 255
205 226 255
205 226 255
204 226 255
204 226 255
204 226 255
204 226 255
204 226 255
204 226 255
204 226 255
204 226 255
204 226 255
204 226 255
204 226 255
204 226 255
204 226 255
204 226 255
204 226 255
204 226 255
204 226 255
204 226 255
203 226 255
203 226 255
203 226 255
203 226 255
203 226 255
203 226 255
203 226 255
203 225 255
203 225 255
203 225 255
203 225 255
203 225 255
203 225 255
203 225 255
203 225 255
203 225 255
202 225 255
202 225 255
202 225 255
202 225 255
202 225 255
202 225 255
202 225 255
202 225 255
202 225 255
202 225 255
202 225 255
202 225 255
202 225 255
202 225 255
202 225 255
202 225 255
201 225 255
201 225 255
201 225 255
201 225 255
201 224 255
201 224 255
201 224 255
201 224 255
201 224 255
201 224 255
201 224 255
201 224 255
201 224 255
201 224 255
200 224 255
200 224 255
200 224 255
200 224 255
200 224 255
200 224 255
200 224 255
200 224 255
200 224 255
200 224 255
200 224 255
200 224 255
200 224 255
200 224 255
200 224 255
199 224 255
199 224 255
199 223 255
199 223 255
199 223 255
199 223 255
199 223 255
199 223 255
199 223 255
199 223 255
199 223 255
199 223 255
199 223 255
199 223 255
198 223 255
198 223 255
198 223 255
198 223 255
198 223 255
198 223 255
198 223 255
198 223 255
198 223 255
198 223 255
198 223 255
198 223 255
198 223 255
198 223 255
198 223 255
197 222 255
197 222 255
197 222 255
197 222 255
197 222 255
197 222 255
197 222 255
197 222 255
197 222 255
197 222 255
197 222 255
197 222 255
197 222 255
197 222 255
197 222 255
196 222 255
196 222 255
196 222 255
196 222 255
196 222 255
196 222 255
196 222 255
196 222 255
196 222 255
196 222 255
196 222 255
196 222 255
196 222 255
196 222 255
196 222 255
196 222 255
196 221 255
195 221 255
195 221 255
195 221 255
195 221 255
195 221 255
195 221 255
195 221 255
195 221 255
195 221 255
195 221 255
195 221 255
195 221 255
195 221 255
195 221 255
195 221 255
195 221 255
195 221 255
195 221 255
195 221 255
195 221 255
195 221 255
195 221 255
195 221 255
195 221 255
194 221 255
194 221 255
194 221 255
194 221 255
194 221 255
194 221 255
194 221 255
194 221 255
194 221 255
194 221 255
194 221 255
194 221 255
194 221 255
194 221 255
194 221 255
194 221 255
194 221 255
194 221 255
194 221 255
194 221 255
194 221 255
194 221 255
194 221 255
194 221 255
194 221 255
194 221 255
194 221 255
194 221 255
194 221 255
194 221 255
194 221 255
194 221 255
194 221 255
194 221 255
194 221 255
194 221 255
194 221 255
194 221 255
194 221 255
194 221 255
194 221 255
194 221 255
194 221 255
194 221 255
194 221 255
194 221 255
194 221 255
194 221 255
194 221 255
194 221 255
194 221 255
194 221 255
194 221 255
194 221 255
195 221 255
195 221 255
195 221 255
195 221 255
195 221 255
195 221 255
195 221 255
195 221 255
195 221 255
195 221 255
195 221 255
195 221 255
195 221 255
195 221 255
195 221 255
195 221 255
195 221 255
195 221 255
195 221 255
195 221 255
195 221 255
195 221 255
195 221 255
195 221 255
196 221 255
196 222 255
196 222 255
196 222 255
196 222 255
196 222 255
196 222 255
196 222 255
196 222 255
196 222 255
196 222 255
196 222 255
196 222 255
196 222 255
196 222 255
196 222 255
196 222 255
197 222 255
197 222 255
197 222 255
197 222 255
197 222 255
197 222 255
197 222 255
197 222 255
197 222 255
197 222 255
197 222 255
197 222 255
197 222 255
197 222 255
197 222 255
198 223 255
198 223 255
198 223 255
198 223 255
198 223 255
198 223 255
198 223 255
198 223 255
198 223 255
198 223 255
198 223 255
198 223 255
198 223 255
198 223 255
198 223 255
199 223 255
199 223 255
199 223 255
199 223 255
199 223 255
199 223 255
199 223 255
199 223 255
199 223 255
199 223 255
199 223 255
199 223 255
199 224 255
199 224 255
200 224 255
200 224 255
200 224 255
200 224 255
200 224 255
200 224 255
200 224 255
200 224 255
200 224 255
200 224 255
200 224 255
200 224 255
200 224 255
200 224 255
200 224 255
201 224 255
201 224 255
201 224 255
201 224 255
201 224 255
201 224 255
201 224 255
201 224 255
201 224 255
201 224 255
201 225 255
201 225 255
201 225 255
201 225 255
202 225 255
202 225 255
202 225 255
202 225 255
202 225 255
202 225 255
202 225 255
202 225 255
202 225 255
202 225 255
202 225 255
202 225 255
202 225 255
202 225 255
202 225 255
202 225 255
203 225 255
203 225 255
203 225 255
203 225 255
203 225 255
203 225 255
203 225 255
203 225 255
203 225 255
203 226 255
203 226 255
203 226 255
203 226 255
203 226 255
203 226 255
203 226 255
204 226 255
204 226 255
204 226 255
204 226 255
204 226 255
204 226 255
204 226 255
204 226 255
204 226 255
204 226 255
204 226 255
204 226 255
204 226 255
204 226 255
204 226 255
204 226 255
204 226 255
204 226 255
205 226 255
205 226 255
205 226 255
205 226 255
205 226 255
205 226 255
205 226 255
205 227 255
205 227 255
205 227 255
205 227 255
205 227 255
205 227 255
205 226 255
205 226 255
205 226 255
205 226 255
205 226 255
205 226 255
205 226 255
205 226 255
204 226 255
204 226 255
204 226 255
204 226 255
204 226 255
204 226 255
204 226 255
204 226 255
204 226 255
204 226 255
204 226 255
204 226 255
204 226 255
204 226 255
204 226 255
204 226 255
204 226 255
203 226 255
203 226 255
203 226 255
203 226 255
203 226 255
203 226 255
203 226 255
203 225 255
203 225 255
203 225 255
203 225 255
203 225 255
203 225 255
203 225 255
203 225 255
203 225 255
202 225 255
202 225 255
202 225 255
202 225 255
202 225 255
202 225 255
202 225 255
202 225 255
202 225 255
202 225 255
202 225 255
202 225 255
202 225 255
202 225 255
202 225 255
202 225 255
201 225 255
201 225 255
201 225 255
201 225 255
201 224 255
201 224 255
201 224 255
201 224 255
201 224 255
201 224 255
201 224 255
201 224 255
201 224 255
201 224 255
201 224 255
200 224 255
200 224 255
200 224 255
200 224 255
200 224 255
200 224 255
200 224 255
200 224 255
200 224 255
200 224 255
200 224 255
200 224 255
200 224 255
200 224 255
199 224 255
199 224 255
199 223 255
199 223 255
199 223 255
199 223 255
199 223 255
199 223 255
199 223 255
199 223 255
199 223 255
199 223 255
199 223 255
199 223 255
198 223 255
198 223 255
198 223 255
198 223 255
198 223 255
198 223 255
198 223 255
198 223 255
198 223 255
198 223 255
198 223 255
198 223 255
198 223 255
198 223 255
198 223 255
197 222 255
197 222 255
197 222 255
197 222 255
197 222 255
197 222 255
197 222 255
197 222 255
197 222 255
197 222 255
197 222 255
197 222 255
197 222 255
197 222 255
197 222 255
196 222 255
196 222 255
196 222 255
196 222 255
196 222 255
196 222 255
196 222 255
196 222 255
196 222 255
196 222 255
196 222 255
196 222 255
196 222 255
196 222 255
196 222 255
196 222 255
196 222 255
196 221 255
195 221 255
195 221 255
195 221 255
195 221 255
195 221 255
195 221 255
195 221 255
195 221 255
195 221 255
195 221 255
195 221 255
195 221 255
195 221 255
195 221 255
195 221 255
195 221 255
195 221 255
195 221 255
195 221 255
195 221 255
195 221 255
195 221 255
195 221 255
195 221 255
195 221 255
195 221 255
194 221 255
194 221 255
194 221 255
194 221 255
194 221 255
194 221 255
194 221 255
194 221 255
194 221 255
194 221 255
194 221 255
194 221 255
194 221 255
194 221 255
194 221 255
194 221 255
194 221 255
194 221 255
194 221 255
194 221 255
194 221 255
194 221 255
194 221 255
194 221 255
194 221 255
194 221 255
194 221 255
194 221 255
194 221 255
194 221 255
194 221 255
194 221 255
194 221 255
194 221 255
194 221 255
194 221 255
194 221 255
194 221 255
194 221 255
194 221 255
194 221 255
194 221 255
194 221 255
194 221 255
195 221 255
195 221 255
195 221 255
195 221 255
195 221 255
195 221 255
195 221 255
195 221 255
195 221 255
195 221 255
195 221 255
195 221 255
195 221 255
195 221 255
195 221 255
195 221 255
195 221 255
195 221 255
195 221 255
195 221 255
195 221 255
195 221 255
195 221 255
195 221 255
195 221 255
195 221 255
196 221 255
196 222 255
196 222 255
196 222 255
196 222 255
196 222 255
196 222 255
196 222 255
196 222 255
196 222 255
196 222 255
196 222 255
196 222 255
196 222 255
196 222 255
196 222 255
196 222 255
196 222 255
197 222 255
197 222 255
197 222 255
197 222 255
197 222 255
197 222 255
197 222 255
197 222 255
197 222 255
197 222 255
197 222 255
197 222 255
197 222 255
197 222 255
197 222 255
198 223 255
198 223 255
198 223 255
198 223 255
198 223 255
198 223 255
198 223 255
198 223 255
198 223 255
198 223 255
198 223 255
198 223 255
198 223 255
198 223 255
198 223 255
199 223 255
199 223 255
199 223 255
199 223 255
199 223 255
199 223 255
199 223 255
199 223 255
199 223 255
199 223 255
199 223 255
199 223 255
199 224 255
199 224 255
200 224 255
200 224 255
200 224 255
200 224 255
200 224 255
200 224 255
200 224 255
200 224 255
200 224 255
200 224 255
200 224 255
200 224 255
200 224 255
200 224 255
201 224 255
201 224 255
201 224 255
201 224 255
201 224 255
201 224 255
201 224 255
201 224 255
201 224 255
201 224 255
201 224 255
201 225 255
201 225 255
201 225 255
201 225 255
202 225 255
202 225 255
202 225 255
202 225 255
202 225 255
202 225 255
202 225 255
202 225 255
202 225 255
202 225 255
202 225 255
202 225 255
202 225 255
202 225 255
202 225 255
202 225 255
203 225 255
203 225 255
203 225 255
203 225 255
203 225 255
203 225 255
203 225 255
203 225 255
203 225 255
203 226 255
203 226 255
203 226 255
203 226 255
203 226 255
203 226 255
203 226 255
204 226 255
204 226 255
204 226 255
204 226 255
204 226 255
204 226 255
204 226 255
204 226 255
204 226 255
204 226 255
204 226 255
204 226 255
204 226 255
204 226 255
204 226 255
204 226 255
204 226 255
205 226 255
205 226 255
205 226 255
205 226 255
205 226 255
205 226 255
205 226 255
205 226 255
205 227 255
205 227 255
205 227 255
205 227 255
205 227 255
205 227 255
205 227 255
205 227 255
205 227 255
205 227 255
205 227 255
205 226 255
205 226 255
205 226 255
205 226 255
205 226 255
205 226 255
205 226 255
204 226 255
204 226 255
204 226 255
204 226 255
204 226 255
204 226 255
204 226 255
204 226 255
204 226 255
204 226 255
204 226 255
204 226 255
204 226 255
204 226 255
204 226 255
204 226 255
204 226 255
203 226 255
203 226 255
203 226 255
203 226 255
203 226 255
203 226 255
203 226 255
203 226 255
203 225 255
203 225 255
203 225 255
203 225 255
203 225 255
203 225 255
203 225 255
203 225 255
203 225 255
202 225 255
202 225 255
202 225 255
202 225 255
202 225 255
202 225 255
202 225 255
202 225 255
202 225 255
202 225 255
202 225 255
202 225 255
202 225 255
202 225 255
202 225 255
201 225 255
201 225 255
201 225 255
201 225 255
201 224 255
201 224 255
201 224 255
201 224 255
201 224 255
201 224 255
201 224 255
201 224 255
201 224 255
201 224 255
201 224 255
200 224 255
200 224 255
200 224 255
200 224 255
200 224 255
200 224 255
200 224 255
200 224 255
200 224 255
200 224 255
200 224 255
200 224 255
200 224 255
200 224 255
199 224 255
199 224 255
199 223 255
199 223 255
199 223 255
199 223 255
199 223 255
199 223 255
199 223 255
199 223 255
199 223 255
199 223 255
199 223 255
199 223 255
198 223 255
198 223 255
198 223 255
198 223 255
198 223 255
198 223 255
198 223 255
198 223 255
198 223 255
198 223 255
198 223 255
198 223 255
198 223 255
198 223 255
198 223 255
197 223 255
197 222 255
197 222 255
197 222 255
197 222 255
197 222 255
197 222 255
197 222 255
197 222 255
197 222 255
197 222 255
197 222 255
197 222 255
197 222 255
197 222 255
197 222 255
196 222 255
196 222 255
196 222 255
196 222 255
196 222 255
196 222 255
196 222 255
196 222 255
196 222 255
196 222 255
196 222 255
196 222 255
196 222 255
196 222 255
196 222 255
196 222 255
196 222 255
196 221 255
195 221 255
195 221 255
195 221 255
195 221 255
195 221 255
195 221 255
195 221 255
195 221 255
195 221 255
195 221 255
195 221 255
195 221 255
195 221 255
195 221 255
195 221 255
195 221 255
195 221 255
195 221 255
195 221 255
195 221 255
195 221 255
195 221 255
195 221 255
195 221 255
195 221 255
195 221 255
195 221 255
195 221 255
195 221 255
195 221 255
194 221 255
194 221 255
194 221 255
194 221 255
194 221 255
194 221 255
194 221 255
194 221 255
194 221 255
194 221 255
194 221 255
194 221 255
194 221 255
194 221 255
194 221 255
194 221 255
194 221 255
194 221 255
194 221 255
194 221 255
194 221 255
194 221 255
194 221 255
194 221 255
194 221 255
194 221 255
194 221 255
194 221 255
194 221 255
194 221 255
195 221 255
195 221 255
195 221 255
195 221 255
195 221 255
195 221 255
195 221 255
195 221 255
195 221 255
195 221 255
195 221 255
195 221 255
195 221 255
195 221 255
195 221 255
195 221 255
195 221 255
195 221 255
195 221 255
195 221 255
195 221 255
195 221 255
195 221 255
195 221 255
195 221 255
195 221 255
195 221 255
195 221 255
195 221 255
195 221 255
196 221 255
196 222 255
196 222 255
196 222 255
196 222 255
196 222 255
196 222 255
196 222 255
196 222 255
196 222 255
196 222 255
196 222 255
196 222 255
196 222 255
196 222 255
196 222 255
196 222 255
196 222 255
197 222 255
197 222 255
197 222 255
197 222 255
197 222 255
197 222 255
197 222 255
197 222 255
197 222 255
197 222 255
197 222 255
197 222 255
197 222 255
197 222 255
197 222 255
197 223 255
198 223 255
198 223 255
198 223 255
198 223 255
198 223 255
198 223 255
198 223 255
198 223 255
198 223 255
198 223 255
198 223 255
198 223 255
198 223 255
198 223 255
198 223 255
199 223 255
199 223 255
199 223 255
199 223 255
199 223 255
199 223 255
199 223 255
199 223 255
199 223 255
199 223 255
199 223 255
199 223 255
199 224 255
199 224 255
200 224 255
200 224 255
200 224 255
200 224 255
200 224 255
200 224 255
200 224 255
200 224 255
200 224 255
200 224 255
200 224 255
200 224 255
200 224 255
200 224 255
201 224 255
201 224 255
201 224 255
201 224 255
201 224 255
201 224 255
201 224 255
201 224 255
201 224 255
201 224 255
201 224 255
201 225 255
201 225 255
201 225 255
201 225 255
202 225 255
202 225 255
202 225 255
202 225 255
202 225 255
202 225 255
202 225 255
202 225 255
202 225 255
202 225 255
202 225 255
202 225 255
202 225 255
202 225 255
202 225 255
203 225 255
203 225 255
203 225 255
203 225 255
203 225 255
203 225 255
203 225 255
203 225 255
203 225 255
203 226 255
203 226 255
203 226 255
203 226 255
203 226 255
203 226 255
203 226 255
203 226 255
204 226 255
204 226 255
204 226 255
204 226 255
204 226 255
204 226 255
204 226 255
204 226 255
204 226 255
204 226 255
204 226 255
204 226 255
204 226 255
204 226 255
204 226 255
204 226 255
204 226 255
205 226 255
205 226 255
205 226 255
205 226 255
205 226 255
205 226 255
205 226 255
205 227 255
205 227 255
205 227 255
205 227 255
205 227 255
205 227 255
205 227 255
205 227 255
205 227 255
205 227 255
205 227 255
205 227 255
205 227 255
205 227 255
205 227 255
205 227 255
205 226 255
205 226 255
205 226 255
205 226 255
205 226 255
205 226 255
205 226 255
204 226 255
204 226 255
204 226 255
204 226 255
204 226 255
204 226 255
204 226 255
204 226 255
204 226 255
204 226 255
204 226 255
204 226 255
204 226 255
204 226 255
204 226 255
204 226 255
204 226 255
204 226 255
203 226 255
203 226 255
203 226 255
203 226 255
203 226 255
203 226 255
203 226 255
203 225 255
203 225 255
203 225 255
203 225 255
203 225 255
203 225 255
203 225 255
203 225 255
203 225 255
202 225 255
202 225 255
202 225 255
202 225 255
202 225 255
202 225 255
202 225 255
202 225 255
202 225 255
202 225 255
202 225 255
202 225 255
202 225 255
202 225 255
202 225 255
201 225 255
201 225 255
201 225 255
201 225 255
201 225 255
201 224 255
201 224 255
201 224 255
201 224 255
201 224 255
201 224 255
201 224 255
201 224 255
201 224 255
201 224 255
200 224 255
200 224 255
200 224 255
200 224 255
200 224 255
200 224 255
200 224 255
200 224 255
200 224 255
200 224 255
200 224 255
200 224 255
200 224 255
200 224 255
199 224 255
199 224 255
199 223 255
199 223 255
199 223 255
199 223 255
199 223 255
199 223 255
199 223 255
199 223 255
199 223 255
199 223 255
199 223 255
199 223 255
199 223 255
198 223 255
198 223 255
198 223 255
198 223 255
198 223 255
198 223 255
198 223 255
198 223 255
198 223 255
198 223 255
198 223 255
198 223 255
198 223 255
198 223 255
197 223 255
197 222 255
197 222 255
197 222 255
197 222 255
197 222 255
197 222 255
197 222 255
197 222 255
197 222 255
197 222 255
197 222 255
197 222 255
197 222 255
197 222 255
197 222 255
196 222 255
196 222 255
196 222 255
196 222 255
196 222 255
196 222 255
196 222 255
196 222 255
196 222 255
196 222 255
196 222 255
196 222 255
196 222 255
196 222 255
196 222 255
196 222 255
196 222 255
196 222 255
196 221 255
196 221 255
195 221 255
195 221 255
195 221 255
195 221 255
195 221 255
195 221 255
195 221 255
195 221 255
195 221 255
195 221 255
195 221 255
195 221 255
195 221 255
195 221 255
195 221 255
195 221 255
195 221 255
195 221 255
195 221 255
195 221 255
195 221 255
195 221 255
195 221 255
195 221 255
195 221 255
195 221 255
195 221 255
195 221 255
195 221 255
195 221 255
195 221 255
195 221 255
195 221 255
195 221 255
195 221 255
195 221 255
195 221 255
195 221 255
195 221 255
195 221 255
195 221 255
195 221 255
195 221 255
195 221 255
195 221 255
195 221 255
195 221 255
195 221 255
195 221 255
195 221 255
195 221 255
195 221 255
195 221 255
195 221 255
195 221 255
195 221 255
195 221 255
195 221 255
195 221 255
195 221 255
195 221 255
195 221 255
195 221 255
195 221 255
195 221 255
195 221 255
195 221 255
195 221 255
195 221 255
195 221 255
195 221 255
195 221 255
195 221 255
195 221 255
195 221 255
195 221 255
195 221 255
195 221 255
195 221 255
195 221 255
195 221 255
195 221 255
196 221 255
196 221 255
196 222 255
196 222 255
196 222 255
196 222 255
196 222 255
196 222 255
196 222 255
196 222 255
196 222 255
196 222 255
196 222 255
196 222 255
196 222 255
196 222 255
196 222 255
196 222 255
196 222 255
196 222 255
197 222 255
197 222 255
197 222 255
197 222 255
197 222 255
197 222 255
197 222 255
197 222 255
197 222 255
197 222 255
197 222 255
197 222 255
197 222 255
197 222 255
197 222 255
197 223 255
198 223 255
198 223 255
198 223 255
198 223 255
198 223 255
198 223 255
198 223 255
198 223 255
198 223 255
198 223 255
198 223 255
198 223 255
198 223 255
198 223 255
199 223 255
199 223 255
199 223 255
199 223 255
199 223 255
199 223 255
199 223 255
199 223 255
199 223 255
199 223 255
199 223 255
199 223 255
199 223 255
199 224 255
199 224 255
200 224 255
200 224 255
200 224 255
200 224 255
200 224 255
200 224 255
200 224 255
200 224 255
200 224 255
200 224 255
200 224 255
200 224 255
200 224 255
200 224 255
201 224 255
201 224 255
201 224 255
201 224 255
201 224 255
201 224 255
201 224 255
201 224 255
201 224 255
201 224 255
201 225 255
201 225 255
201 225 255
201 225 255
201 225 255
202 225 255
202 225 255
202 225 255
202 225 255
202 225 255
202 225 255
202 225 255
202 225 255
202 225 255
202 225 255
202 225 255
202 225 255
202 225 255
202 225 255
202 225 255
203 225 255
203 225 255
203 225 255
203 225 255
203 225 255
203 225 255
203 225 255
203 225 255
203 225 255
203 226 255
203 226 255
203 226 255
203 226 255
203 226 255
203 226 255
203 226 255
204 226 255
204 226 255
204 226 255
204 226 255
204 226 255
204 226 255
204 226 255
204 226 255
204 226 255
204 226 255
204 226 255
204 226 255
204 226 255
204 226 255
204 226 255
204 226 255
204 226 255
204 226 255
205 226 255
205 226 255
205 226 255
205 226 255
205 226 255
205 226 255
205 226 255
205 227 255
205 227 255
205 227 255
205 227 255
205 227 255
205 227 255
205 227 255
205 227 255
205 227 255
205 227 255
205 227 255
205 227 255
205 227 255
205 227 255
205 227 255
205 227 255
205 227 255
205 227 255
205 227 255
205 227 255
205 227 255
205 226 255
205 226 255
205 226 255
205 226 255
205 226 255
205 226 255
205 226 255
204 226 255
204 226 255
204 226 255
204 226 255
204 226 255
204 226 255
204 226 255
204 226 255
204 226 255
204 226 255
204 226 255
204 226 255
204 226 255
204 226 255
204 226 255
204 226 255
204 226 255
203 226 255
203 226 255
203 226 255
203 226 255
203 226 255
203 226 255
203 226 255
203 225 255
203 225 255
203 225 255
203 225 255
203 225 255
203 225 255
203 225 255
203 225 255
203 225 255
202 225 255
202 225 255
202 225 255
202 225 255
202 225 255
202 225 255
202 225 255
202 225 255
202 225 255
202 225 255
202 225 255
202 225 255
202 225 255
202 225 255
202 225 255
201 225 255
201 225 255
201 225 255
201 225 255
201 225 255
201 224 255
201 224 255
201 224 255
201 224 255
201 224 255
201 224 255
201 224 255
201 224 255
201 224 255
201 224 255
200 224 255
200 224 255
200 224 255
200 224 255
200 224 255
200 224 255
200 224 255
200 224 255
200 224 255
200 224 255
200 224 255
200 224 255
200 224 255
200 224 255
199 224 255
199 224 255
199 224 255
199 223 255
199 223 255
199 223 255
199 223 255
199 223 255
199 223 255
199 223 255
199 223 255
199 223 255
199 223 255
199 223 255
199 223 255
198 223 255
198 223 255
198 223 255
198 223 255
198 223 255
198 223 255
198 223 255
198 223 255
198 223 255
198 223 255
198 223 255
198 223 255
198 223 255
198 223 255
198 223 255
197 222 255
197 222 255
197 222 255
197 222 255
197 222 255
197 222 255
197 222 255
197 222 255
197 222 255
197 222 255
197 222 255
197 222 255
197 222 255
197 222 255
197 222 255
197 222 255
196 222 255
196 222 255
196 222 255
196 222 255
196 222 255
196 222 255
196 222 255
196 222 255
196 222 255
196 222 255
196 222 255
196 222 255
196 222 255
196 222 255
196 222 255
196 222 255
196 222 255
196 222 255
196 221 255
196 221 255
195 221 255
195 221 255
195 221 255
195 221 255
195 221 255
195 221 255
195 221 255
195 221 255
195 221 255
195 221 255
195 221 255
195 221 255
195 221 255
195 221 255
195 221 255
195 221 255
195 221 255
195 221 255
195 221 255
195 221 255
195 221 255
195 221 255
195 221 255
195 221 255
195 221 255
195 221 255
195 221 255
195 221 255
195 221 255
195 221 255
195 221 255
195 221 255
195 221 255
195 221 255
195 221 255
195 221 255
195 221 255
195 221 255
195 221 255
195 221 255
195 221 255
195 221 255
195 221 255
195 221 255
195 221 255
195 221 255
195 221 255
195 221 255
195 221 255
195 221 255
195 221 255
195 221 255
195 221 255
195 221 255
195 221 255
195 221 255
195 221 255
195 221 255
195 221 255
195 221 255
195 221 255
195 221 255
195 221 255
195 221 255
195 221 255
195 221 255
195 221 255
195 221 255
195 221 255
195 221 255
195 221 255
195 221 255
195 221 255
195 221 255
195 221 255
195 221 255
196 221 255
196 221 255
196 222 255
196 222 255
196 222 255
196 222 255
196 222 255
196 222 255
196 222 255
196 222 255
196 222 255
196 222 255
196 222 255
196 222 255
196 222 255
196 222 255
196 222 255
196 222 255
196 222 255
196 222 255
197 222 255
197 222 255
197 222 255
197 222 255
197 222 255
197 222 255
197 222 255
197 222 255
197 222 255
197 222 255
197 222 255
197 222 255
197 222 255
197 222 255
197 222 255
197 222 255
198 223 255
198 223 255
198 223 255
198 223 255
198 223 255
198 223 255
198 223 255
198 223 255
198 223 255
198 223 255
198 223 255
198 223 255
198 223 255
198 223 255
198 223 255
199 223 255
199 223 255
199 223 255
199 223 255
199 223 255
199 223 255
199 223 255
199 223 255
199 223 255
199 223 255
199 223 255
199 223 255
199 224 255
199 224 255
199 224 255
200 224 255
200 224 255
200 224 255
200 224 255
200 224 255
200 224 255
200 224 255
200 224 255
200 224 255
200 224 255
200 224 255
200 224 255
200 224 255
200 224 255
201 224 255
201 224 255
201 224 255
201 224 255
201 224 255
201 224 255
201 224 255
201 224 255
201 224 255
201 224 255
201 225 255
201 225 255
201 225 255
201 225 255
201 225 255
202 225 255
202 225 255
202 225 255
202 225 255
202 225 255
202 225 255
202 225 255
202 225 255
202 225 255
202 225 255
202 225 255
202 225 255
202 225 255
202 225 255
202 225 255
203 225 255
203 225 255
203 225 255
203 225 255
203 225 255
203 225 255
203 225 255
203 225 255
203 225 255
203 226 255
203 226 255
203 226 255
203 226 255
203 226 255
203 226 255
203 226 255
204 226 255
204 226 255
204 226 255
204 226 255
204 226 255
204 226 255
204 226 255
204 226 255
204 226 255
204 226 255
204 226 255
204 226 255
204 226 255
204 226 255
204 226 255
204 226 255
204 226 255
205 226 255
205 226 255
205 226 255
205 226 255
205 226 255
205 226 255
205 226 255
205 227 255
205 227 255
205 227 255
205 227 255
205 227 255
205 227 255
205 227 255
205 227 255
205 227 255
205 227 255
205 227 255
205 227 255
206 227 255
206 227 255
206 227 255
205 227 255
205 227 255
205 227 255
205 227 255
205 227 255
205 227 255
205 227 255
205 227 255
205 227 255
205 227 255
205 227 255
205 226 255
205 226 255
205 226 255
205 226 255
205 226 255
205 226 255
205 226 255
204 226 255
204 226 255
204 226 255
204 226 255
204 226 255
204 226 255
204 226 255
204 226 255
204 226 255
204 226 255
204 226 255
204 226 255
204 226 255
204 226 255
204 226 255
204 226 255
204 226 255
203 226 255
203 226 255
203 226 255
203 226 255
203 226 255
203 226 255
203 226 255
203 226 255
203 225 255
203 225 255
203 225 255
203 225 255
203 225 255
203 225 255
203 225 255
203 225 255
202 225 255
202 225 255
202 225 255
202 225 255
202 225 255
202 225 255
202 225 255
202 225 255
202 225 255
202 225 255
202 225 255
202 225 255
202 225 255
202 225 255
202 225 255
202 225 255
201 225 255
201 225 255
201 225 255
201 225 255
201 224 255
201 224 255
201 224 255
201 224 255
201 224 255
201 224 255
201 224 255
201 224 255
201 224 255
201 224 255
200 224 255
200 224 255
200 224 255
200 224 255
200 224 255
200 224 255
200 224 255
200 224 255
200 224 255
200 224 255
200 224 255
200 224 255
200 224 255
200 224 255
200 224 255
199 224 255
199 224 255
199 223 255
199 223 255
199 223 255
199 223 255
199 223 255
199 223 255
199 223 255
199 223 255
199 223 255
199 223 255
199 223 255
199 223 255
198 223 255
198 223 255
198 223 255
198 223 255
198 223 255
198 223 255
198 223 255
198 223 255
198 223 255
198 223 255
198 223 255
198 223 255
198 223 255
198 223 255
198 223 255
197 223 255
197 222 255
197 222 255
197 222 255
197 222 255
197 222 255
197 222 255
197 222 255
197 222 255
197 222 255
197 222 255
197 222 255
197 222 255
197 222 255
197 222 255
197 222 255
197 222 255
196 222 255
196 222 255
196 222 255
196 222 255
196 222 255
196 222 255
196 222 255
196 222 255
196 222 255
196 222 255
196 222 255
196 222 255
196 222 255
196 222 255
196 222 255
196 222 255
196 222 255
196 222 255
196 222 255
196 221 255
196 221 255
195 221 255
195 221 255
195 221 255
195 221 255
195 221 255
195 221 255
195 221 255
195 221 255
195 221 255
195 221 255
195 221 255
195 221 255
195 221 255
195 221 255
195 221 255
195 221 255
195 221 255
195 221 255
195 221 255
195 221 255
195 221 255
195 221 255
195 221 255
195 221 255
195 221 255
195 221 255
195 221 255
195 221 255
195 221 255
195 221 255
195 221 255
195 221 255
195 221 255
195 221 255
195 221 255
195 221 255
195 221 255
195 221 255
195 221 255
195 221 255
195 221 255
195 221 255
195 221 255
195 221 255
195 221 255
195 221 255
195 221 255
195 221 255
195 221 255
195 221 255
195 221 255
195 221 255
195 221 255
195 221 255
195 221 255
195 221 255
195 221 255
195 221 255
195 221 255
195 221 255
195 221 255
195 221 255
195 221 255
195 221 255
195 221 255
195 221 255
195 221 255
195 221 255
196 221 255
196 221 255
196 222 255
196 222 255
196 222 255
196 222 255
196 222 255
196 222 255
196 222 255
196 222 255
196 222 255
196 222 255
196 222 255
196 222 255
196 222 255
196 222 255
196 222 255
196 222 255
196 222 255
196 222 255
196 222 255
197 222 255
197 222 255
197 222 255
197 222 255
197 222 255
197 222 255
197 222 255
197 222 255
197 222 255
197 222 255
197 222 255
197 222 255
197 222 255
197 222 255
197 222 255
197 222 255
197 223 255
198 223 255
198 223 255
198 223 255
198 223 255
198 223 255
198 223 255
198 223 255
198 223 255
198 223 255
198 223 255
198 223 255
198 223 255
198 223 255
198 223 255
198 223 255
199 223 255
199 223 255
199 223 255
199 223 255
199 223 255
199 223 255
199 223 255
199 223 255
199 223 255
199 223 255
199 223 255
199 223 255
199 224 255
199 224 255
200 224 255
200 224 255
200 224 255
200 224 255
200 224 255
200 224 255
200 224 255
200 224 255
200 224 255
200 224 255
200 224 255
200 224 255
200 224 255
200 224 255
200 224 255
201 224 255
201 224 255
201 224 255
201 224 255
201 224 255
201 224 255
201 224 255
201 224 255
201 224 255
201 224 255
201 225 255
201 225 255
201 225 255
201 225 255
202 225 255
202 225 255
202 225 255
202 225 255
202 225 255
202 225 255
202 225 255
202 225 255
202 225 255
202 225 255
202 225 255
202 225 255
202 225 255
202 225 255
202 225 255
202 225 255
203 225 255
203 225 255
203 225 255
203 225 255
203 225 255
203 225 255
203 225 255
203 225 255
203 226 255
203 226 255
203 226 255
203 226 255
203 226 255
203 226 255
203 226 255
203 226 255
204 226 255
204 226 255
204 226 255
204 226 255
204 226 255
204 226 255
204 226 255
204 226 255
204 226 255
204 226 255
204 226 255
204 226 255
204 226 255
204 226 255
204 226 255
204 226 255
204 226 255
205 226 255
205 226 255
205 226 255
205 226 255
205 226 255
205 226 255
205 226 255
205 227 255
205 227 255
205 227 255
205 227 255
205 227 255
205 227 255
205 227 255
205 227 255
205 227 255
205 227 255
205 227 255
206 227 255
206 227 255
206 227 255
206 227 255
206 227 255
206 227 255
206 227 255
206 227 255
205 227 255
205 227 255
205 227 255
205 227 255
205 227 255
205 227 255
205 227 255
205 227 255
205 227 255
205 227 255
205 227 255
205 227 255
205 226 255
205 226 255
205 226 255
205 226 255
205 226 255
205 226 255
205 226 255
204 226 255
204 226 255
204 226 255
204 226 255
204 226 255
204 226 255
204 226 255
204 226 255
204 226 255
204 226 255
204 226 255
204 226 255
204 226 255
204 226 255
204 226 255
204 226 255
204 226 255
203 226 255
203 226 255
203 226 255
203 226 255
203 226 255
203 226 255
203 226 255
203 225 255
203 225 255
203 225 255
203 225 255
203 225 255
203 225 255
203 225 255
203 225 255
203 225 255
202 225 255
202 225 255
202 225 255
202 225 255
202 225 255
202 225 255
202 225 255
202 225 255
202 225 255
202 225 255
202 225 255
202 225 255
202 225 255
202 225 255
202 225 255
201 225 255
201 225 255
201 225 255
201 225 255
201 224 255
201 224 255
201 224 255
201 224 255
201 224 255
201 224 255
201 224 255
201 224 255
201 224 255
201 224 255
200 224 255
200 224 255
200 224 255
200 224 255
200 224 255
200 224 255
200 224 255
200 224 255
200 224 255
200 224 255
200 224 255
200 224 255
200 224 255
200 224 255
200 224 255
199 224 255
199 224 255
199 223 255
199 223 255
199 223 255
199 223 255
199 223 255
199 223 255
199 223 255
199 223 255
199 223 255
199 223 255
199 223 255
199 223 255
198 223 255
198 223 255
198 223 255
198 223 255
198 223 255
198 223 255
198 223 255
198 223 255
198 223 255
198 223 255
198 223 255
198 223 255
198 223 255
198 223 255
198 223 255
198 223 255
197 222 255
197 222 255
197 222 255
197 222 255
197 222 255
197 222 255
197 222 255
197 222 255
197 222 255
197 222 255
197 222 255
197 222 255
197 222 255
197 222 255
197 222 255
197 222 255
197 222 255
196 222 255
196 222 255
196 222 255
196 222 255
196 222 255
196 222 255
196 222 255
196 222 255
196 222 255
196 222 255
196 222 255
196 222 255
196 222 255
196 222 255
196 222 255
196 222 255
196 222 255
196 222 255
196 222 255
196 222 255
196 221 255
196 221 255
195 221 255
195 221 255
195 221 255
195 221 255
195 221 255
195 221 255
195 221 255
195 221 255
195 221 255
195 221 255
195 221 255
195 221 255
195 221 255
195 221 255
195 221 255
195 221 255
195 221 255
195 221 255
195 221 255
195 221 255
195 221 255
195 221 255
195 221 255
195 221 255
195 221 255
195 221 255
195 221 255
195 221 255
195 221 255
195 221 255
195 221 255
195 221 255
195 221 255
195 221 255
195 221 255
195 221 255
195 221 255
195 221 255
195 221 255
195 221 255
195 221 255
195 221 255
195 221 255
195 221 255
195 221 255
195 221 255
195 221 255
195 221 255
195 221 255
195 221 255
195 221 255
195 221 255
195 221 255
195 221 255
195 221 255
195 221 255
195 221 255
195 221 255
195 221 255
195 221 255
196 221 255
196 221 255
196 222 255
196 222 255
196 222 255
196 222 255
196 222 255
196 222 255
196 222 255
196 222 255
196 222 255
196 222 255
196 222 255
196 222 255
196 222 255
196 222 255
196 222 255
196 222 255
196 222 255
196 222 255
196 222 255
196 222 255
197 222 255
197 222 255
197 222 255
197 222 255
197 222 255
197 222 255
197 222 255
197 222 255
197 222 255
197 222 255
197 222 255
197 222 255
197 222 255
197 222 255
197 222 255
197 222 255
197 222 255
198 223 255
198 223 255
198 223 255
198 223 255
198 223 255
198 223 255
198 223 255
198 223 255
198 223 255
198 223 255
198 223 255
198 223 255
198 223 255
198 223 255
198 223 255
198 223 255
199 223 255
199 223 255
199 223 255
199 223 255
199 223 255
199 223 255
199 223 255
199 223 255
199 223 255
199 223 255
199 223 255
199 223 255
199 224 255
199 224 255
200 224 255
200 224 255
200 224 255
200 224 255
200 224 255
200 224 255
200 224 255
200 224 255
200 224 255
200 224 255
200 224 255
200 224 255
200 224 255
200 224 255
200 224 255
201 224 255
201 224 255
201 224 255
201 224 255
201 224 255
201 224 255
201 224 255
201 224 255
201 224 255
201 224 255
201 225 255
201 225 255
201 225 255
201 225 255
202 225 255
202 225 255
202 225 255
202 225 255
202 225 255
202 225 255
202 225 255
202 225 255
202 225 255
202 225 255
202 225 255
202 225 255
202 225 255
202 225 255
202 225 255
203 225 255
203 225 255
203 225 255
203 225 255
203 225 255
203 225 255
203 225 255
203 225 255
203 225 255
203 226 255
203 226 255
203 226 255
203 226 255
203 226 255
203 226 255
203 226 255
204 226 255
204 226 255
204 226 255
204 226 255
204 226 255
204 226 255
204 226 255
204 226 255
204 226 255
204 226 255
204 226 255
204 226 255
204 226 255
204 226 255
204 226 255
204 226 255
204 226 255
205 226 255
205 226 255
205 226 255
205 226 255
205 226 255
205 226 255
205 226 255
205 227 255
205 227 255
205 227 255
205 227 255
205 227 255
205 227 255
205 227 255
205 227 255
205 227 255
205 227 255
205 227 255
205 227 255
206 227 255
206 227 255
206 227 255
206 227 255
206 227 255
206 227 255
206 227 255
206 227 255
206 227 255
206 227 255
206 227 255
206 227 255
206 227 255
205 227 255
205 227 255
205 227 255
205 227 255
205 227 255
205 227 255
205 227 255
205 227 255
205 227 255
205 227 255
205 227 255
205 226 255
205 226 255
205 226 255
205 226 255
205 226 255
205 226 255
205 226 255
204 226 255
204 226 255
204 226 255
204 226 255
204 226 255
204 226 255
204 226 255
204 226 255
204 226 255
204 226 255
204 226 255
204 226 255
204 226 255
204 226 255
204 226 255
204 226 255
204 226 255
203 226 255
203 226 255
203 226 255
203 226 255
203 226 255
203 226 255
203 226 255
203 225 255
203 225 255
203 225 255
203 225 255
203 225 255
203 225 255
203 225 255
203 225 255
203 225 255
202 225 255
202 225 255
202 225 255
202 225 255
202 225 255
202 225 255
202 225 255
202 225 255
202 225 255
202 225 255
202 225 255
202 225 255
202 225 255
202 225 255
202 225 255
201 225 255
201 225 255
201 225 255
201 225 255
201 224 255
201 224 255
201 224 255
201 224 255
201 224 255
201 224 255
201 224 255
201 224 255
201 224 255
201 224 255
201 224 255
200 224 255
200 224 255
200 224 255
200 224 255
200 224 255
200 224 255
200 224 255
200 224 255
200 224 255
200 224 255
200 224 255
200 224 255
200 224 255
200 224 255
199 224 255
199 224 255
199 223 255
199 223 255
199 223 255
199 223 255
199 223 255
199 223 255
199 223 255
199 223 255
199 223 255
199 223 255
199 223 255
199 223 255
199 223 255
198 223 255
198 223 255
198 223 255
198 223 255
198 223 255
198 223 255
198 223 255
198 223 255
198 223 255
198 223 255
198 223 255
198 223 255
198 223 255
198 223 255
198 223 255
197 223 255
197 222 255
197 222 255
197 222 255
197 222 255
197 222 255
197 222 255
197 222 255
197 222 255
197 222 255
197 222 255
197 222 255
197 222 255
197 222 255
197 222 255
197 222 255
197 222 255
197 222 255
196 222 255
196 222 255
196 222 255
196 222 255
196 222 255
196 222 255
196 222 255
196 222 255
196 222 255
196 222 255
196 222 255
196 222 255
196 222 255
196 222 255
196 222 255
196 222 255
196 222 255
196 222 255
196 222 255
196 222 255
196 222 255
196 221 255
196 221 255
196 221 255
195 221 255
195 221 255
195 221 255
195 221 255
195 221 255
195 221 255
195 221 255
195 221 255
195 221 255
195 221 255
195 221 255
195 221 255
195 221 255
195 221 255
195 221 255
195 221 255
195 221 255
195 221 255
195 221 255
195 221 255
195 221 255
195 221 255
195 221 255
195 221 255
195 221 255
195 221 255
195 221 255
195 221 255
195 221 255
195 221 255
195 221 255
195 221 255
195 221 255
195 221 255
195 221 255
195 221 255
195 221 255
195 221 255
195 221 255
195 221 255
195 221 255
195 221 255
195 221 255
195 221 255
195 221 255
195 221 255
195 221 255
195 221 255
195 221 255
195 221 255
196 221 255
196 221 255
196 221 255
196 222 255
196 222 255
196 222 255
196 222 255
196 222 255
196 222 255
196 222 255
196 222 255
196 222 255
196 222 255
196 222 255
196 222 255
196 222 255
196 222 255
196 222 255
196 222 255
196 222 255
196 222 255
196 222 255
196 222 255
196 222 255
197 222 255
197 222 255
197 222 255
197 222 255
197 222 255
197 222 255
197 222 255
197 222 255
197 222 255
197 222 255
197 222 255
197 222 255
197 222 255
197 222 255
197 222 255
197 222 255
197 222 255
197 223 255
198 223 255
198 223 255
198 223 255
198 223 255
198 223 255
198 223 255
198 223 255
198 223 255
198 223 255
198 223 255
198 223 255
198 223 255
198 223 255
198 223 255
198 223 255
199 223 255
199 223 255
199 223 255
199 223 255
199 223 255
199 223 255
199 223 255
199 223 255
199 223 255
199 223 255
199 223 255
199 223 255
199 223 255
199 224 255
199 224 255
200 224 255
200 224 255
200 224 255
200 224 255
200 224 255
200 224 255
200 224 255
200 224 255
200 224 255
200 224 255
200 224 255
200 224 255
200 224 255
200 224 255
201 224 255
201 224 255
201 224 255
201 224 255
201 224 255
201 224 255
201 224 255
201 224 255
201 224 255
201 224 255
201 224 255
201 225 255
201 225 255
201 225 255
201 225 255
202 225 255
202 225 255
202 225 255
202 225 255
202 225 255
202 225 255
202 225 255
202 225 255
202 225 255
202 225 255
202 225 255
202 225 255
202 225 255
202 225 255
202 225 255
203 225 255
203 225 255
203 225 255
203 225 255
203 225 255
203 225 255
203 225 255
203 225 255
203 225 255
203 226 255
203 226 255
203 226 255
203 226 255
203 226 255
203 226 255
203 226 255
204 226 255
204 226 255
204 226 255
204 226 255
204 226 255
204 226 255
204 226 255
204 226 255
204 226 255
204 226 255
204 226 255
204 226 255
204 226 255
204 226 255
204 226 255
204 226 255
204 226 255
205 226 255
205 226 255
205 226 255
205 226 255
205 226 255
205 226 255
205 226 255
205 227 255
205 227 255
205 227 255
205 227 255
205 227 255
205 227 255
205 227 255
205 227 255
205 227 255
205 227 255
205 227 255
206 227 255
206 227 255
206 227 255
206 227 255
206 227 255
206 227 255
206 227 255
206 227 255
206 227 255
206 227 255
206 227 255
206 227 255
206 227 255
206 227 255
206 227 255
206 227 255
206 227 255
206 227 255
206 227 255
205 227 255
205 227 255
205 227 255
205 227 255
205 227 255
205 227 255
205 227 255
205 227 255
205 227 255
205 227 255
205 227 255
205 226 255
205 226 255
205 226 255
205 226 255
205 226 255
205 226 255
205 226 255
204 226 255
204 226 255
204 226 255
204 226 255
204 226 255
204 226 255
204 226 255
204 226 255
204 226 255
204 226 255
204 226 255
204 226 255
204 226 255
204 226 255
204 226 255
204 226 255
203 226 255
203 226 255
203 226 255
203 226 255
203 226 255
203 226 255
203 226 255
203 226 255
203 225 255
203 225 255
203 225 255
203 225 255
203 225 255
203 225 255
203 225 255
203 225 255
202 225 255
202 225 255
202 225 255
202 225 255
202 225 255
202 225 255
202 225 255
202 225 255
202 225 255
202 225 255
202 225 255
202 225 255
202 225 255
202 225 255
202 225 255
201 225 255
201 225 255
201 225 255
201 225 255
201 225 255
201 224 255
201 224 255
201 224 255
201 224 255
201 224 255
201 224 255
201 224 255
201 224 255
201 224 255
201 224 255
200 224 255
200 224 255
200 224 255
200 224 255
200 224 255
200 224 255
200 224 255
200 224 255
200 224 255
200 224 255
200 224 255
200 224 255
200 224 255
200 224 255
199 224 255
199 224 255
199 224 255
199 223 255
199 223 255
199 223 255
199 223 255
199 223 255
199 223 255
199 223 255
199 223 255
199 223 255
199 223 255
199 223 255
199 223 255
198 223 255
198 223 255
198 223 255
198 223 255
198 223 255
198 223 255
198 223 255
198 223 255
198 223 255
198 223 255
198 223 255
198 223 255
198 223 255
198 223 255
198 223 255
198 223 255
197 222 255
197 222 255
197 222 255
197 222 255
197 222 255
197 222 255
197 222 255
197 222 255
197 222 255
197 222 255
197 222 255
197 222 255
197 222 255
197 222 255
197 222 255
197 222 255
197 222 255
197 222 255
196 222 255
196 222 255
196 222 255
196 222 255
196 222 255
196 222 255
196 222 255
196 222 255
196 222 255
196 222 255
196 222 255
196 222 255
196 222 255
196 222 255
196 222 255
196 222 255
196 222 255
196 222 255
196 222 255
196 222 255
196 222 255
196 222 255
196 222 255
196 221 255
196 221 255
196 221 255
196 221 255
195 221 255
195 221 255
195 221 255
195 221 255
195 221 255
195 221 255
195 221 255
195 221 255
195 221 255
195 221 255
195 221 255
195 221 255
195 221 255
195 221 255
195 221 255
195 221 255
195 221 255
195 221 255
195 221 255
195 221 255
195 221 255
195 221 255
195 221 255
195 221 255
195 221 255
195 221 255
195 221 255
195 221 255
195 221 255
195 221 255
195 221 255
195 221 255
195 221 255
195 221 255
195 221 255
195 221 255
195 221 255
195 221 255
196 221 255
196 221 255
196 221 255
196 221 255
196 222 255
196 222 255
196 222 255
196 222 255
196 222 255
196 222 255
196 222 255
196 222 255
196 222 255
196 222 255
196 222 255
196 222 255
196 222 255
196 222 255
196 222 255
196 222 255
196 222 255
196 222 255
196 222 255
196 222 255
196 222 255
196 222 255
196 222 255
197 222 255
197 222 255
197 222 255
197 222 255
197 222 255
197 222 255
197 222 255
197 222 255
197 222 255
197 222 255
197 222 255
197 222 255
197 222 255
197 222 255
197 222 255
197 222 255
197 222 255
197 222 255
198 223 255
198 223 255
198 223 255
198 223 255
198 223 255
198 223 255
198 223 255
198 223 255
198 223 255
198 223 255
198 223 255
198 223 255
198 223 255
198 223 255
198 223 255
198 223 255
199 223 255
199 223 255
199 223 255
199 223 255
199 223 255
199 223 255
199 223 255
199 223 255
199 223 255
199 223 255
199 223 255
199 223 255
199 224 255
199 224 255
199 224 255
200 224 255
200 224 255
200 224 255
200 224 255
200 224 255
200 224 255
200 224 255
200 224 255
200 224 255
200 224 255
200 224 255
200 224 255
200 224 255
200 224 255
201 224 255
201 224 255
201 224 255
201 224 255
201 224 255
201 224 255
201 224 255
201 224 255
201 224 255
201 224 255
201 225 255
201 225 255
201 225 255
201 225 255
201 225 255
202 225 255
202 225 255
202 225 255
202 225 255
202 225 255
202 225 255
202 225 255
202 225 255
202 225 255
202 225 255
202 225 255
202 225 255
202 225 255
202 225 255
202 225 255
203 225 255
203 225 255
203 225 255
203 225 255
203 225 255
203 225 255
203 225 255
203 225 255
203 226 255
203 226 255
203 226 255
203 226 255
203 226 255
203 226 255
203 226 255
204 226 255
204 226 255
204 226 255
204 226 255
204 226 255
204 226 255
204 226 255
204 226 255
204 226 255
204 226 255
204 226 255
204 226 255
204 226 255
204 226 255
204 226 255
204 226 255
204 226 255
205 226 255
205 226 255
205 226 255
205 226 255
205 226 255
205 226 255
205 226 255
205 227 255
205 227 255
205 227 255
205 227 255
205 227 255
205 227 255
205 227 255
205 227 255
205 227 255
205 227 255
205 227 255
206 227 255
206 227 255
206 227 255
206 227 255
206 227 255
206 227 255
206 227 255
206 227 255
206 227 255
206 227 255
206 227 255
206 227 255
206 227 255
206 227 255
206 227 255
206 227 255
206 227 255
206 227 255
206 227 255
206 227 255
206 227 255
206 227 255
206 227 255
206 227 255
205 227 255
205 227 255
205 227 255
205 227 255
205 227 255
205 227 255
205 227 255
205 227 255
205 227 255
205 227 255
205 227 255
205 226 255
205 226 255
205 226 255
205 226 255
205 226 255
205 226 255
205 226 255
204 226 255
204 226 255
204 226 255
204 226 255
204 226 255
204 226 255
204 226 255
204 226 255
204 226 255
204 226 255
204 226 255
204 226 255
204 226 255
204 226 255
204 226 255
204 226 255
204 226 255
203 226 255
203 226 255
203 226 255
203 226 255
203 226 255
203 226 255
203 226 255
203 225 255
203 225 255
203 225 255
203 225 255
203 225 255
203 225 255
203 225 255
203 225 255
203 225 255
202 225 255
202 225 255
202 225 255
202 225 255
202 225 255
202 225 255
202 225 255
202 225 255
202 225 255
202 225 255
202 225 255
202 225 255
202 225 255
202 225 255
202 225 255
201 225 255
201 225 255
201 225 255
201 225 255
201 224 255
201 224 255
201 224 255
201 224 255
201 224 255
201 224 255
201 224 255
201 224 255
201 224 255
201 224 255
200 224 255
200 224 255
200 224 255
200 224 255
200 224 255
200 224 255
200 224 255
200 224 255
200 224 255
200 224 255
200 224 255
200 224 255
200 224 255
200 224 255
200 224 255
199 224 255
199 224 255
199 223 255
199 223 255
199 223 255
199 223 255
199 223 255
199 223 255
199 223 255
199 223 255
199 223 255
199 223 255
199 223 255
199 223 255
199 223 255
198 223 255
198 223 255
198 223 255
198 223 255
198 223 255
198 223 255
198 223 255
198 223 255
198 223 255
198 223 255
198 223 255
198 223 255
198 223 255
198 223 255
198 223 255
197 223 255
197 222 255
197 222 255
197 222 255
197 222 255
197 222 255
197 222 255
197 222 255
197 222 255
197 222 255
197 222 255
197 222 255
197 222 255
197 222 255
197 222 255
197 222 255
197 222 255
197 222 255
197 222 255
196 222 255
196 222 255
196 222 255
196 222 255
196 222 255
196 222 255
196 222 255
196 222 255
196 222 255
196 222 255
196 222 255
196 222 255
196 222 255
196 222 255
196 222 255
196 222 255
196 222 255
196 222 255
196 222 255
196 222 255
196 222 255
196 222 255
196 222 255
196 222 255
196 222 255
196 222 255
196 222 255
196 221 255
196 221 255
196 221 255
196 221 255
196 221 255
196 221 255
195 221 255
195 221 255
195 221 255
195 221 255
195 221 255
195 221 255
195 221 255
195 221 255
195 221 255
195 221 255
195 221 255
195 221 255
195 221 255
195 221 255
195 221 255
195 221 255
195 221 255
195 221 255
195 221 255
195 221 255
196 221 255
196 221 255
196 221 255
196 221 255
196 221 255
196 221 255
196 222 255
196 222 255
196 222 255
196 222 255
196 222 255
196 222 255
196 222 255
196 222 255
196 222 255
196 222 255
196 222 255
196 222 255
196 222 255
196 222 255
196 222 255
196 222 255
196 222 255
196 222 255
196 222 255
196 222 255
196 222 255
196 222 255
196 222 255
196 222 255
196 222 255
196 222 255
196 222 255
197 222 255
197 222 255
197 222 255
197 222 255
197 222 255
197 222 255
197 222 255
197 222 255
197 222 255
197 222 255
197 222 255
197 222 255
197 222 255
197 222 255
197 222 255
197 222 255
197 222 255
197 222 255
197 223 255
198 223 255
198 223 255
198 223 255
198 223 255
198 223 255
198 223 255
198 223 255
198 223 255
198 223 255
198 223 255
198 223 255
198 223 255
198 223 255
198 223 255
198 223 255
198 223 255
199 223 255
199 223 255
199 223 255
199 223 255
199 223 255
199 223 255
199 223 255
199 223 255
199 223 255
199 223 255
199 223 255
199 223 255
199 224 255
199 224 255
200 224 255
200 224 255
200 224 255
200 224 255
200 224 255
200 224 255
200 224 255
200 224 255
200 224 255
200 224 255
200 224 255
200 224 255
200 224 255
200 224 255
200 224 255
201 224 255
201 224 255
201 224 255
201 224 255
201 224 255
201 224 255
201 224 255
201 224 255
201 224 255
201 224 255
201 225 255
201 225 255
201 225 255
201 225 255
202 225 255
202 225 255
202 225 255
202 225 255
202 225 255
202 225 255
202 225 255
202 225 255
202 225 255
202 225 255
202 225 255
202 225 255
202 225 255
202 225 255
202 225 255
203 225 255
203 225 255
203 225 255
203 225 255
203 225 255
203 225 255
203 225 255
203 225 255
203 225 255
203 226 255
203 226 255
203 226 255
203 226 255
203 226 255
203 226 255
203 226 255
204 226 255
204 226 255
204 226 255
204 226 255
204 226 255
204 226 255
204 226 255
204 226 255
204 226 255
204 226 255
204 226 255
204 226 255
204 226 255
204 226 255
204 226 255
204 226 255
204 226 255
205 226 255
205 226 255
205 226 255
205 226 255
205 226 255
205 226 255
205 226 255
205 227 255
205 227 255
205 227 255
205 227 255
205 227 255
205 227 255
205 227 255
205 227 255
205 227 255
205 227 255
205 227 255
206 227 255
206 227 255
206 227 255
206 227 255
206 227 255
206 227 255
206 227 255
206 227 255
206 227 255
206 227 255
206 227 255
206 227 255
206 227 255
206 227 255
206 227 255
206 227 255
206 227 255
206 227 255
206 227 255
206 227 255
206 227 255
206 227 255
206 227 255
206 227 255
206 227 255
206 227 255
206 227 255
206 227 255
206 227 255
205 227 255
205 227 255
205 227 255
205 227 255
205 227 255
205 227 255
205 227 255
205 227 255
205 227 255
205 227 255
205 227 255
205 226 255
205 226 255
205 226 255
205 226 255
205 226 255
205 226 255
205 226 255
204 226 255
204 226 255
204 226 255
204 226 255
204 226 255
204 226 255
204 226 255
204 226 255
204 226 255
204 226 255
204 226 255
204 226 255
204 226 255
204 226 255
204 226 255
204 226 255
203 226 255
203 226 255
203 226 255
203 226 255
203 226 255
203 226 255
203 226 255
203 225 255
203 225 255
203 225 255
203 225 255
203 225 255
203 225 255
203 225 255
203 225 255
203 225 255
202 225 255
202 225 255
202 225 255
202 225 255
202 225 255
202 225 255
202 225 255
202 225 255
202 225 255
202 225 255
202 225 255
202 225 255
202 225 255
202 225 255
202 225 255
201 225 255
201 225 255
201 225 255
201 225 255
201 224 255
201 224 255
201 224 255
201 224 255
201 224 255
201 224 255
201 224 255
201 224 255
201 224 255
201 224 255
200 224 255
200 224 255
200 224 255
200 224 255
200 224 255
200 224 255
200 224 255
200 224 255
200 224 255
200 224 255
200 224 255
200 224 255
200 224 255
200 224 255
200 224 255
199 224 255
199 224 255
199 223 255
199 223 255
199 223 255
199 223 255
199 223 255
199 223 255
199 223 255
199 223 255
199 223 255
199 223 255
199 223 255
199 223 255
199 223 255
198 223 255
198 223 255
198 223 255
198 223 255
198 223 255
198 223 255
198 223 255
198 223 255
198 223 255
198 223 255
198 223 255
198 223 255
198 223 255
198 223 255
198 223 255
198 223 255
197 223 255
197 222 255
197 222 255
197 222 255
197 222 255
197 222 255
197 222 255
197 222 255
197 222 255
197 222 255
197 222 255
197 222 255
197 222 255
197 222 255
197 222 255
197 222 255
197 222 255
197 222 255
197 222 255
197 222 255
196 222 255
196 222 255
196 222 255
196 222 255
196 222 255
196 222 255
196 222 255
196 222 255
196 222 255
196 222 255
196 222 255
196 222 255
196 222 255
196 222 255
196 222 255
196 222 255
196 222 255
196 222 255
196 222 255
196 222 255
196 222 255
196 222 255
196 222 255
196 222 255
196 222 255
196 222 255
196 222 255
196 222 255
196 222 255
196 222 255
196 222 255
196 222 255
196 222 255
196 222 255
196 222 255
196 222 255
196 222 255
196 222 255
196 222 255
196 222 255
196 222 255
196 222 255
196 222 255
196 222 255
196 222 255
196 222 255
196 222 255
196 222 255
196 222 255
196 222 255
196 222 255
196 222 255
196 222 255
196 222 255
196 222 255
196 222 255
196 222 255
196 222 255
196 222 255
196 222 255
196 222 255
196 222 255
196 222 255
196 222 255
196 222 255
196 222 255
196 222 255
196 222 255
196 222 255
196 222 255
196 222 255
196 222 255
196 222 255
196 222 255
196 222 255
196 222 255
196 222 255
196 222 255
197 222 255
197 222 255
197 222 255
197 222 255
197 222 255
197 222 255
197 222 255
197 222 255
197 222 255
197 222 255
197 222 255
197 222 255
197 222 255
197 222 255
197 222 255
197 222 255
197 222 255
197 222 255
197 222 255
197 223 255
198 223 255
198 223 255
198 223 255
198 223 255
198 223 255
198 223 255
198 223 255
198 223 255
198 223 255
198 223 255
198 223 255
198 223 255
198 223 255
198 223 255
198 223 255
198 223 255
199 223 255
199 223 255
199 223 255
199 223 255
199 223 255
199 223 255
199 223 255
199 223 255
199 223 255
199 223 255
199 223 255
199 223 255
199 223 255
199 224 255
199 224 255
200 224 255
200 224 255
200 224 255
200 224 255
200 224 255
200 224 255
200 224 255
200 224 255
200 224 255
200 224 255
200 224 255
200 224 255
200 224 255
200 224 255
201 224 255
201 224 255
201 224 255
201 224 255
201 224 255
201 224 255
201 224 255
201 224 255
201 224 255
201 224 255
201 224 255
201 225 255
201 225 255
201 225 255
201 225 255
202 225 255
202 225 255
202 225 255
202 225 255
202 225 255
202 225 255
202 225 255
202 225 255
202 225 255
202 225 255
202 225 255
202 225 255
202 225 255
202 225 255
202 225 255
203 225 255
203 225 255
203 225 255
203 225 255
203 225 255
203 225 255
203 225 255
203 225 255
203 225 255
203 226 255
203 226 255
203 226 255
203 226 255
203 226 255
203 226 255
203 226 255
204 226 255
204 226 255
204 226 255
204 226 255
204 226 255
204 226 255
204 226 255
204 226 255
204 226 255
204 226 255
204 226 255
204 226 255
204 226 255
204 226 255
204 226 255
204 226 255
205 226 255
205 226 255
205 226 255
205 226 255
205 226 255
205 226 255
205 226 255
205 227 255
205 227 255
205 227 255
205 227 255
205 227 255
205 227 255
205 227 255
205 227 255
205 227 255
205 227 255
205 227 255
206 227 255
206 227 255
206 227 255
206 227 255
206 227 255
206 227 255
206 227 255
206 227 255
206 227 255
206 227 255
206 227 255
206 227 255
206 227 255
206 227 255
206 227 255
206 227 255
206 227 255
206 227 255
206 227 255
206 227 255
206 227 255
206 227 255
206 227 255
206 227 255
206 227 255
206 227 255
206 227 255
206 227 255
206 227 255
206 227 255
206 227 255
206 227 255
206 227 255
206 227 255
205 227 255
205 227 255
205 227 255
205 227 255
205 227 255
205 227 255
205 227 255
205 227 255
205 227 255
205 227 255
205 227 255
205 226 255
205 226 255
205 226 255
205 226 255
205 226 255
205 226 255
205 226 255
204 226 255
204 226 255
204 226 255
204 226 255
204 226 255
204 226 255
204 226 255
204 226 255
204 226 255
204 226 255
204 226 255
204 226 255
204 226 255
204 226 255
204 226 255
204 226 255
204 226 255
203 226 255
203 226 255
203 226 255
203 226 255
203 226 255
203 226 255
203 226 255
203 225 255
203 225 255
203 225 255
203 225 255
203 225 255
203 225 255
203 225 255
203 225 255
202 225 255
202 225 255
202 225 255
202 225 255
202 225 255
202 225 255
202 225 255
202 225 255
202 225 255
202 225 255
202 225 255
202 225 255
202 225 255
202 225 255
202 225 255
201 225 255
201 225 255
201 225 255
201 225 255
201 225 255
201 224 255
201 224 255
201 224 255
201 224 255
201 224 255
201 224 255
201 224 255
201 224 255
201 224 255
201 224 255
200 224 255
200 224 255
200 224 255
200 224 255
200 224 255
200 224 255
200 224 255
200 224 255
200 224 255
200 224 255
200 224 255
200 224 255
200 224 255
200 224 255
199 224 255
199 224 255
199 224 255
199 223 255
199 223 255
199 223 255
199 223 255
199 223 255
199 223 255
199 223 255
199 223 255
199 223 255
199 223 255
199 223 255
199 223 255
199 223 255
198 223 255
198 223 255
198 223 255
198 223 255
198 223 255
198 223 255
198 223 255
198 223 255
198 223 255
198 223 255
198 223 255
198 223 255
198 223 255
198 223 255
198 223 255
198 223 255
197 223 255
197 222 255
197 222 255
197 222 255
197 222 255
197 222 255
197 222 255
197 222 255
197 222 255
197 222 255
197 222 255
197 222 255
197 222 255
197 222 255
197 222 255
197 222 255
197 222 255
197 222 255
197 222 255
197 222 255
197 222 255
196 222 255
196 222 255
196 222 255
196 222 255
196 222 255
196 222 255
196 222 255
196 222 255
196 222 255
196 222 255
196 222 255
196 222 255
196 222 255
196 222 255
196 222 255
196 222 255
196 222 255
196 222 255
196 222 255
196 222 255
196 222 255
196 222 255
196 222 255
196 222 255
196 222 255
196 222 255
196 222 255
196 222 255
196 222 255
196 222 255
196 222 255
196 222 255
196 222 255
196 222 255
196 222 255
196 222 255
196 222 255
196 222 255
196 222 255
196 222 255
196 222 255
196 222 255
196 222 255
196 222 255
196 222 255
196 222 255
196 222 255
196 222 255
196 222 255
196 222 255
196 222 255
196 222 255
196 222 255
196 222 255
196 222 255
196 222 255
196 222 255
196 222 255
196 222 255
196 222 255
196 222 255
196 222 255
196 222 255
196 222 255
196 222 255
196 222 255
196 222 255
196 222 255
196 222 255
196 222 255
197 222 255
197 222 255
197 222 255
197 222 255
197 222 255
197 222 255
197 222 255
197 222 255
197 222 255
197 222 255
197 222 255
197 222 255
197 222 255
197 222 255
197 222 255
197 222 255
197 222 255
197 222 255
197 222 255
197 222 255
197 223 255
198 223 255
198 223 255
198 223 255
198 223 255
198 223 255
198 223 255
198 223 255
198 223 255
198 223 255
198 223 255
198 223 255
198 223 255
198 223 255
198 223 255
198 223 255
198 223 255
199 223 255
199 223 255
199 223 255
199 223 255
199 223 255
199 223 255
199 223 255
199 223 255
199 223 255
199 223 255
199 223 255
199 223 255
199 223 255
199 224 255
199 224 255
199 224 255
200 224 255
200 224 255
200 224 255
200 224 255
200 224 255
200 224 255
200 224 255
200 224 255
200 224 255
200 224 255
200 224 255
200 224 255
200 224 255
200 224 255
201 224 255
201 224 255
201 224 255
201 224 255
201 224 255
201 224 255
201 224 255
201 224 255
201 224 255
201 224 255
201 225 255
201 225 255
201 225 255
201 225 255
201 225 255
202 225 255
202 225 255
202 225 255
202 225 255
202 225 255
202 225 255
202 225 255
202 225 255
202 225 255
202 225 255
202 225 255
202 225 255
202 225 255
202 225 255
202 225 255
203 225 255
203 225 255
203 225 255
203 225 255
203 225 255
203 225 255
203 225 255
203 225 255
203 226 255
203 226 255
203 226 255
203 226 255
203 226 255
203 226 255
203 226 255
204 226 255
204 226 255
204 226 255
204 226 255
204 226 255
204 226 255
204 226 255
204 226 255
204 226 255
204 226 255
204 226 255
204 226 255
204 226 255
204 226 255
204 226 255
204 226 255
204 226 255
205 226 255
205 226 255
205 226 255
205 226 255
205 226 255
205 226 255
205 226 255
205 227 255
205 227 255
205 227 255
205 227 255
205 227 255
205 227 255
205 227 255
205 227 255
205 227 255
205 227 255
205 227 255
206 227 255
206 227 255
206 227 255
206 227 255
206 227 255
206 227 255
206 227 255
206 227 255
206 227 255
206 227 255
206 227 255
206 227 255
206 227 255
206 227 255
206 227 255
206 227 255
206 227 255
206 227 255
207 227 255
207 227 255
206 227 255
206 227 255
206 227 255
206 227 255
206 227 255
206 227 255
206 227 255
206 227 255
206 227 255
206 227 255
206 227 255
206 227 255
206 227 255
206 227 255
206 227 255
206 227 255
206 227 255
206 227 255
206 227 255
205 227 255
205 227 255
205 227 255
205 227 255
205 227 255
205 227 255
205 227 255
205 227 255
205 227 255
205 227 255
205 227 255
205 226 255
205 226 255
205 226 255
205 226 255
205 226 255
205 226 255
205 226 255
204 226 255
204 226 255
204 226 255
204 226 255
204 226 255
204 226 255
204 226 255
204 226 255
204 226 255
204 226 255
204 226 255
204 226 255
204 226 255
204 226 255
204 226 255
204 226 255
203 226 255
203 226 255
203 226 255
203 226 255
203 226 255
203 226 255
203 226 255
203 225 255
203 225 255
203 225 255
203 225 255
203 225 255
203 225 255
203 225 255
203 225 255
203 225 255
202 225 255
202 225 255
202 225 255
202 225 255
202 225 255
202 225 255
202 225 255
202 225 255
202 225 255
202 225 255
202 225 255
202 225 255
202 225 255
202 225 255
202 225 255
201 225 255
201 225 255
201 225 255
201 225 255
201 224 255
201 224 255
201 224 255
201 224 255
201 224 255
201 224 255
201 224 255
201 224 255
201 224 255
201 224 255
200 224 255
200 224 255
200 224 255
200 224 255
200 224 255
200 224 255
200 224 255
200 224 255
200 224 255
200 224 255
200 224 255
200 224 255
200 224 255
200 224 255
200 224 255
199 224 255
199 224 255
199 223 255
199 223 255
199 223 255
199 223 255
199 223 255
199 223 255
199 223 255
199 223 255
199 223 255
199 223 255
199 223 255
199 223 255
199 223 255
198 223 255
198 223 255
198 223 255
198 223 255
198 223 255
198 223 255
198 223 255
198 223 255
198 223 255
198 223 255
198 223 255
198 223 255
198 223 255
198 223 255
198 223 255
198 223 255
198 223 255
197 223 255
197 222 255
197 222 255
197 222 255
197 222 255
197 222 255
197 222 255
197 222 255
197 222 255
197 222 255
197 222 255
197 222 255
197 222 255
197 222 255
197 222 255
197 222 255
197 222 255
197 222 255
197 222 255
197 222 255
197 222 255
197 222 255
196 222 255
196 222 255
196 222 255
196 222 255
196 222 255
196 222 255
196 222 255
196 222 255
196 222 255
196 222 255
196 222 255
196 222 255
196 222 255
196 222 255
196 222 255
196 222 255
196 222 255
196 222 255
196 222 255
196 222 255
196 222 255
196 222 255
196 222 255
196 222 255
196 222 255
196 222 255
196 222 255
196 222 255
196 222 255
196 222 255
196 222 255
196 222 255
196 222 255
196 222 255
196 222 255
196 222 255
196 222 255
196 222 255
196 222 255
196 222 255
196 222 255
196 222 255
196 222 255
196 222 255
196 222 255
196 222 255
196 222 255
196 222 255
196 222 255
196 222 255
196 222 255
196 222 255
196 222 255
196 222 255
196 222 255
196 222 255
196 222 255
196 222 255
196 222 255
196 222 255
196 222 255
196 222 255
197 222 255
197 222 255
197 222 255
197 222 255
197 222 255
197 222 255
197 222 255
197 222 255
197 222 255
197 222 255
197 222 255
197 222 255
197 222 255
197 222 255
197 222 255
197 222 255
197 222 255
197 222 255
197 222 255
197 222 255
197 222 255
197 223 255
198 223 255
198 223 255
198 223 255
198 223 255
198 223 255
198 223 255
198 223 255
198 223 255
198 223 255
198 223 255
198 223 255
198 223 255
198 223 255
198 223 255
198 223 255
198 223 255
198 223 255
199 223 255
199 223 255
199 223 255
199 223 255
199 223 255
199 223 255
199 223 255
199 223 255
199 223 255
199 223 255
199 223 255
199 223 255
199 223 255
199 224 255
199 224 255
200 224 255
200 224 255
200 224 255
200 224 255
200 224 255
200 224 255
200 224 255
200 224 255
200 224 255
200 224 255
200 224 255
200 224 255
200 224 255
200 224 255
200 224 255
201 224 255
201 224 255
201 224 255
201 224 255
201 224 255
201 224 255
201 224 255
201 224 255
201 224 255
201 224 255
201 225 255
201 225 255
201 225 255
201 225 255
202 225 255
202 225 255
202 225 255
202 225 255
202 225 255
202 225 255
202 225 255
202 225 255
202 225 255
202 225 255
202 225 255
202 225 255
202 225 255
202 225 255
202 225 255
203 225 255
203 225 255
203 225 255
203 225 255
203 225 255
203 225 255
203 225 255
203 225 255
203 225 255
203 226 255
203 226 255
203 226 255
203 226 255
203 226 255
203 226 255
203 226 255
204 226 255
204 226 255
204 226 255
204 226 255
204 226 255
204 226 255
204 226 255
204 226 255
204 226 255
204 226 255
204 226 255
204 226 255
204 226 255
204 226 255
204 226 255
204 226 255
205 226 255
205 226 255
205 226 255
205 226 255
205 226 255
205 226 255
205 226 255
205 227 255
205 227 255
205 227 255
205 227 255
205 227 255
205 227 255
205 227 255
205 227 255
205 227 255
205 227 255
205 227 255
206 227 255
206 227 255
206 227 255
206 227 255
206 227 255
206 227 255
206 227 255
206 227 255
206 227 255
206 227 255
206 227 255
206 227 255
206 227 255
206 227 255
206 227 255
206 227 255
206 227 255
206 227 255
206 227 255
207 227 255
207 227 255
207 227 255
207 227 255
207 227 255
207 227 255
207 227 255
206 227 255
206 227 255
206 227 255
206 227 255
206 227 255
206 227 255
206 227 255
206 227 255
206 227 255
206 227 255
206 227 255
206 227 255
206 227 255
206 227 255
206 227 255
206 227 255
206 227 255
206 227 255
206 227 255
205 227 255
205 227 255
205 227 255
205 227 255
205 227 255
205 227 255
205 227 255
205 227 255
205 227 255
205 227 255
205 226 255
205 226 255
205 226 255
205 226 255
205 226 255
205 226 255
205 226 255
204 226 255
204 226 255
204 226 255
204 226 255
204 226 255
204 226 255
204 226 255
204 226 255
204 226 255
204 226 255
204 226 255
204 226 255
204 226 255
204 226 255
204 226 255
204 226 255
204 226 255
203 226 255
203 226 255
203 226 255
203 226 255
203 226 255
203 226 255
203 226 255
203 225 255
203 225 255
203 225 255
203 225 255
203 225 255
203 225 255
203 225 255
203 225 255
202 225 255
202 225 255
202 225 255
202 225 255
202 225 255
202 225 255
202 225 255
202 225 255
202 225 255
202 225 255
202 225 255
202 225 255
202 225 255
202 225 255
202 225 255
201 225 255
201 225 255
201 225 255
201 225 255
201 224 255
201 224 255
201 224 255
201 224 255
201 224 255
201 224 255
201 224 255
201 224 255
201 224 255
201 224 255
201 224 255
200 224 255
200 224 255
200 224 255
200 224 255
200 224 255
200 224 255
200 224 255
200 224 255
200 224 255
200 224 255
200 224 255
200 224 255
200 224 255
200 224 255
199 224 255
199 224 255
199 224 255
199 223 255
199 223 255
199 223 255
199 223 255
199 223 255
199 223 255
199 223 255
199 223 255
199 223 255
199 223 255
199 223 255
199 223 255
199 223 255
198 223 255
198 223 255
198 223 255
198 223 255
198 223 255
198 223 255
198 223 255
198 223 255
198 223 255
198 223 255
198 223 255
198 223 255
198 223 255
198 223 255
198 223 255
198 223 255
198 223 255
197 223 255
197 222 255
197 222 255
197 222 255
197 222 255
197 222 255
197 222 255
197 222 255
197 222 255
197 222 255
197 222 255
197 222 255
197 222 255
197 222 255
197 222 255
197 222 255
197 222 255
197 222 255
197 222 255
197 222 255
197 222 255
197 222 255
197 222 255
197 222 255
196 222 255
196 222 255
196 222 255
196 222 255
196 222 255
196 222 255
196 222 255
196 222 255
196 222 255
196 222 255
196 222 255
196 222 255
196 222 255
196 222 255
196 222 255
196 222 255
196 222 255
196 222 255
196 222 255
196 222 255
196 222 255
196 222 255
196 222 255
196 222 255
196 222 255
196 222 255
196 222 255
196 222 255
196 222 255
196 222 255
196 222 255
196 222 255
196 222 255
196 222 255
196 222 255
196 222 255
196 222 255
196 222 255
196 222 255
196 222 255
196 222 255
196 222 255
196 222 255
196 222 255
196 222 255
196 222 255
196 222 255
196 222 255
196 222 255
196 222 255
196 222 255
196 222 255
197 222 255
197 222 255
197 222 255
197 222 255
197 222 255
197 222 255
197 222 255
197 222 255
197 222 255
197 222 255
197 222 255
197 222 255
197 222 255
197 222 255
197 222 255
197 222 255
197 222 255
197 222 255
197 222 255
197 222 255
197 222 255
197 222 255
197 222 255
197 223 255
198 223 255
198 223 255
198 223 255
198 223 255
198 223 255
198 223 255
198 223 255
198 223 255
198 223 255
198 223 255
198 223 255
198 223 255
198 223 255
198 223 255
198 223 255
198 223 255
198 223 255
199 223 255
199 223 255
199 223 255
199 223 255
199 223 255
199 223 255
199 223 255
199 223 255
199 223 255
199 223 255
199 223 255
199 223 255
199 223 255
199 224 255
199 224 255
199 224 255
200 224 255
200 224 255
200 224 255
200 224 255
200 224 255
200 224 255
200 224 255
200 224 255
200 224 255
200 224 255
200 224 255
200 224 255
200 224 255
200 224 255
201 224 255
201 224 255
201 224 255
201 224 255
201 224 255
201 224 255
201 224 255
201 224 255
201 224 255
201 224 255
201 224 255
201 225 255
201 225 255
201 225 255
201 225 255
202 225 255
202 225 255
202 225 255
202 225 255
202 225 255
202 225 255
202 225 255
202 225 255
202 225 255
202 225 255
202 225 255
202 225 255
202 225 255
202 225 255
202 225 255
203 225 255
203 225 255
203 225 255
203 225 255
203 225 255
203 225 255
203 225 255
203 225 255
203 226 255
203 226 255
203 226 255
203 226 255
203 226 255
203 226 255
203 226 255
204 226 255
204 226 255
204 226 255
204 226 255
204 226 255
204 226 255
204 226 255
204 226 255
204 226 255
204 226 255
204 226 255
204 226 255
204 226 255
204 226 255
204 226 255
204 226 255
204 226 255
205 226 255
205 226 255
205 226 255
205 226 255
205 226 255
205 226 255
205 226 255
205 227 255
205 227 255
205 227 255
205 227 255
205 227 255
205 227 255
205 227 255
205 227 255
205 227 255
205 227 255
206 227 255
206 227 255
206 227 255
206 227 255
206 227 255
206 227 255
206 227 255
206 227 255
206 227 255
206 227 255
206 227 255
206 227 255
206 227 255
206 227 255
206 227 255
206 227 255
206 227 255
206 227 255
206 227 255
207 227 255
207 227 255
207 227 255
207 227 255
207 227 255
207 228 255
207 228 255
207 227 255
207 227 255
207 227 255
207 227 255
207 227 255
206 227 255
206 227 255
206 227 255
206 227 255
206 227 255
206 227 255
206 227 255
206 227 255
206 227 255
206 227 255
206 227 255
206 227 255
206 227 255
206 227 255
206 227 255
206 227 255
206 227 255
206 227 255
206 227 255
205 227 255
205 227 255
205 227 255
205 227 255
205 227 255
205 227 255
205 227 255
205 227 255
205 227 255
205 227 255
205 227 255
205 226 255
205 226 255
205 226 255
205 226 255
205 226 255
205 226 255
205 226 255
204 226 255
204 226 255
204 226 255
204 226 255
204 226 255
204 226 255
204 226 255
204 226 255
204 226 255
204 226 255
204 226 255
204 226 255
204 226 255
204 226 255
204 226 255
204 226 255
203 226 255
203 226 255
203 226 255
203 226 255
203 226 255
203 226 255
203 226 255
203 225 255
203 225 255
203 225 255
203 225 255
203 225 255
203 225 255
203 225 255
203 225 255
203 225 255
202 225 255
202 225 255
202 225 255
202 225 255
202 225 255
202 225 255
202 225 255
202 225 255
202 225 255
202 225 255
202 225 255
202 225 255
202 225 255
202 225 255
201 225 255
201 225 255
201 225 255
201 225 255
201 225 255
201 224 255
201 224 255
201 224 255
201 224 255
201 224 255
201 224 255
201 224 255
201 224 255
201 224 255
201 224 255
200 224 255
200 224 255
200 224 255
200 224 255
200 224 255
200 224 255
200 224 255
200 224 255
200 224 255
200 224 255
200 224 255
200 224 255
200 224 255
200 224 255
200 224 255
199 224 255
199 224 255
199 223 255
199 223 255
199 223 255
199 223 255
199 223 255
199 223 255
199 223 255
199 223 255
199 223 255
199 223 255
199 223 255
199 223 255
199 223 255
199 223 255
198 223 255
198 223 255
198 223 255
198 223 255
198 223 255
198 223 255
198 223 255
198 223 255
198 223 255
198 223 255
198 223 255
198 223 255
198 223 255
198 223 255
198 223 255
198 223 255
198 223 255
198 223 255
197 222 255
197 222 255
197 222 255
197 222 255
197 222 255
197 222 255
197 222 255
197 222 255
197 222 255
197 222 255
197 222 255
197 222 255
197 222 255
197 222 255
197 222 255
197 222 255
197 222 255
197 222 255
197 222 255
197 222 255
197 222 255
197 222 255
197 222 255
197 222 255
197 222 255
197 222 255
196 222 255
196 222 255
196 222 255
196 222 255
196 222 255
196 222 255
196 222 255
196 222 255
196 222 255
196 222 255
196 222 255
196 222 255
196 222 255
196 222 255
196 222 255
196 222 255
196 222 255
196 222 255
196 222 255
196 222 255
196 222 255
196 222 255
196 222 255
196 222 255
196 222 255
196 222 255
196 222 255
196 222 255
196 222 255
196 222 255
196 222 255
196 222 255
196 222 255
196 222 255
196 222 255
196 222 255
196 222 255
196 222 255
196 222 255
196 222 255
197 222 255
197 222 255
197 222 255
197 222 255
197 222 255
197 222 255
197 222 255
197 222 255
197 222 255
197 222 255
197 222 255
197 222 255
197 222 255
197 222 255
197 222 255
197 222 255
197 222 255
197 222 255
197 222 255
197 222 255
197 222 255
197 222 255
197 222 255
197 222 255
197 222 255
197 222 255
198 223 255
198 223 255
198 223 255
198 223 255
198 223 255
198 223 255
198 223 255
198 223 255
198 223 255
198 223 255
198 223 255
198 223 255
198 223 255
198 223 255
198 223 255
198 223 255
198 223 255
198 223 255
199 223 255
199 223 255
199 223 255
199 223 255
199 223 255
199 223 255
199 223 255
199 223 255
199 223 255
199 223 255
199 223 255
199 223 255
199 223 255
199 223 255
199 224 255
199 224 255
200 224 255
200 224 255
200 224 255
200 224 255
200 224 255
200 224 255
200 224 255
200 224 255
200 224 255
200 224 255
200 224 255
200 224 255
200 224 255
200 224 255
200 224 255
201 224 255
201 224 255
201 224 255
201 224 255
201 224 255
201 224 255
201 224 255
201 224 255
201 224 255
201 224 255
201 225 255
201 225 255
201 225 255
201 225 255
201 225 255
202 225 255
202 225 255
202 225 255
202 225 255
202 225 255
202 225 255
202 225 255
202 225 255
202 225 255
202 225 255
202 225 255
202 225 255
202 225 255
202 225 255
202 225 255
203 225 255
203 225 255
203 225 255
203 225 255
203 225 255
203 225 255
203 225 255
203 225 255
203 226 255
203 226 255
203 226 255
203 226 255
203 226 255
203 226 255
203 226 255
204 226 255
204 226 255
204 226 255
204 226 255
204 226 255
204 226 255
204 226 255
204 226 255
204 226 255
204 226 255
204 226 255
204 226 255
204 226 255
204 226 255
204 226 255
204 226 255
205 226 255
205 226 255
205 226 255
205 226 255
205 226 255
205 226 255
205 226 255
205 227 255
205 227 255
205 227 255
205 227 255
205 227 255
205 227 255
205 227 255
205 227 255
205 227 255
205 227 255
205 227 255
206 227 255
206 227 255
206 227 255
206 227 255
206 227 255
206 227 255
206 227 255
206 227 255
206 227 255
206 227 255
206 227 255
206 227 255
206 227 255
206 227 255
206 227 255
206 227 255
206 227 255
206 227 255
206 227 255
207 227 255
207 227 255
207 227 255
207 227 255
207 227 255
207 228 255
207 228 255
207 228 255
207 228 255
207 228 255
207 228 255
207 228 255
207 227 255
207 227 255
207 227 255
207 227 255
207 227 255
206 227 255
206 227 255
206 227 255
206 227 255
206 227 255
206 227 255
206 227 255
206 227 255
206 227 255
206 227 255
206 227 255
206 227 255
206 227 255
206 227 255
206 227 255
206 227 255
206 227 255
206 227 255
206 227 255
205 227 255
205 227 255
205 227 255
205 227 255
205 227 255
205 227 255
205 227 255
205 227 255
205 227 255
205 227 255
205 226 255
205 226 255
205 226 255
205 226 255
205 226 255
205 226 255
205 226 255
204 226 255
204 226 255
204 226 255
204 226 255
204 226 255
204 226 255
204 226 255
204 226 255
204 226 255
204 226 255
204 226 255
204 226 255
204 226 255
204 226 255
204 226 255
204 226 255
204 226 255
203 226 255
203 226 255
203 226 255
203 226 255
203 226 255
203 226 255
203 225 255
203 225 255
203 225 255
203 225 255
203 225 255
203 225 255
203 225 255
203 225 255
203 225 255
202 225 255
202 225 255
202 225 255
202 225 255
202 225 255
202 225 255
202 225 255
202 225 255
202 225 255
202 225 255
202 225 255
202 225 255
202 225 255
202 225 255
202 225 255
201 225 255
201 225 255
201 225 255
201 225 255
201 224 255
201 224 255
201 224 255
201 224 255
201 224 255
201 224 255
201 224 255
201 224 255
201 224 255
201 224 255
201 224 255
200 224 255
200 224 255
200 224 255
200 224 255
200 224 255
200 224 255
200 224 255
200 224 255
200 224 255
200 224 255
200 224 255
200 224 255
200 224 255
200 224 255
200 224 255
199 224 255
199 224 255
199 223 255
199 223 255
199 223 255
199 223 255
199 223 255
199 223 255
199 223 255
199 223 255
199 223 255
199 223 255
199 223 255
199 223 255
199 223 255
198 223 255
198 223 255
198 223 255
198 223 255
198 223 255
198 223 255
198 223 255
198 223 255
198 223 255
198 223 255
198 223 255
198 223 255
198 223 255
198 223 255
198 223 255
198 223 255
198 223 255
198 223 255
198 223 255
197 223 255
197 222 255
197 222 255
197 222 255
197 222 255
197 222 255
197 222 255
197 222 255
197 222 255
197 222 255
197 222 255
197 222 255
197 222 255
197 222 255
197 222 255
197 222 255
197 222 255
197 222 255
197 222 255
197 222 255
197 222 255
197 222 255
197 222 255
197 222 255
197 222 255
197 222 255
197 222 255
197 222 255
197 222 255
197 222 255
197 222 255
197 222 255
196 222 255
196 222 255
196 222 255
196 222 255
196 222 255
196 222 255
196 222 255
196 222 255
196 222 255
196 222 255
196 222 255
196 222 255
196 222 255
196 222 255
196 222 255
196 222 255
196 222 255
196 222 255
196 222 255
196 222 255
196 222 255
196 222 255
197 222 255
197 222 255
197 222 255
197 222 255
197 222 255
197 222 255
197 222 255
197 222 255
197 222 255
197 222 255
197 222 255
197 222 255
197 222 255
197 222 255
197 222 255
197 222 255
197 222 255
197 222 255
197 222 255
197 222 255
197 222 255
197 222 255
197 222 255
197 222 255
197 222 255
197 222 255
197 222 255
197 222 255
197 222 255
197 222 255
197 222 255
197 223 255
198 223 255
198 223 255
198 223 255
198 223 255
198 223 255
198 223 255
198 223 255
198 223 255
198 223 255
198 223 255
198 223 255
198 223 255
198 223 255
198 223 255
198 223 255
198 223 255
198 223 255
198 223 255
198 223 255
199 223 255
199 223 255
199 223 255
199 223 255
199 223 255
199 223 255
199 223 255
199 223 255
199 223 255
199 223 255
199 223 255
199 223 255
199 223 255
199 224 255
199 224 255
200 224 255
200 224 255
200 224 255
200 224 255
200 224 255
200 224 255
200 224 255
200 224 255
200 224 255
200 224 255
200 224 255
200 224 255
200 224 255
200 224 255
200 224 255
201 224 255
201 224 255
201 224 255
201 224 255
201 224 255
201 224 255
201 224 255
201 224 255
201 224 255
201 224 255
201 224 255
201 225 255
201 225 255
201 225 255
201 225 255
202 225 255
202 225 255
202 225 255
202 225 255
202 225 255
202 225 255
202 225 255
202 225 255
202 225 255
202 225 255
202 225 255
202 225 255
202 225 255
202 225 255
202 225 255
203 225 255
203 225 255
203 225 255
203 225 255
203 225 255
203 225 255
203 225 255
203 225 255
203 225 255
203 226 255
203 226 255
203 226 255
203 226 255
203 226 255
203 226 255
204 226 255
204 226 255
204 226 255
204 226 255
204 226 255
204 226 255
204 226 255
204 226 255
204 226 255
204 226 255
204 226 255
204 226 255
204 226 255
204 226 255
204 226 255
204 226 255
204 226 255
205 226 255
205 226 255
205 226 255
205 226 255
205 226 255
205 226 255
205 226 255
205 227 255
205 227 255
205 227 255
205 227 255
205 227 255
205 227 255
205 227 255
205 227 255
205 227 255
205 227 255
206 227 255
206 227 255
206 227 255
206 227 255
206 227 255
206 227 255
206 227 255
206 227 255
206 227 255
206 227 255
206 227 255
206 227 255
206 227 255
206 227 255
206 227 255
206 227 255
206 227 255
206 227 255
206 227 255
207 227 255
207 227 255
207 227 255
207 227 255
207 227 255
207 228 255
207 228 255
207 228 255
207 228 255
207 228 255
207 228 255
207 228 255
207 228 255
207 228 255
207 228 255
207 228 255
207 228 255
207 228 255
207 227 255
207 227 255
207 227 255
207 227 255
207 227 255
206 227 255
206 227 255
206 227 255
206 227 255
206 227 255
206 227 255
206 227 255
206 227 255
206 227 255
206 227 255
206 227 255
206 227 255
206 227 255
206 227 255
206 227 255
206 227 255
206 227 255
206 227 255
206 227 255
205 227 255
205 227 255
205 227 255
205 227 255
205 227 255
205 227 255
205 227 255
205 227 255
205 227 255
205 227 255
205 226 255
205 226 255
205 226 255
205 226 255
205 226 255
205 226 255
205 226 255
204 226 255
204 226 255
204 226 255
204 226 255
204 226 255
204 226 255
204 226 255
204 226 255
204 226 255
204 226 255
204 226 255
204 226 255
204 226 255
204 226 255
204 226 255
204 226 255
203 226 255
203 226 255
203 226 255
203 226 255
203 226 255
203 226 255
203 226 255
203 225 255
203 225 255
203 225 255
203 225 255
203 225 255
203 225 255
203 225 255
203 225 255
202 225 255
202 225 255
202 225 255
202 225 255
202 225 255
202 225 255
202 225 255
202 225 255
202 225 255
202 225 255
202 225 255
202 225 255
202 225 255
202 225 255
202 225 255
201 225 255
201 225 255
201 225 255
201 225 255
201 225 255
201 224 255
201 224 255
201 224 255
201 224 255
201 224 255
201 224 255
201 224 255
201 224 255
201 224 255
201 224 255
200 224 255
200 224 255
200 224 255
200 224 255
200 224 255
200 224 255
200 224 255
200 224 255
200 224 255
200 224 255
200 224 255
200 224 255
200 224 255
200 224 255
200 224 255
199 224 255
199 224 255
199 224 255
199 223 255
199 223 255
199 223 255
199 223 255
199 223 255
199 223 255
199 223 255
199 223 255
199 223 255
199 223 255
199 223 255
199 223 255
199 223 255
198 223 255
198 223 255
198 223 255
198 223 255
198 223 255
198 223 255
198 223 255
198 223 255
198 223 255
198 223 255
198 223 255
198 223 255
198 223 255
198 223 255
198 223 255
198 223 255
198 223 255
198 223 255
198 223 255
198 223 255
197 223 255
197 222 255
197 222 255
197 222 255
197 222 255
197 222 255
197 222 255
197 222 255
197 222 255
197 222 255
197 222 255
197 222 255
197 222 255
197 222 255
197 222 255
197 222 255
197 222 255
197 222 255
197 222 255
197 222 255
197 222 255
197 222 255
197 222 255
197 222 255
197 222 255
197 222 255
197 222 255
197 222 255
197 222 255
197 222 255
197 222 255
197 222 255
197 222 255
197 222 255
197 222 255
197 222 255
197 222 255
197 222 255
197 222 255
197 222 255
197 222 255
197 222 255
197 222 255
197 222 255
197 222 255
197 222 255
197 222 255
197 222 255
197 222 255
197 222 255
197 222 255
197 222 255
197 222 255
197 222 255
197 222 255
197 222 255
197 222 255
197 222 255
197 222 255
197 222 255
197 222 255
197 222 255
197 222 255
197 222 255
197 222 255
197 222 255
197 222 255
197 222 255
197 222 255
197 222 255
197 222 255
197 222 255
197 222 255
197 222 255
197 222 255
197 222 255
197 222 255
197 223 255
198 223 255
198 223 255
198 223 255
198 223 255
198 223 255
198 223 255
198 223 255
198 223 255
198 223 255
198 223 255
198 223 255
198 223 255
198 223 255
198 223 255
198 223 255
198 223 255
198 223 255
198 223 255
198 223 255
198 223 255
199 223 255
199 223 255
199 223 255
199 223 255
199 223 255
199 223 255
199 223 255
199 223 255
199 223 255
199 223 255
199 223 255
199 223 255
199 223 255
199 224 255
199 224 255
199 224 255
200 224 255
200 224 255
200 224 255
200 224 255
200 224 255
200 224 255
200 224 255
200 224 255
200 224 255
200 224 255
200 224 255
200 224 255
200 224 255
200 224 255
200 224 255
201 224 255
201 224 255
201 224 255
201 224 255
201 224 255
201 224 255
201 224 255
201 224 255
201 224 255
201 224 255
201 225 255
201 225 255
201 225 255
201 225 255
201 225 255
202 225 255
202 225 255
202 225 255
202 225 255
202 225 255
202 225 255
202 225 255
202 225 255
202 225 255
202 225 255
202 225 255
202 225 255
202 225 255
202 225 255
202 225 255
203 225 255
203 225 255
203 225 255
203 225 255
203 225 255
203 225 255
203 225 255
203 225 255
203 226 255
203 226 255
203 226 255
203 226 255
203 226 255
203 226 255
203 226 255
204 226 255
204 226 255
204 226 255
204 226 255
204 226 255
204 226 255
204 226 255
204 226 255
204 226 255
204 226 255
204 226 255
204 226 255
204 226 255
204 226 255
204 226 255
204 226 255
205 226 255
205 226 255
205 226 255
205 226 255
205 226 255
205 226 255
205 226 255
205 227 255
205 227 255
205 227 255
205 227 255
205 227 255
205 227 255
205 227 255
205 227 255
205 227 255
205 227 255
206 227 255
206 227 255
206 227 255
206 227 255
206 227 255
206 227 255
206 227 255
206 227 255
206 227 255
206 227 255
206 227 255
206 227 255
206 227 255
206 227 255
206 227 255
206 227 255
206 227 255
206 227 255
206 227 255
207 227 255
207 227 255
207 227 255
207 227 255
207 227 255
207 228 255
207 228 255
207 228 255
207 228 255
207 228 255
207 228 255
207 228 255
207 228 255
207 228 255
207 228 255
207 228 255
207 228 255
207 228 255
207 228 255
207 228 255
207 228 255
207 228 255
207 228 255
207 228 255
207 227 255
207 227 255
207 227 255
207 227 255
207 227 255
206 227 255
206 227 255
206 227 255
206 227 255
206 227 255
206 227 255
206 227 255
206 227 255
206 227 255
206 227 255
206 227 255
206 227 255
206 227 255
206 227 255
206 227 255
206 227 255
206 227 255
206 227 255
205 227 255
205 227 255
205 227 255
205 227 255
205 227 255
205 227 255
205 227 255
205 227 255
205 227 255
205 227 255
205 227 255
205 226 255
205 226 255
205 226 255
205 226 255
205 226 255
205 226 255
205 226 255
204 226 255
204 226 255
204 226 255
204 226 255
204 226 255
204 226 255
204 226 255
204 226 255
204 226 255
204 226 255
204 226 255
204 226 255
204 226 255
204 226 255
204 226 255
204 226 255
203 226 255
203 226 255
203 226 255
203 226 255
203 226 255
203 226 255
203 225 255
203 225 255
203 225 255
203 225 255
203 225 255
203 225 255
203 225 255
203 225 255
203 225 255
202 225 255
202 225 255
202 225 255
202 225 255
202 225 255
202 225 255
202 225 255
202 225 255
202 225 255
202 225 255
202 225 255
202 225 255
202 225 255
202 225 255
202 225 255
201 225 255
201 225 255
201 225 255
201 225 255
201 224 255
201 224 255
201 224 255
201 224 255
201 224 255
201 224 255
201 224 255
201 224 255
201 224 255
201 224 255
201 224 255
200 224 255
200 224 255
200 224 255
200 224 255
200 224 255
200 224 255
200 224 255
200 224 255
200 224 255
200 224 255
200 224 255
200 224 255
200 224 255
200 224 255
200 224 255
199 224 255
199 224 255
199 223 255
199 223 255
199 223 255
199 223 255
199 223 255
199 223 255
199 223 255
199 223 255
199 223 255
199 223 255
199 223 255
199 223 255
199 223 255
199 223 255
198 223 255
198 223 255
198 223 255
198 223 255
198 223 255
198 223 255
198 223 255
198 223 255
198 223 255
198 223 255
198 223 255
198 223 255
198 223 255
198 223 255
198 223 255
198 223 255
198 223 255
198 223 255
198 223 255
198 223 255
198 223 255
197 223 255
197 222 255
197 222 255
197 222 255
197 222 255
197 222 255
197 222 255
197 222 255
197 222 255
197 222 255
197 222 255
197 222 255
197 222 255
197 222 255
197 222 255
197 222 255
197 222 255
197 222 255
197 222 255
197 222 255
197 222 255
197 222 255
197 222 255
197 222 255
197 222 255
197 222 255
197 222 255
197 222 255
197 222 255
197 222 255
197 222 255
197 222 255
197 222 255
197 222 255
197 222 255
197 222 255
197 222 255
197 222 255
197 222 255
197 222 255
197 222 255
197 222 255
197 222 255
197 222 255
197 222 255
197 222 255
197 222 255
197 222 255
197 222 255
197 222 255
197 222 255
197 222 255
197 222 255
197 222 255
197 222 255
197 222 255
197 222 255
197 222 255
197 222 255
197 222 255
197 222 255
197 222 255
197 222 255
197 222 255
197 222 255
197 222 255
197 222 255
197 222 255
197 222 255
197 223 255
198 223 255
198 223 255
198 223 255
198 223 255
198 223 255
198 223 255
198 223 255
198 223 255
198 223 255
198 223 255
198 223 255
198 223 255
198 223 255
198 223 255
198 223 255
198 223 255
198 223 255
198 223 255
198 223 255
198 223 255
198 223 255
199 223 255
199 223 255
199 223 255
199 223 255
199 223 255
199 223 255
199 223 255
199 223 255
199 223 255
199 223 255
199 223 255
199 223 255
199 223 255
199 223 255
199 224 255
199 224 255
200 224 255
200 224 255
200 224 255
200 224 255
200 224 255
200 224 255
200 224 255
200 224 255
200 224 255
200 224 255
200 224 255
200 224 255
200 224 255
200 224 255
200 224 255
201 224 255
201 224 255
201 224 255
201 224 255
201 224 255
201 224 255
201 224 255
201 224 255
201 224 255
201 224 255
201 224 255
201 225 255
201 225 255
201 225 255
201 225 255
202 225 255
202 225 255
202 225 255
202 225 255
202 225 255
202 225 255
202 225 255
202 225 255
202 225 255
202 225 255
202 225 255
202 225 255
202 225 255
202 225 255
202 225 255
203 225 255
203 225 255
203 225 255
203 225 255
203 225 255
203 225 255
203 225 255
203 225 255
203 225 255
203 226 255
203 226 255
203 226 255
203 226 255
203 226 255
203 226 255
204 226 255
204 226 255
204 226 255
204 226 255
204 226 255
204 226 255
204 226 255
204 226 255
204 226 255
204 226 255
204 226 255
204 226 255
204 226 255
204 226 255
204 226 255
204 226 255
204 226 255
205 226 255
205 226 255
205 226 255
205 226 255
205 226 255
205 226 255
205 227 255
205 227 255
205 227 255
205 227 255
205 227 255
205 227 255
205 227 255
205 227 255
205 227 255
205 227 255
205 227 255
206 227 255
206 227 255
206 227 255
206 227 255
206 227 255
206 227 255
206 227 255
206 227 255
206 227 255
206 227 255
206 227 255
206 227 255
206 227 255
206 227 255
206 227 255
206 227 255
206 227 255
206 227 255
207 227 255
207 227 255
207 227 255
207 227 255
207 227 255
207 228 255
207 228 255
207 228 255
207 228 255
207 228 255
207 228 255
207 228 255
207 228 255
207 228 255
207 228 255
207 228 255
207 228 255
207 228 255
207 228 255
207 228 255
207 228 255
207 228 255
207 228 255
207 228 255
207 228 255
207 228 255
207 228 255
207 228 255
207 228 255
207 228 255
207 227 255
207 227 255
207 227 255
207 227 255
206 227 255
206 227 255
206 227 255
206 227 255
206 227 255
206 227 255
206 227 255
206 227 255
206 227 255
206 227 255
206 227 255
206 227 255
206 227 255
206 227 255
206 227 255
206 227 255
206 227 255
206 227 255
206 227 255
205 227 255
205 227 255
205 227 255
205 227 255
205 227 255
205 227 255
205 227 255
205 227 255
205 227 255
205 227 255
205 226 255
205 226 255
205 226 255
205 226 255
205 226 255
205 226 255
205 226 255
204 226 255
204 226 255
204 226 255
204 226 255
204 226 255
204 226 255
204 226 255
204 226 255
204 226 255
204 226 255
204 226 255
204 226 255
204 226 255
204 226 255
204 226 255
204 226 255
203 226 255
203 226 255
203 226 255
203 226 255
203 226 255
203 226 255
203 226 255
203 225 255
203 225 255
203 225 255
203 225 255
203 225 255
203 225 255
203 225 255
203 225 255
202 225 255
202 225 255
202 225 255
202 225 255
202 225 255
202 225 255
202 225 255
202 225 255
202 225 255
202 225 255
202 225 255
202 225 255
202 225 255
202 225 255
202 225 255
201 225 255
201 225 255
201 225 255
201 225 255
201 225 255
201 224 255
201 224 255
201 224 255
201 224 255
201 224 255
201 224 255
201 224 255
201 224 255
201 224 255
201 224 255
200 224 255
200 224 255
200 224 255
200 224 255
200 224 255
200 224 255
200 224 255
200 224 255
200 224 255
200 224 255
200 224 255
200 224 255
200 224 255
200 224 255
200 224 255
200 224 255
199 224 255
199 224 255
199 223 255
199 223 255
199 223 255
199 223 255
199 223 255
199 223 255
199 223 255
199 223 255
199 223 255
199 223 255
199 223 255
199 223 255
199 223 255
199 223 255
199 223 255
198 223 255
198 223 255
198 223 255
198 223 255
198 223 255
198 223 255
198 223 255
198 223 255
198 223 255
198 223 255
198 223 255
198 223 255
198 223 255
198 223 255
198 223 255
198 223 255
198 223 255
198 223 255
198 223 255
198 223 255
198 223 255
198 223 255
197 223 255
197 222 255
197 222 255
197 222 255
197 222 255
197 222 255
197 222 255
197 222 255
197 222 255
197 222 255
197 222 255
197 222 255
197 222 255
197 222 255
197 222 255
197 222 255
197 222 255
197 222 255
197 222 255
197 222 255
197 222 255
197 222 255
197 222 255
197 222 255
197 222 255
197 222 255
197 222 255
197 222 255
197 222 255
197 222 255
197 222 255
197 222 255
197 222 255
197 222 255
197 222 255
197 222 255
197 222 255
197 222 255
197 222 255
197 222 255
197 222 255
197 222 255
197 222 255
197 222 255
197 222 255
197 222 255
197 222 255
197 222 255
197 222 255
197 222 255
197 222 255
197 222 255
197 222 255
197 222 255
197 222 255
197 222 255
197 222 255
197 222 255
197 222 255
197 223 255
198 223 255
198 223 255
198 223 255
198 223 255
198 223 255
198 223 255
198 223 255
198 223 255
198 223 255
198 223 255
198 223 255
198 223 255
198 223 255
198 223 255
198 223 255
198 223 255
198 223 255
198 223 255
198 223 255
198 223 255
198 223 255
198 223 255
199 223 255
199 223 255
199 223 255
199 223 255
199 223 255
199 223 255
199 223 255
199 223 255
199 223 255
199 223 255
199 223 255
199 223 255
199 223 255
199 223 255
199 223 255
199 224 255
199 224 255
200 224 255
200 224 255
200 224 255
200 224 255
200 224 255
200 224 255
200 224 255
200 224 255
200 224 255
200 224 255
200 224 255
200 224 255
200 224 255
200 224 255
200 224 255
200 224 255
201 224 255
201 224 255
201 224 255
201 224 255
201 224 255
201 224 255
201 224 255
201 224 255
201 224 255
201 224 255
201 225 255
201 225 255
201 225 255
201 225 255
201 225 255
202 225 255
202 225 255
202 225 255
202 225 255
202 225 255
202 225 255
202 225 255
202 225 255
202 225 255
202 225 255
202 225 255
202 225 255
202 225 255
202 225 255
202 225 255
203 225 255
203 225 255
203 225 255
203 225 255
203 225 255
203 225 255
203 225 255
203 225 255
203 226 255
203 226 255
203 226 255
203 226 255
203 226 255
203 226 255
203 226 255
204 226 255
204 226 255
204 226 255
204 226 255
204 226 255
204 226 255
204 226 255
204 226 255
204 226 255
204 226 255
204 226 255
204 226 255
204 226 255
204 226 255
204 226 255
204 226 255
205 226 255
205 226 255
205 226 255
205 226 255
205 226 255
205 226 255
205 226 255
205 227 255
205 227 255
205 227 255
205 227 255
205 227 255
205 227 255
205 227 255
205 227 255
205 227 255
205 227 255
206 227 255
206 227 255
206 227 255
206 227 255
206 227 255
206 227 255
206 227 255
206 227 255
206 227 255
206 227 255
206 227 255
206 227 255
206 227 255
206 227 255
206 227 255
206 227 255
206 227 255
206 227 255
206 227 255
207 227 255
207 227 255
207 227 255
207 227 255
207 228 255
207 228 255
207 228 255
207 228 255
207 228 255
207 228 255
207 228 255
207 228 255
207 228 255
207 228 255
207 228 255
207 228 255
207 228 255
207 228 255
208 228 255
207 228 255
207 228 255
207 228 255
207 228 255
207 228 255
207 228 255
207 228 255
207 228 255
207 228 255
207 228 255
207 228 255
207 228 255
207 228 255
207 228 255
207 228 255
207 228 255
207 227 255
207 227 255
207 227 255
207 227 255
206 227 255
206 227 255
206 227 255
206 227 255
206 227 255
206 227 255
206 227 255
206 227 255
206 227 255
206 227 255
206 227 255
206 227 255
206 227 255
206 227 255
206 227 255
206 227 255
206 227 255
206 227 255
206 227 255
205 227 255
205 227 255
205 227 255
205 227 255
205 227 255
205 227 255
205 227 255
205 227 255
205 227 255
205 227 255
205 226 255
205 226 255
205 226 255
205 226 255
205 226 255
205 226 255
205 226 255
204 226 255
204 226 255
204 226 255
204 226 255
204 226 255
204 226 255
204 226 255
204 226 255
204 226 255
204 226 255
204 226 255
204 226 255
204 226 255
204 226 255
204 226 255
204 226 255
203 226 255
203 226 255
203 226 255
203 226 255
203 226 255
203 226 255
203 226 255
203 225 255
203 225 255
203 225 255
203 225 255
203 225 255
203 225 255
203 225 255
203 225 255
202 225 255
202 225 255
202 225 255
202 225 255
202 225 255
202 225 255
202 225 255
202 225 255
202 225 255
202 225 255
202 225 255
202 225 255
202 225 255
202 225 255
202 225 255
201 225 255
201 225 255
201 225 255
201 225 255
201 224 255
201 224 255
201 224 255
201 224 255
201 224 255
201 224 255
201 224 255
201 224 255
201 224 255
201 224 255
201 224 255
200 224 255
200 224 255
200 224 255
200 224 255
200 224 255
200 224 255
200 224 255
200 224 255
200 224 255
200 224 255
200 224 255
200 224 255
200 224 255
200 224 255
200 224 255
200 224 255
199 224 255
199 224 255
199 223 255
199 223 255
199 223 255
199 223 255
199 223 255
199 223 255
199 223 255
199 223 255
199 223 255
199 223 255
199 223 255
199 223 255
199 223 255
199 223 255
199 223 255
198 223 255
198 223 255
198 223 255
198 223 255
198 223 255
198 223 255
198 223 255
198 223 255
198 223 255
198 223 255
198 223 255
198 223 255
198 223 255
198 223 255
198 223 255
198 223 255
198 223 255
198 223 255
198 223 255
198 223 255
198 223 255
198 223 255
198 223 255
198 223 255
198 223 255
197 223 255
197 222 255
197 222 255
197 222 255
197 222 255
197 222 255
197 222 255
197 222 255
197 222 255
197 222 255
197 222 255
197 222 255
197 222 255
197 222 255
197 222 255
197 222 255
197 222 255
197 222 255
197 222 255
197 222 255
197 222 255
197 222 255
197 222 255
197 222 255
197 222 255
197 222 255
197 222 255
197 222 255
197 222 255
197 222 255
197 222 255
197 222 255
197 222 255
197 222 255
197 222 255
197 222 255
197 222 255
197 222 255
197 222 255
197 222 255
197 222 255
197 222 255
197 222 255
197 222 255
197 222 255
197 222 255
197 222 255
197 223 255
197 223 255
198 223 255
198 223 255
198 223 255
198 223 255
198 223 255
198 223 255
198 223 255
198 223 255
198 223 255
198 223 255
198 223 255
198 223 255
198 223 255
198 223 255
198 223 255
198 223 255
198 223 255
198 223 255
198 223 255
198 223 255
198 223 255
198 223 255
198 223 255
198 223 255
199 223 255
199 223 255
199 223 255
199 223 255
199 223 255
199 223 255
199 223 255
199 223 255
199 223 255
199 223 255
199 223 255
199 223 255
199 223 255
199 223 255
199 223 255
199 224 255
199 224 255
200 224 255
200 224 255
200 224 255
200 224 255
200 224 255
200 224 255
200 224 255
200 224 255
200 224 255
200 224 255
200 224 255
200 224 255
200 224 255
200 224 255
200 224 255
200 224 255
201 224 255
201 224 255
201 224 255
201 224 255
201 224 255
201 224 255
201 224 255
201 224 255
201 224 255
201 224 255
201 224 255
201 225 255
201 225 255
201 225 255
201 225 255
202 225 255
202 225 255
202 225 255
202 225 255
202 225 255
202 225 255
202 225 255
202 225 255
202 225 255
202 225 255
202 225 255
202 225 255
202 225 255
202 225 255
202 225 255
203 225 255
203 225 255
203 225 255
203 225 255
203 225 255
203 225 255
203 225 255
203 225 255
203 225 255
203 226 255
203 226 255
203 226 255
203 226 255
203 226 255
203 226 255
204 226 255
204 226 255
204 226 255
204 226 255
204 226 255
204 226 255
204 226 255
204 226 255
204 226 255
204 226 255
204 226 255
204 226 255
204 226 255
204 226 255
204 226 255
204 226 255
205 226 255
205 226 255
205 226 255
205 226 255
205 226 255
205 226 255
205 226 255
205 227 255
205 227 255
205 227 255
205 227 255
205 227 255
205 227 255
205 227 255
205 227 255
205 227 255
205 227 255
206 227 255
206 227 255
206 227 255
206 227 255
206 227 255
206 227 255
206 227 255
206 227 255
206 227 255
206 227 255
206 227 255
206 227 255
206 227 255
206 227 255
206 227 255
206 227 255
206 227 255
206 227 255
206 227 255
207 227 255
207 227 255
207 227 255
207 227 255
207 228 255
207 228 255
207 228 255
207 228 255
207 228 255
207 228 255
207 228 255
207 228 255
207 228 255
207 228 255
207 228 255
207 228 255
207 228 255
207 228 255
207 228 255
207 228 255
208 228 255
208 228 255
208 228 255
208 228 255
208 228 255
207 228 255
207 228 255
207 228 255
207 228 255
207 228 255
207 228 255
207 228 255
207 228 255
207 228 255
207 228 255
207 228 255
207 228 255
207 228 255
207 228 255
207 228 255
207 227 255
207 227 255
207 227 255
207 227 255
207 227 255
206 227 255
206 227 255
206 227 255
206 227 255
206 227 255
206 227 255
206 227 255
206 227 255
206 227 255
206 227 255
206 227 255
206 227 255
206 227 255
206 227 255
206 227 255
206 227 255
206 227 255
206 227 255
205 227 255
205 227 255
205 227 255
205 227 255
205 227 255
205 227 255
205 227 255
205 227 255
205 227 255
205 227 255
205 227 255
205 226 255
205 226 255
205 226 255
205 226 255
205 226 255
205 226 255
204 226 255
204 226 255
204 226 255
204 226 255
204 226 255
204 226 255
204 226 255
204 226 255
204 226 255
204 226 255
204 226 255
204 226 255
204 226 255
204 226 255
204 226 255
204 226 255
203 226 255
203 226 255
203 226 255
203 226 255
203 226 255
203 226 255
203 226 255
203 225 255
203 225 255
203 225 255
203 225 255
203 225 255
203 225 255
203 225 255
203 225 255
203 225 255
202 225 255
202 225 255
202 225 255
202 225 255
202 225 255
202 225 255
202 225 255
202 225 255
202 225 255
202 225 255
202 225 255
202 225 255
202 225 255
202 225 255
201 225 255
201 225 255
201 225 255
201 225 255
201 225 255
201 224 255
201 224 255
201 224 255
201 224 255
201 224 255
201 224 255
201 224 255
201 224 255
201 224 255
201 224 255
201 224 255
200 224 255
200 224 255
200 224 255
200 224 255
200 224 255
200 224 255
200 224 255
200 224 255
200 224 255
200 224 255
200 224 255
200 224 255
200 224 255
200 224 255
200 224 255
199 224 255
199 224 255
199 224 255
199 223 255
199 223 255
199 223 255
199 223 255
199 223 255
199 223 255
199 223 255
199 223 255
199 223 255
199 223 255
199 223 255
199 223 255
199 223 255
199 223 255
199 223 255
199 223 255
198 223 255
198 223 255
198 223 255
198 223 255
198 223 255
198 223 255
198 223 255
198 223 255
198 223 255
198 223 255
198 223 255
198 223 255
198 223 255
198 223 255
198 223 255
198 223 255
198 223 255
198 223 255
198 223 255
198 223 255
198 223 255
198 223 255
198 223 255
198 223 255
198 223 255
198 223 255
198 223 255
198 223 255
197 223 255
197 222 255
197 222 255
197 222 255
197 222 255
197 222 255
197 222 255
197 222 255
197 222 255
197 222 255
197 222 255
197 222 255
197 222 255
197 222 255
197 222 255
197 222 255
197 222 255
197 222 255
197 222 255
197 222 255
197 222 255
197 222 255
197 222 255
197 222 255
197 222 255
197 222 255
197 222 255
197 222 255
197 222 255
197 222 255
197 222 255
197 222 255
197 222 255
197 223 255
198 223 255
198 223 255
198 223 255
198 223 255
198 223 255
198 223 255
198 223 255
198 223 255
198 223 255
198 223 255
198 223 255
198 223 255
198 223 255
198 223 255
198 223 255
198 223 255
198 223 255
198 223 255
198 223 255
198 223 255
198 223 255
198 223 255
198 223 255
198 223 255
198 223 255
198 223 255
198 223 255
198 223 255
199 223 255
199 223 255
199 223 255
199 223 255
199 223 255
199 223 255
199 223 255
199 223 255
199 223 255
199 223 255
199 223 255
199 223 255
199 223 255
199 223 255
199 223 255
199 223 255
199 224 255
199 224 255
200 224 255
200 224 255
200 224 255
200 224 255
200 224 255
200 224 255
200 224 255
200 224 255
200 224 255
200 224 255
200 224 255
200 224 255
200 224 255
200 224 255
200 224 255
200 224 255
201 224 255
201 224 255
201 224 255
201 224 255
201 224 255
201 224 255
201 224 255
201 224 255
201 224 255
201 224 255
201 224 255
201 225 255
201 225 255
201 225 255
201 225 255
202 225 255
202 225 255
202 225 255
202 225 255
202 225 255
202 225 255
202 225 255
202 225 255
202 225 255
202 225 255
202 225 255
202 225 255
202 225 255
202 225 255
202 225 255
202 225 255
203 225 255
203 225 255
203 225 255
203 225 255
203 225 255
203 225 255
203 225 255
203 225 255
203 226 255
203 226 255
203 226 255
203 226 255
203 226 255
203 226 255
203 226 255
204 226 255
204 226 255
204 226 255
204 226 255
204 226 255
204 226 255
204 226 255
204 226 255
204 226 255
204 226 255
204 226 255
204 226 255
204 226 255
204 226 255
204 226 255
204 226 255
205 226 255
205 226 255
205 226 255
205 226 255
205 226 255
205 226 255
205 227 255
205 227 255
205 227 255
205 227 255
205 227 255
205 227 255
205 227 255
205 227 255
205 227 255
205 227 255
205 227 255
206 227 255
206 227 255
206 227 255
206 227 255
206 227 255
206 227 255
206 227 255
206 227 255
206 227 255
206 227 255
206 227 255
206 227 255
206 227 255
206 227 255
206 227 255
206 227 255
206 227 255
206 227 255
207 227 255
207 227 255
207 227 255
207 227 255
207 227 255
207 228 255
207 228 255
207 228 255
207 228 255
207 228 255
207 228 255
207 228 255
207 228 255
207 228 255
207 228 255
207 228 255
207 228 255
207 228 255
207 228 255
207 228 255
208 228 255
208 228 255
208 228 255
208 228 255
208 228 255
208 228 255
208 228 255
208 228 255
208 228 255
208 228 255
208 228 255
207 228 255
207 228 255
207 228 255
207 228 255
207 228 255
207 228 255
207 228 255
207 228 255
207 228 255
207 228 255
207 228 255
207 228 255
207 228 255
207 228 255
207 228 255
207 227 255
207 227 255
207 227 255
207 227 255
207 227 255
206 227 255
206 227 255
206 227 255
206 227 255
206 227 255
206 227 255
206 227 255
206 227 255
206 227 255
206 227 255
206 227 255
206 227 255
206 227 255
206 227 255
206 227 255
206 227 255
206 227 255
206 227 255
205 227 255
205 227 255
205 227 255
205 227 255
205 227 255
205 227 255
205 227 255
205 227 255
205 227 255
205 227 255
205 226 255
205 226 255
205 226 255
205 226 255
205 226 255
205 226 255
205 226 255
204 226 255
204 226 255
204 226 255
204 226 255
204 226 255
204 226 255
204 226 255
204 226 255
204 226 255
204 226 255
204 226 255
204 226 255
204 226 255
204 226 255
204 226 255
204 226 255
203 226 255
203 226 255
203 226 255
203 226 255
203 226 255
203 226 255
203 226 255
203 225 255
203 225 255
203 225 255
203 225 255
203 225 255
203 225 255
203 225 255
203 225 255
202 225 255
202 225 255
202 225 255
202 225 255
202 225 255
202 225 255
202 225 255
202 225 255
202 225 255
202 225 255
202 225 255
202 225 255
202 225 255
202 225 255
202 225 255
201 225 255
201 225 255
201 225 255
201 225 255
201 225 255
201 224 255
201 224 255
201 224 255
201 224 255
201 224 255
201 224 255
201 224 255
201 224 255
201 224 255
201 224 255
200 224 255
200 224 255
200 224 255
200 224 255
200 224 255
200 224 255
200 224 255
200 224 255
200 224 255
200 224 255
200 224 255
200 224 255
200 224 255
200 224 255
200 224 255
200 224 255
200 224 255
199 224 255
199 224 255
199 223 255
199 223 255
199 223 255
199 223 255
199 223 255
199 223 255
199 223 255
199 223 255
199 223 255
199 223 255
199 223 255
199 223 255
199 223 255
199 223 255
199 223 255
199 223 255
199 223 255
198 223 255
198 223 255
198 223 255
198 223 255
198 223 255
198 223 255
198 223 255
198 223 255
198 223 255
198 223 255
198 223 255
198 223 255
198 223 255
198 223 255
198 223 255
198 223 255
198 223 255
198 223 255
198 223 255
198 223 255
198 223 255
198 223 255
198 223 255
198 223 255
198 223 255
198 223 255
198 223 255
198 223 255
198 223 255
198 223 255
198 223 255
198 223 255
198 223 255
198 223 255
198 223 255
198 223 255
198 223 255
198 223 255
197 223 255
197 223 255
197 223 255
197 223 255
197 223 255
198 223 255
197 223 255
198 223 255
198 223 255
198 223 255
198 223 255
198 223 255
198 223 255
198 223 255
198 223 255
198 223 255
198 223 255
198 223 255
198 223 255
198 223 255
198 223 255
198 223 255
198 223 255
198 223 255
198 223 255
198 223 255
198 223 255
198 223 255
198 223 255
198 223 255
198 223 255
198 223 255
198 223 255
198 223 255
198 223 255
198 223 255
198 223 255
198 223 255
198 223 255
198 223 255
198 223 255
198 223 255
198 223 255
198 223 255
199 223 255
199 223 255
199 223 255
199 223 255
199 223 255
199 223 255
199 223 255
199 223 255
199 223 255
199 223 255
199 223 255
199 223 255
199 223 255
199 223 255
199 223 255
199 223 255
199 223 255
199 224 255
199 224 255
200 224 255
200 224 255
200 224 255
200 224 255
200 224 255
200 224 255
200 224 255
200 224 255
200 224 255
200 224 255
200 224 255
200 224 255
200 224 255
200 224 255
200 224 255
200 224 255
200 224 255
201 224 255
201 224 255
201 224 255
201 224 255
201 224 255
201 224 255
201 224 255
201 224 255
201 224 255
201 224 255
201 225 255
201 225 255
201 225 255
201 225 255
201 225 255
202 225 255
202 225 255
202 225 255
202 225 255
202 225 255
202 225 255
202 225 255
202 225 255
202 225 255
202 225 255
202 225 255
202 225 255
202 225 255
202 225 255
202 225 255
203 225 255
203 225 255
203 225 255
203 225 255
203 225 255
203 225 255
203 225 255
203 225 255
203 226 255
203 226 255
203 226 255
203 226 255
203 226 255
203 226 255
203 226 255
204 226 255
204 226 255
204 226 255
204 226 255
204 226 255
204 226 255
204 226 255
204 226 255
204 226 255
204 226 255
204 226 255
204 226 255
204 226 255
204 226 255
204 226 255
204 226 255
205 226 255
205 226 255
205 226 255
205 226 255
205 226 255
205 226 255
205 226 255
205 227 255
205 227 255
205 227 255
205 227 255
205 227 255
205 227 255
205 227 255
205 227 255
205 227 255
205 227 255
206 227 255
206 227 255
206 227 255
206 227 255
206 227 255
206 227 255
206 227 255
206 227 255
206 227 255
206 227 255
206 227 255
206 227 255
206 227 255
206 227 255
206 227 255
206 227 255
206 227 255
206 227 255
207 227 255
207 227 255
207 227 255
207 227 255
207 227 255
207 228 255
207 228 255
207 228 255
207 228 255
207 228 255
207 228 255
207 228 255
207 228 255
207 228 255
207 228 255
207 228 255
207 228 255
207 228 255
207 228 255
207 228 255
208 228 255
208 228 255
208 228 255
208 228 255
208 228 255
208 228 255
208 228 255
208 228 255
208 228 255
208 228 255
208 228 255
208 228 255
208 228 255
208 228 255
208 228 255
208 228 255
208 228 255
207 228 255
207 228 255
207 228 255
207 228 255
207 228 255
207 228 255
207 228 255
207 228 255
207 228 255
207 228 255
207 228 255
207 228 255
207 228 255
207 228 255
207 228 255
207 227 255
207 227 255
207 227 255
207 227 255
207 227 255
206 227 255
206 227 255
206 227 255
206 227 255
206 227 255
206 227 255
206 227 255
206 227 255
206 227 255
206 227 255
206 227 255
206 227 255
206 227 255
206 227 255
206 227 255
206 227 255
206 227 255
206 227 255
205 227 255
205 227 255
205 227 255
205 227 255
205 227 255
205 227 255
205 227 255
205 227 255
205 227 255
205 227 255
205 226 255
205 226 255
205 226 255
205 226 255
205 226 255
205 226 255
205 226 255
204 226 255
204 226 255
204 226 255
204 226 255
204 226 255
204 226 255
204 226 255
204 226 255
204 226 255
204 226 255
204 226 255
204 226 255
204 226 255
204 226 255
204 226 255
204 226 255
203 226 255
203 226 255
203 226 255
203 226 255
203 226 255
203 226 255
203 225 255
203 225 255
203 225 255
203 225 255
203 225 255
203 225 255
203 225 255
203 225 255
203 225 255
202 225 255
202 225 255
202 225 255
202 225 255
202 225 255
202 225 255
202 225 255
202 225 255
202 225 255
202 225 255
202 225 255
202 225 255
202 225 255
202 225 255
202 225 255
201 225 255
201 225 255
201 225 255
201 225 255
201 224 255
201 224 255
201 224 255
201 224 255
201 224 255
201 224 255
201 224 255
201 224 255
201 224 255
201 224 255
201 224 255
200 224 255
200 224 255
200 224 255
200 224 255
200 224 255
200 224 255
200 224 255
200 224 255
200 224 255
200 224 255
200 224 255
200 224 255
200 224 255
200 224 255
200 224 255
200 224 255
200 224 255
199 224 255
199 224 255
199 224 255
199 223 255
199 223 255
199 223 255
199 223 255
199 223 255
199 223 255
199 223 255
199 223 255
199 223 255
199 223 255
199 223 255
199 223 255
199 223 255
199 223 255
199 223 255
199 223 255
199 223 255
198 223 255
198 223 255
198 223 255
198 223 255
198 223 255
198 223 255
198 223 255
198 223 255
198 223 255
198 223 255
198 223 255
198 223 255
198 223 255
198 223 255
198 223 255
198 223 255
198 223 255
198 223 255
198 223 255
198 223 255
198 223 255
198 223 255
198 223 255
198 223 255
198 223 255
198 223 255
198 223 255
198 223 255
198 223 255
198 223 255
198 223 255
198 223 255
198 223 255
198 223 255
198 223 255
198 223 255
198 223 255
198 223 255
198 223 255
198 223 255
198 223 255
198 223 255
198 223 255
198 223 255
198 223 255
198 223 255
198 223 255
198 223 255
198 223 255
198 223 255
198 223 255
198 223 255
198 223 255
198 223 255
198 223 255
198 223 255
198 223 255
198 223 255
198 223 255
198 223 255
198 223 255
198 223 255
198 223 255
198 223 255
198 223 255
198 223 255
198 223 255
198 223 255
198 223 255
198 223 255
198 223 255
198 223 255
198 223 255
198 223 255
199 223 255
199 223 255
199 223 255
199 223 255
199 223 255
199 223 255
199 223 255
199 223 255
199 223 255
199 223 255
199 223 255
199 223 255
199 223 255
199 223 255
199 223 255
199 223 255
199 223 255
199 224 255
199 224 255
199 224 255
200 224 255
200 224 255
200 224 255
200 224 255
200 224 255
200 224 255
200 224 255
200 224 255
200 224 255
200 224 255
200 224 255
200 224 255
200 224 255
200 224 255
200 224 255
200 224 255
200 224 255
201 224 255
201 224 255
201 224 255
201 224 255
201 224 255
201 224 255
201 224 255
201 224 255
201 224 255
201 224 255
201 224 255
201 225 255
201 225 255
201 225 255
201 225 255
202 225 255
202 225 255
202 225 255
202 225 255
202 225 255
202 225 255
202 225 255
202 225 255
202 225 255
202 225 255
202 225 255
202 225 255
202 225 255
202 225 255
202 225 255
203 225 255
203 225 255
203 225 255
203 225 255
203 225 255
203 225 255
203 225 255
203 225 255
203 225 255
203 226 255
203 226 255
203 226 255
203 226 255
203 226 255
203 226 255
204 226 255
204 226 255
204 226 255
204 226 255
204 226 255
204 226 255
204 226 255
204 226 255
204 226 255
204 226 255
204 226 255
204 226 255
204 226 255
204 226 255
204 226 255
204 226 255
205 226 255
205 226 255
205 226 255
205 226 255
205 226 255
205 226 255
205 226 255
205 227 255
205 227 255
205 227 255
205 227 255
205 227 255
205 227 255
205 227 255
205 227 255
205 227 255
205 227 255
206 227 255
206 227 255
206 227 255
206 227 255
206 227 255
206 227 255
206 227 255
206 227 255
206 227 255
206 227 255
206 227 255
206 227 255
206 227 255
206 227 255
206 227 255
206 227 255
206 227 255
206 227 255
207 227 255
207 227 255
207 227 255
207 227 255
207 227 255
207 228 255
207 228 255
207 228 255
207 228 255
207 228 255
207 228 255
207 228 255
207 228 255
207 228 255
207 228 255
207 228 255
207 228 255
207 228 255
207 228 255
207 228 255
208 228 255
208 228 255
208 228 255
208 228 255
208 228 255
208 228 255
208 228 255
208 228 255
208 228 255
208 228 255
208 228 255
208 228 255
208 228 255
208 228 255
208 228 255
208 228 255
208 228 255
208 228 255
208 228 255
208 228 255
208 228 255
208 228 255
208 228 255
207 228 255
207 228 255
207 228 255
207 228 255
207 228 255
207 228 255
207 228 255
207 228 255
207 228 255
207 228 255
207 228 255
207 228 255
207 228 255
207 228 255
207 228 255
207 227 255
207 227 255
207 227 255
207 227 255
207 227 255
206 227 255
206 227 255
206 227 255
206 227 255
206 227 255
206 227 255
206 227 255
206 227 255
206 227 255
206 227 255
206 227 255
206 227 255
206 227 255
206 227 255
206 227 255
206 227 255
206 227 255
206 227 255
205 227 255
205 227 255
205 227 255
205 227 255
205 227 255
205 227 255
205 227 255
205 227 255
205 227 255
205 227 255
205 226 255
205 226 255
205 226 255
205 226 255
205 226 255
205 226 255
204 226 255
204 226 255
204 226 255
204 226 255
204 226 255
204 226 255
204 226 255
204 226 255
204 226 255
204 226 255
204 226 255
204 226 255
204 226 255
204 226 255
204 226 255
204 226 255
203 226 255
203 226 255
203 226 255
203 226 255
203 226 255
203 226 255
203 226 255
203 225 255
203 225 255
203 225 255
203 225 255
203 225 255
203 225 255
203 225 255
203 225 255
202 225 255
202 225 255
202 225 255
202 225 255
202 225 255
202 225 255
202 225 255
202 225 255
202 225 255
202 225 255
202 225 255
202 225 255
202 225 255
202 225 255
202 225 255
202 225 255
201 225 255
201 225 255
201 225 255
201 225 255
201 224 255
201 224 255
201 224 255
201 224 255
201 224 255
201 224 255
201 224 255
201 224 255
201 224 255
201 224 255
201 224 255
200 224 255
200 224 255
200 224 255
200 224 255
200 224 255
200 224 255
200 224 255
200 224 255
200 224 255
200 224 255
200 224 255
200 224 255
200 224 255
200 224 255
200 224 255
200 224 255
200 224 255
199 224 255
199 224 255
199 224 255
199 223 255
199 223 255
199 223 255
199 223 255
199 223 255
199 223 255
199 223 255
199 223 255
199 223 255
199 223 255
199 223 255
199 223 255
199 223 255
199 223 255
199 223 255
199 223 255
199 223 255
199 223 255
199 223 255
198 223 255
198 223 255
198 223 255
198 223 255
198 223 255
198 223 255
198 223 255
198 223 255
198 223 255
198 223 255
198 223 255
198 223 255
198 223 255
198 223 255
198 223 255
198 223 255
198 223 255
198 223 255
198 223 255
198 223 255
198 223 255
198 223 255
198 223 255
198 223 255
198 223 255
198 223 255
198 223 255
198 223 255
198 223 255
198 223 255
198 223 255
198 223 255
198 223 255
198 223 255
198 223 255
198 223 255
198 223 255
198 223 255
198 223 255
198 223 255
198 223 255
198 223 255
198 223 255
198 223 255
198 223 255
198 223 255
198 223 255
198 223 255
198 223 255
198 223 255
198 223 255
198 223 255
198 223 255
198 223 255
198 223 255
198 223 255
198 223 255
198 223 255
198 223 255
198 223 255
198 223 255
198 223 255
198 223 255
198 223 255
199 223 255
199 223 255
199 223 255
199 223 255
199 223 255
199 223 255
199 223 255
199 223 255
199 223 255
199 223 255
199 223 255
199 223 255
199 223 255
199 223 255
199 223 255
199 223 255
199 223 255
199 223 255
199 223 255
199 224 255
199 224 255
199 224 255
200 224 255
200 224 255
200 224 255
200 224 255
200 224 255
200 224 255
200 224 255
200 224 255
200 224 255
200 224 255
200 224 255
200 224 255
200 224 255
200 224 255
200 224 255
200 224 255
200 224 255
201 224 255
201 224 255
201 224 255
201 224 255
201 224 255
201 224 255
201 224 255
201 224 255
201 224 255
201 224 255
201 224 255
201 225 255
201 225 255
201 225 255
201 225 255
202 225 255
202 225 255
202 225 255
202 225 255
202 225 255
202 225 255
202 225 255
202 225 255
202 225 255
202 225 255
202 225 255
202 225 255
202 225 255
202 225 255
202 225 255
202 225 255
203 225 255
203 225 255
203 225 255
203 225 255
203 225 255
203 225 255
203 225 255
203 225 255
203 226 255
203 226 255
203 226 255
203 226 255
203 226 255
203 226 255
203 226 255
204 226 255
204 226 255
204 226 255
204 226 255
204 226 255
204 226 255
204 226 255
204 226 255
204 226 255
204 226 255
204 226 255
204 226 255
204 226 255
204 226 255
204 226 255
204 226 255
205 226 255
205 226 255
205 226 255
205 226 255
205 226 255
205 226 255
205 227 255
205 227 255
205 227 255
205 227 255
205 227 255
205 227 255
205 227 255
205 227 255
205 227 255
205 227 255
206 227 255
206 227 255
206 227 255
206 227 255
206 227 255
206 227 255
206 227 255
206 227 255
206 227 255
206 227 255
206 227 255
206 227 255
206 227 255
206 227 255
206 227 255
206 227 255
206 227 255
206 227 255
207 227 255
207 227 255
207 227 255
207 227 255
207 227 255
207 228 255
207 228 255
207 228 255
207 228 255
207 228 255
207 228 255
207 228 255
207 228 255
207 228 255
207 228 255
207 228 255
207 228 255
207 228 255
207 228 255
207 228 255
208 228 255
208 228 255
208 228 255
208 228 255
208 228 255
208 228 255
208 228 255
208 228 255
208 228 255
208 228 255
208 228 255
208 228 255
208 228 255
208 228 255
208 228 255
208 228 255
208 228 255
208 228 255
208 228 255
208 228 255
208 228 255
208 228 255
208 228 255
208 228 255
208 228 255
208 228 255
208 228 255
208 228 255
208 228 255
207 228 255
207 228 255
207 228 255
207 228 255
207 228 255
207 228 255
207 228 255
207 228 255
207 228 255
207 228 255
207 228 255
207 228 255
207 228 255
207 228 255
207 228 255
207 227 255
207 227 255
207 227 255
207 227 255
207 227 255
206 227 255
206 227 255
206 227 255
206 227 255
206 227 255
206 227 255
206 227 255
206 227 255
206 227 255
206 227 255
206 227 255
206 227 255
206 227 255
206 227 255
206 227 255
206 227 255
206 227 255
206 227 255
205 227 255
205 227 255
205 227 255
205 227 255
205 227 255
205 227 255
205 227 255
205 227 255
205 227 255
205 227 255
205 226 255
205 226 255
205 226 255
205 226 255
205 226 255
205 226 255
204 226 255
204 226 255
204 226 255
204 226 255
204 226 255
204 226 255
204 226 255
204 226 255
204 226 255
204 226 255
204 226 255
204 226 255
204 226 255
204 226 255
204 226 255
204 226 255
203 226 255
203 226 255
203 226 255
203 226 255
203 226 255
203 226 255
203 226 255
203 225 255
203 225 255
203 225 255
203 225 255
203 225 255
203 225 255
203 225 255
203 225 255
202 225 255
202 225 255
202 225 255
202 225 255
202 225 255
202 225 255
202 225 255
202 225 255
202 225 255
202 225 255
202 225 255
202 225 255
202 225 255
202 225 255
202 225 255
201 225 255
201 225 255
201 225 255
201 225 255
201 225 255
201 224 255
201 224 255
201 224 255
201 224 255
201 224 255
201 224 255
201 224 255
201 224 255
201 224 255
201 224 255
201 224 255
200 224 255
200 224 255
200 224 255
200 224 255
200 224 255
200 224 255
200 224 255
200 224 255
200 224 255
200 224 255
200 224 255
200 224 255
200 224 255
200 224 255
200 224 255
200 224 255
200 224 255
200 224 255
199 224 255
199 224 255
199 224 255
199 223 255
199 223 255
199 223 255
199 223 255
199 223 255
199 223 255
199 223 255
199 223 255
199 223 255
199 223 255
199 223 255
199 223 255
199 223 255
199 223 255
199 223 255
199 223 255
199 223 255
199 223 255
199 223 255
199 223 255
198 223 255
198 223 255
198 223 255
198 223 255
198 223 255
198 223 255
198 223 255
198 223 255
198 223 255
198 223 255
198 223 255
198 223 255
198 223 255
198 223 255
198 223 255
198 223 255
198 223 255
198 223 255
198 223 255
198 223 255
198 223 255
198 223 255
198 223 255
198 223 255
198 223 255
198 223 255
198 223 255
198 223 255
198 223 255
198 223 255
198 223 255
198 223 255
198 223 255
198 223 255
198 223 255
198 223 255
198 223 255
198 223 255
198 223 255
198 223 255
198 223 255
198 223 255
198 223 255
198 223 255
198 223 255
198 223 255
198 223 255
198 223 255
198 223 255
198 223 255
198 223 255
198 223 255
198 223 255
198 223 255
199 223 255
199 223 255
199 223 255
199 223 255
199 223 255
199 223 255
199 223 255
199 223 255
199 223 255
199 223 255
199 223 255
199 223 255
199 223 255
199 223 255
199 223 255
199 223 255
199 223 255
199 223 255
199 223 255
199 223 255
199 224 255
199 224 255
199 224 255
200 224 255
200 224 255
200 224 255
200 224 255
200 224 255
200 224 255
200 224 255
200 224 255
200 224 255
200 224 255
200 224 255
200 224 255
200 224 255
200 224 255
200 224 255
200 224 255
200 224 255
200 224 255
201 224 255
201 224 255
201 224 255
201 224 255
201 224 255
201 224 255
201 224 255
201 224 255
201 224 255
201 224 255
201 224 255
201 225 255
201 225 255
201 225 255
201 225 255
201 225 255
202 225 255
202 225 255
202 225 255
202 225 255
202 225 255
202 225 255
202 225 255
202 225 255
202 225 255
202 225 255
202 225 255
202 225 255
202 225 255
202 225 255
202 225 255
203 225 255
203 225 255
203 225 255
203 225 255
203 225 255
203 225 255
203 225 255
203 225 255
203 226 255
203 226 255
203 226 255
203 226 255
203 226 255
203 226 255
203 226 255
204 226 255
204 226 255
204 226 255
204 226 255
204 226 255
204 226 255
204 226 255
204 226 255
204 226 255
204 226 255
204 226 255
204 226 255
204 226 255
204 226 255
204 226 255
204 226 255
205 226 255
205 226 255
205 226 255
205 226 255
205 226 255
205 226 255
205 227 255
205 227 255
205 227 255
205 227 255
205 227 255
205 227 255
205 227 255
205 227 255
205 227 255
205 227 255
206 227 255
206 227 255
206 227 255
206 227 255
206 227 255
206 227 255
206 227 255
206 227 255
206 227 255
206 227 255
206 227 255
206 227 255
206 227 255
206 227 255
206 227 255
206 227 255
206 227 255
206 227 255
207 227 255
207 227 255
207 227 255
207 227 255
207 227 255
207 228 255
207 228 255
207 228 255
207 228 255
207 228 255
207 228 255
207 228 255
207 228 255
207 228 255
207 228 255
207 228 255
207 228 255
207 228 255
207 228 255
207 228 255
208 228 255
208 228 255
208 228 255
208 228 255
208 228 255
208 228 255
208 228 255
208 228 255
208 228 255
208 228 255
208 228 255
208 228 255
208 228 255
208 228 255
208 228 255
208 228 255
208 228 255
208 228 255
208 228 255
208 228 255
208 228 255
208 228 255
208 228 255
208 228 255
208 228 255
208 228 255
208 228 255
208 228 255
208 228 255
208 228 255
208 228 255
208 228 255
208 228 255
208 228 255
208 228 255
207 228 255
207 228 255
207 228 255
207 228 255
207 228 255
207 228 255
207 228 255
207 228 255
207 228 255
207 228 255
207 228 255
207 228 255
207 228 255
207 228 255
207 228 255
207 227 255
207 227 255
207 227 255
207 227 255
207 227 255
206 227 255
206 227 255
206 227 255
206 227 255
206 227 255
206 227 255
206 227 255
206 227 255
206 227 255
206 227 255
206 227 255
206 227 255
206 227 255
206 227 255
206 227 255
206 227 255
206 227 255
205 227 255
205 227 255
205 227 255
205 227 255
205 227 255
205 227 255
205 227 255
205 227 255
205 227 255
205 227 255
205 226 255
205 226 255
205 226 255
205 226 255
205 226 255
205 226 255
205 226 255
204 226 255
204 226 255
204 226 255
204 226 255
204 226 255
204 226 255
204 226 255
204 226 255
204 226 255
204 226 255
204 226 255
204 226 255
204 226 255
204 226 255
204 226 255
204 226 255
203 226 255
203 226 255
203 226 255
203 226 255
203 226 255
203 226 255
203 225 255
203 225 255
203 225 255
203 225 255
203 225 255
203 225 255
203 225 255
203 225 255
203 225 255
202 225 255
202 225 255
202 225 255
202 225 255
202 225 255
202 225 255
202 225 255
202 225 255
202 225 255
202 225 255
202 225 255
202 225 255
202 225 255
202 225 255
202 225 255
201 225 255
201 225 255
201 225 255
201 225 255
201 225 255
201 224 255
201 224 255
201 224 255
201 224 255
201 224 255
201 224 255
201 224 255
201 224 255
201 224 255
201 224 255
201 224 255
200 224 255
200 224 255
200 224 255
200 224 255
200 224 255
200 224 255
200 224 255
200 224 255
200 224 255
200 224 255
200 224 255
200 224 255
200 224 255
200 224 255
200 224 255
200 224 255
200 224 255
200 224 255
199 224 255
199 224 255
199 224 255
199 224 255
199 223 255
199 223 255
199 223 255
199 223 255
199 223 255
199 223 255
199 223 255
199 223 255
199 223 255
199 223 255
199 223 255
199 223 255
199 223 255
199 223 255
199 223 255
199 223 255
199 223 255
199 223 255
199 223 255
199 223 255
199 223 255
199 223 255
199 223 255
198 223 255
198 223 255
198 223 255
198 223 255
198 223 255
198 223 255
198 223 255
198 223 255
198 223 255
198 223 255
198 223 255
198 223 255
198 223 255
198 223 255
198 223 255
198 223 255
198 223 255
198 223 255
198 223 255
198 223 255
198 223 255
198 223 255
198 223 255
198 223 255
198 223 255
198 223 255
198 223 255
198 223 255
198 223 255
198 223 255
198 223 255
198 223 255
198 223 255
198 223 255
198 223 255
198 223 255
198 223 255
198 223 255
198 223 255
198 223 255
199 223 255
199 223 255
199 223 255
199 223 255
199 223 255
199 223 255
199 223 255
199 223 255
199 223 255
199 223 255
199 223 255
199 223 255
199 223 255
199 223 255
199 223 255
199 223 255
199 223 255
199 223 255
199 223 255
199 223 255
199 223 255
199 223 255
199 223 255
199 224 255
199 224 255
199 224 255
199 224 255
200 224 255
200 224 255
200 224 255
200 224 255
200 224 255
200 224 255
200 224 255
200 224 255
200 224 255
200 224 255
200 224 255
200 224 255
200 224 255
200 224 255
200 224 255
200 224 255
200 224 255
200 224 255
201 224 255
201 224 255
201 224 255
201 224 255
201 224 255
201 224 255
201 224 255
201 224 255
201 224 255
201 224 255
201 224 255
201 225 255
201 225 255
201 225 255
201 225 255
201 225 255
202 225 255
202 225 255
202 225 255
202 225 255
202 225 255
202 225 255
202 225 255
202 225 255
202 225 255
202 225 255
202 225 255
202 225 255
202 225 255
202 225 255
202 225 255
203 225 255
203 225 255
203 225 255
203 225 255
203 225 255
203 225 255
203 225 255
203 225 255
203 225 255
203 226 255
203 226 255
203 226 255
203 226 255
203 226 255
203 226 255
204 226 255
204 226 255
204 226 255
204 226 255
204 226 255
204 226 255
204 226 255
204 226 255
204 226 255
204 226 255
204 226 255
204 226 255
204 226 255
204 226 255
204 226 255
204 226 255
205 226 255
205 226 255
205 226 255
205 226 255
205 226 255
205 226 255
205 226 255
205 227 255
205 227 255
205 227 255
205 227 255
205 227 255
205 227 255
205 227 255
205 227 255
205 227 255
205 227 255
206 227 255
206 227 255
206 227 255
206 227 255
206 227 255
206 227 255
206 227 255
206 227 255
206 227 255
206 227 255
206 227 255
206 227 255
206 227 255
206 227 255
206 227 255
206 227 255
206 227 255
207 227 255
207 227 255
207 227 255
207 227 255
207 227 255
207 228 255
207 228 255
207 228 255
207 228 255
207 228 255
207 228 255
207 228 255
207 228 255
207 228 255
207 228 255
207 228 255
207 228 255
207 228 255
207 228 255
207 228 255
208 228 255
208 228 255
208 228 255
208 228 255
208 228 255
208 228 255
208 228 255
208 228 255
208 228 255
208 228 255
208 228 255
208 228 255
208 228 255
208 228 255
208 228 255
208 228 255
208 228 255
208 228 255
208 228 255
209 228 255
208 228 255
208 228 255
208 228 255
208 228 255
208 228 255
208 228 255
208 228 255
208 228 255
208 228 255
208 228 255
208 228 255
208 228 255
208 228 255
208 228 255
208 228 255
208 228 255
208 228 255
208 228 255
208 228 255
208 228 255
208 228 255
207 228 255
207 228 255
207 228 255
207 228 255
207 228 255
207 228 255
207 228 255
207 228 255
207 228 255
207 228 255
207 228 255
207 228 255
207 228 255
207 228 255
207 228 255
207 227 255
207 227 255
207 227 255
207 227 255
207 227 255
206 227 255
206 227 255
206 227 255
206 227 255
206 227 255
206 227 255
206 227 255
206 227 255
206 227 255
206 227 255
206 227 255
206 227 255
206 227 255
206 227 255
206 227 255
206 227 255
206 227 255
205 227 255
205 227 255
205 227 255
205 227 255
205 227 255
205 227 255
205 227 255
205 227 255
205 227 255
205 227 255
205 226 255
205 226 255
205 226 255
205 226 255
205 226 255
205 226 255
205 226 255
204 226 255
204 226 255
204 226 255
204 226 255
204 226 255
204 226 255
204 226 255
204 226 255
204 226 255
204 226 255
204 226 255
204 226 255
204 226 255
204 226 255
204 226 255
203 226 255
203 226 255
203 226 255
203 226 255
203 226 255
203 226 255
203 226 255
203 225 255
203 225 255
203 225 255
203 225 255
203 225 255
203 225 255
203 225 255
203 225 255
203 225 255
202 225 255
202 225 255
202 225 255
202 225 255
202 225 255
202 225 255
202 225 255
202 225 255
202 225 255
202 225 255
202 225 255
202 225 255
202 225 255
202 225 255
202 225 255
201 225 255
201 225 255
201 225 255
201 225 255
201 225 255
201 224 255
201 224 255
201 224 255
201 224 255
201 224 255
201 224 255
201 224 255
201 224 255
201 224 255
201 224 255
201 224 255
201 224 255
200 224 255
200 224 255
200 224 255
200 224 255
200 224 255
200 224 255
200 224 255
200 224 255
200 224 255
200 224 255
200 224 255
200 224 255
200 224 255
200 224 255
200 224 255
200 224 255
200 224 255
200 224 255
199 224 255
199 224 255
199 224 255
199 224 255
199 223 255
199 223 255
199 223 255
199 223 255
199 223 255
199 223 255
199 223 255
199 223 255
199 223 255
199 223 255
199 223 255
199 223 255
199 223 255
199 223 255
199 223 255
199 223 255
199 223 255
199 223 255
199 223 255
199 223 255
199 223 255
199 223 255
199 223 255
199 223 255
199 223 255
199 223 255
199 223 255
199 223 255
199 223 255
199 223 255
198 223 255
198 223 255
198 223 255
198 223 255
198 223 255
198 223 255
198 223 255
198 223 255
198 223 255
198 223 255
198 223 255
198 223 255
198 223 255
198 223 255
198 223 255
198 223 255
198 223 255
198 223 255
198 223 255
199 223 255
199 223 255
199 223 255
199 223 255
199 223 255
199 223 255
199 223 255
199 223 255
199 223 255
199 223 255
199 223 255
199 223 255
199 223 255
199 223 255
199 223 255
199 223 255
199 223 255
199 223 255
199 223 255
199 223 255
199 223 255
199 223 255
199 223 255
199 223 255
199 223 255
199 223 255
199 223 255
199 223 255
199 223 255
199 224 255
199 224 255
199 224 255
199 224 255
200 224 255
200 224 255
200 224 255
200 224 255
200 224 255
200 224 255
200 224 255
200 224 255
200 224 255
200 224 255
200 224 255
200 224 255
200 224 255
200 224 255
200 224 255
200 224 255
200 224 255
200 224 255
200 224 255
201 224 255
201 224 255
201 224 255
201 224 255
201 224 255
201 224 255
201 224 255
201 224 255
201 224 255
201 224 255
201 224 255
201 225 255
201 225 255
201 225 255
201 225 255
201 225 255
202 225 255
202 225 255
202 225 255
202 225 255
202 225 255
202 225 255
202 225 255
202 225 255
202 225 255
202 225 255
202 225 255
202 225 255
202 225 255
202 225 255
202 225 255
203 225 255
203 225 255
203 225 255
203 225 255
203 225 255
203 225 255
203 225 255
203 225 255
203 225 255
203 226 255
203 226 255
203 226 255
203 226 255
203 226 255
203 226 255
203 226 255
204 226 255
204 226 255
204 226 255
204 226 255
204 226 255
204 226 255
204 226 255
204 226 255
204 226 255
204 226 255
204 226 255
204 226 255
204 226 255
204 226 255
204 226 255
205 226 255
205 226 255
205 226 255
205 226 255
205 226 255
205 226 255
205 226 255
205 227 255
205 227 255
205 227 255
205 227 255
205 227 255
205 227 255
205 227 255
205 227 255
205 227 255
205 227 255
206 227 255
206 227 255
206 227 255
206 227 255
206 227 255
206 227 255
206 227 255
206 227 255
206 227 255
206 227 255
206 227 255
206 227 255
206 227 255
206 227 255
206 227 255
206 227 255
206 227 255
207 227 255
207 227 255
207 227 255
207 227 255
207 227 255
207 228 255
207 228 255
207 228 255
207 228 255
207 228 255
207 228 255
207 228 255
207 228 255
207 228 255
207 228 255
207 228 255
207 228 255
207 228 255
207 228 255
207 228 255
208 228 255
208 228 255
208 228 255
208 228 255
208 228 255
208 228 255
208 228 255
208 228 255
208 228 255
208 228 255
208 228 255
208 228 255
208 228 255
208 228 255
208 228 255
208 228 255
208 228 255
208 228 255
208 228 255
208 228 255
208 228 255
209 228 255
209 229 255
209 229 255
209 229 255
209 228 255
208 228 255
208 228 255
208 228 255
208 228 255
208 228 255
208 228 255
208 228 255
208 228 255
208 228 255
208 228 255
208 228 255
208 228 255
208 228 255
208 228 255
208 228 255
208 228 255
208 228 255
208 228 255
208 228 255
208 228 255
208 228 255
207 228 255
207 228 255
207 228 255
207 228 255
207 228 255
207 228 255
207 228 255
207 228 255
207 228 255
207 228 255
207 228 255
207 228 255
207 228 255
207 228 255
207 228 255
207 227 255
207 227 255
207 227 255
207 227 255
206 227 255
206 227 255
206 227 255
206 227 255
206 227 255
206 227 255
206 227 255
206 227 255
206 227 255
206 227 255
206 227 255
206 227 255
206 227 255
206 227 255
206 227 255
206 227 255
206 227 255
206 227 255
205 227 255
205 227 255
205 227 255
205 227 255
205 227 255
205 227 255
205 227 255
205 227 255
205 227 255
205 227 255
205 226 255
205 226 255
205 226 255
205 226 255
205 226 255
205 226 255
204 226 255
204 226 255
204 226 255
204 226 255
204 226 255
204 226 255
204 226 255
204 226 255
204 226 255
204 226 255
204 226 255
204 226 255
204 226 255
204 226 255
204 226 255
204 226 255
203 226 255
203 226 255
203 226 255
203 226 255
203 226 255
203 226 255
203 226 255
203 225 255
203 225 255
203 225 255
203 225 255
203 225 255
203 225 255
203 225 255
203 225 255
203 225 255
202 225 255
202 225 255
202 225 255
202 225 255
202 225 255
202 225 255
202 225 255
202 225 255
202 225 255
202 225 255
202 225 255
202 225 255
202 225 255
202 225 255
202 225 255
201 225 255
201 225 255
201 225 255
201 225 255
201 225 255
201 224 255
201 224 255
201 224 255
201 224 255
201 224 255
201 224 255
201 224 255
201 224 255
201 224 255
201 224 255
201 224 255
201 224 255
200 224 255
200 224 255
200 224 255
200 224 255
200 224 255
200 224 255
200 224 255
200 224 255
200 224 255
200 224 255
200 224 255
200 224 255
200 224 255
200 224 255
200 224 255
200 224 255
200 224 255
200 224 255
200 224 255
200 224 255
199 224 255
199 224 255
199 224 255
199 224 255
199 223 255
199 223 255
199 223 255
199 223 255
199 223 255
199 223 255
199 223 255
199 223 255
199 223 255
199 223 255
199 223 255
199 223 255
199 223 255
199 223 255
199 223 255
199 223 255
199 223 255
199 223 255
199 223 255
199 223 255
199 223 255
199 223 255
199 223 255
199 223 255
199 223 255
199 223 255
199 223 255
199 223 255
199 223 255
199 223 255
199 223 255
199 223 255
199 223 255
199 223 255
199 223 255
199 223 255
199 223 255
199 223 255
199 223 255
199 223 255
199 223 255
199 223 255
199 223 255
199 223 255
199 223 255
199 223 255
199 223 255
199 223 255
199 223 255
199 223 255
199 223 255
199 223 255
199 223 255
199 223 255
199 223 255
199 223 255
199 223 255
199 223 255
199 223 255
199 223 255
199 223 255
199 223 255
199 223 255
199 223 255
199 223 255
199 223 255
199 223 255
199 223 255
199 224 255
199 224 255
199 224 255
199 224 255
200 224 255
200 224 255
200 224 255
200 224 255
200 224 255
200 224 255
200 224 255
200 224 255
200 224 255
200 224 255
200 224 255
200 224 255
200 224 255
200 224 255
200 224 255
200 224 255
200 224 255
200 224 255
200 224 255
200 224 255
201 224 255
201 224 255
201 224 255
201 224 255
201 224 255
201 224 255
201 224 255
201 224 255
201 224 255
201 224 255
201 224 255
201 224 255
201 225 255
201 225 255
201 225 255
201 225 255
201 225 255
202 225 255
202 225 255
202 225 255
202 225 255
202 225 255
202 225 255
202 225 255
202 225 255
202 225 255
202 225 255
202 225 255
202 225 255
202 225 255
202 225 255
202 225 255
203 225 255
203 225 255
203 225 255
203 225 255
203 225 255
203 225 255
203 225 255
203 225 255
203 225 255
203 226 255
203 226 255
203 226 255
203 226 255
203 226 255
203 226 255
203 226 255
204 226 255
204 226 255
204 226 255
204 226 255
204 226 255
204 226 255
204 226 255
204 226 255
204 226 255
204 226 255
204 226 255
204 226 255
204 226 255
204 226 255
204 226 255
204 226 255
205 226 255
205 226 255
205 226 255
205 226 255
205 226 255
205 226 255
205 227 255
205 227 255
205 227 255
205 227 255
205 227 255
205 227 255
205 227 255
205 227 255
205 227 255
205 227 255
206 227 255
206 227 255
206 227 255
206 227 255
206 227 255
206 227 255
206 227 255
206 227 255
206 227 255
206 227 255
206 227 255
206 227 255
206 227 255
206 227 255
206 227 255
206 227 255
206 227 255
206 227 255
207 227 255
207 227 255
207 227 255
207 227 255
207 228 255
207 228 255
207 228 255
207 228 255
207 228 255
207 228 255
207 228 255
207 228 255
207 228 255
207 228 255
207 228 255
207 228 255
207 228 255
207 228 255
207 228 255
208 228 255
208 228 255
208 228 255
208 228 255
208 228 255
208 228 255
208 228 255
208 228 255
208 228 255
208 228 255
208 228 255
208 228 255
208 228 255
208 228 255
208 228 255
208 228 255
208 228 255
208 228 255
208 228 255
208 228 255
208 228 255
209 228 255
209 229 255
209 229 255
209 229 255
209 229 255
209 229 255
209 229 255
209 229 255
209 229 255
209 229 255
209 228 255
208 228 255
208 228 255
208 228 255
208 228 255
208 228 255
208 228 255
208 228 255
208 228 255
208 228 255
208 228 255
208 228 255
208 228 255
208 228 255
208 228 255
208 228 255
208 228 255
208 228 255
208 228 255
208 228 255
208 228 255
208 228 255
207 228 255
207 228 255
207 228 255
207 228 255
207 228 255
207 228 255
207 228 255
207 228 255
207 228 255
207 228 255
207 228 255
207 228 255
207 228 255
207 228 255
207 228 255
207 227 255
207 227 255
207 227 255
207 227 255
206 227 255
206 227 255
206 227 255
206 227 255
206 227 255
206 227 255
206 227 255
206 227 255
206 227 255
206 227 255
206 227 255
206 227 255
206 227 255
206 227 255
206 227 255
206 227 255
206 227 255
206 227 255
205 227 255
205 227 255
205 227 255
205 227 255
205 227 255
205 227 255
205 227 255
205 227 255
205 227 255
205 227 255
205 226 255
205 226 255
205 226 255
205 226 255
205 226 255
205 226 255
204 226 255
204 226 255
204 226 255
204 226 255
204 226 255
204 226 255
204 226 255
204 226 255
204 226 255
204 226 255
204 226 255
204 226 255
204 226 255
204 226 255
204 226 255
204 226 255
203 226 255
203 226 255
203 226 255
203 226 255
203 226 255
203 226 255
203 226 255
203 225 255
203 225 255
203 225 255
203 225 255
203 225 255
203 225 255
203 225 255
203 225 255
202 225 255
202 225 255
202 225 255
202 225 255
202 225 255
202 225 255
202 225 255
202 225 255
202 225 255
202 225 255
202 225 255
202 225 255
202 225 255
202 225 255
202 225 255
202 225 255
201 225 255
201 225 255
201 225 255
201 225 255
201 225 255
201 224 255
201 224 255
201 224 255
201 224 255
201 224 255
201 224 255
201 224 255
201 224 255
201 224 255
201 224 255
201 224 255
201 224 255
200 224 255
200 224 255
200 224 255
200 224 255
200 224 255
200 224 255
200 224 255
200 224 255
200 224 255
200 224 255
200 224 255
200 224 255
200 224 255
200 224 255
200 224 255
200 224 255
200 224 255
200 224 255
200 224 255
200 224 255
200 224 255
200 224 255
199 224 255
199 224 255
199 224 255
199 224 255
199 223 255
199 223 255
199 223 255
199 223 255
199 223 255
199 223 255
199 223 255
199 223 255
199 223 255
199 223 255
199 223 255
199 223 255
199 223 255
199 223 255
199 223 255
199 223 255
199 223 255
199 223 255
199 223 255
199 223 255
199 223 255
199 223 255
199 223 255
199 223 255
199 223 255
199 223 255
199 223 255
199 223 255
199 223 255
199 223 255
199 223 255
199 223 255
199 223 255
199 223 255
199 223 255
199 223 255
199 223 255
199 223 255
199 223 255
199 223 255
199 223 255
199 223 255
199 223 255
199 223 255
199 223 255
199 223 255
199 223 255
199 223 255
199 223 255
199 223 255
199 223 255
199 223 255
199 223 255
199 223 255
199 223 255
199 223 255
199 223 255
199 223 255
199 224 255
199 224 255
199 224 255
199 224 255
200 224 255
200 224 255
200 224 255
200 224 255
200 224 255
200 224 255
200 224 255
200 224 255
200 224 255
200 224 255
200 224 255
200 224 255
200 224 255
200 224 255
200 224 255
200 224 255
200 224 255
200 224 255
200 224 255
200 224 255
200 224 255
200 224 255
201 224 255
201 224 255
201 224 255
201 224 255
201 224 255
201 224 255
201 224 255
201 224 255
201 224 255
201 224 255
201 224 255
201 224 255
201 225 255
201 225 255
201 225 255
201 225 255
201 225 255
202 225 255
202 225 255
202 225 255
202 225 255
202 225 255
202 225 255
202 225 255
202 225 255
202 225 255
202 225 255
202 225 255
202 225 255
202 225 255
202 225 255
202 225 255
202 225 255
203 225 255
203 225 255
203 225 255
203 225 255
203 225 255
203 225 255
203 225 255
203 225 255
203 226 255
203 226 255
203 226 255
203 226 255
203 226 255
203 226 255
203 226 255
204 226 255
204 226 255
204 226 255
204 226 255
204 226 255
204 226 255
204 226 255
204 226 255
204 226 255
204 226 255
204 226 255
204 226 255
204 226 255
204 226 255
204 226 255
204 226 255
205 226 255
205 226 255
205 226 255
205 226 255
205 226 255
205 226 255
205 227 255
205 227 255
205 227 255
205 227 255
205 227 255
205 227 255
205 227 255
205 227 255
205 227 255
205 227 255
206 227 255
206 227 255
206 227 255
206 227 255
206 227 255
206 227 255
206 227 255
206 227 255
206 227 255
206 227 255
206 227 255
206 227 255
206 227 255
206 227 255
206 227 255
206 227 255
206 227 255
206 227 255
207 227 255
207 227 255
207 227 255
207 227 255
207 228 255
207 228 255
207 228 255
207 228 255
207 228 255
207 228 255
207 228 255
207 228 255
207 228 255
207 228 255
207 228 255
207 228 255
207 228 255
207 228 255
207 228 255
208 228 255
208 228 255
208 228 255
208 228 255
208 228 255
208 228 255
208 228 255
208 228 255
208 228 255
208 228 255
208 228 255
208 228 255
208 228 255
208 228 255
208 228 255
208 228 255
208 228 255
208 228 255
208 228 255
208 228 255
208 228 255
209 228 255
209 229 255
209 229 255
209 229 255
209 229 255
209 229 255
209 229 255
209 229 255
209 229 255
209 229 255
209 229 255
209 229 255
209 229 255
209 229 255
209 229 255
209 229 255
209 228 255
209 228 255
208 228 255
208 228 255
208 228 255
208 228 255
208 228 255
208 228 255
208 228 255
208 228 255
208 228 255
208 228 255
208 228 255
208 228 255
208 228 255
208 228 255
208 228 255
208 228 255
208 228 255
208 228 255
208 228 255
208 228 255
208 228 255
207 228 255
207 228 255
207 228 255
207 228 255
207 228 255
207 228 255
207 228 255
207 228 255
207 228 255
207 228 255
207 228 255
207 228 255
207 228 255
207 228 255
207 227 255
207 227 255
207 227 255
207 227 255
207 227 255
206 227 255
206 227 255
206 227 255
206 227 255
206 227 255
206 227 255
206 227 255
206 227 255
206 227 255
206 227 255
206 227 255
206 227 255
206 227 255
206 227 255
206 227 255
206 227 255
206 227 255
205 227 255
205 227 255
205 227 255
205 227 255
205 227 255
205 227 255
205 227 255
205 227 255
205 227 255
205 227 255
205 226 255
205 226 255
205 226 255
205 226 255
205 226 255
205 226 255
204 226 255
204 226 255
204 226 255
204 226 255
204 226 255
204 226 255
204 226 255
204 226 255
204 226 255
204 226 255
204 226 255
204 226 255
204 226 255
204 226 255
204 226 255
204 226 255
203 226 255
203 226 255
203 226 255
203 226 255
203 226 255
203 226 255
203 226 255
203 225 255
203 225 255
203 225 255
203 225 255
203 225 255
203 225 255
203 225 255
203 225 255
202 225 255
202 225 255
202 225 255
202 225 255
202 225 255
202 225 255
202 225 255
202 225 255
202 225 255
202 225 255
202 225 255
202 225 255
202 225 255
202 225 255
202 225 255
202 225 255
201 225 255
201 225 255
201 225 255
201 225 255
201 225 255
201 224 255
201 224 255
201 224 255
201 224 255
201 224 255
201 224 255
201 224 255
201 224 255
201 224 255
201 224 255
201 224 255
201 224 255
201 224 255
200 224 255
200 224 255
200 224 255
200 224 255
200 224 255
200 224 255
200 224 255
200 224 255
200 224 255
200 224 255
200 224 255
200 224 255
200 224 255
200 224 255
200 224 255
200 224 255
200 224 255
200 224 255
200 224 255
200 224 255
200 224 255
200 224 255
200 224 255
199 224 255
199 224 255
199 224 255
199 224 255
199 224 255
199 224 255
199 223 255
199 223 255
199 223 255
199 223 255
199 223 255
199 223 255
199 223 255
199 223 255
199 223 255
199 223 255
199 223 255
199 223 255
199 223 255
199 223 255
199 223 255
199 223 255
199 223 255
199 223 255
199 223 255
199 223 255
199 223 255
199 223 255
199 223 255
199 223 255
199 223 255
199 223 255
199 223 255
199 223 255
199 223 255
199 223 255
199 223 255
199 223 255
199 223 255
199 223 255
199 223 255
199 223 255
199 223 255
199 223 255
199 223 255
199 223 255
199 223 255
199 223 255
199 223 255
199 223 255
199 224 255
199 224 255
199 224 255
199 224 255
199 224 255
200 224 255
200 224 255
200 224 255
200 224 255
200 224 255
200 224 255
200 224 255
200 224 255
200 224 255
200 224 255
200 224 255
200 224 255
200 224 255
200 224 255
200 224 255
200 224 255
200 224 255
200 224 255
200 224 255
200 224 255
200 224 255
200 224 255
200 224 255
200 224 255
201 224 255
201 224 255
201 224 255
201 224 255
201 224 255
201 224 255
201 224 255
201 224 255
201 224 255
201 224 255
201 224 255
201 224 255
201 224 255
201 225 255
201 225 255
201 225 255
201 225 255
202 225 255
202 225 255
202 225 255
202 225 255
202 225 255
202 225 255
202 225 255
202 225 255
202 225 255
202 225 255
202 225 255
202 225 255
202 225 255
202 225 255
202 225 255
202 225 255
202 225 255
203 225 255
203 225 255
203 225 255
203 225 255
203 225 255
203 225 255
203 225 255
203 225 255
203 226 255
203 226 255
203 226 255
203 226 255
203 226 255
203 226 255
203 226 255
204 226 255
204 226 255
204 226 255
204 226 255
204 226 255
204 226 255
204 226 255
204 226 255
204 226 255
204 226 255
204 226 255
204 226 255
204 226 255
204 226 255
204 226 255
204 226 255
205 226 255
205 226 255
205 226 255
205 226 255
205 226 255
205 226 255
205 227 255
205 227 255
205 227 255
205 227 255
205 227 255
205 227 255
205 227 255
205 227 255
205 227 255
205 227 255
206 227 255
206 227 255
206 227 255
206 227 255
206 227 255
206 227 255
206 227 255
206 227 255
206 227 255
206 227 255
206 227 255
206 227 255
206 227 255
206 227 255
206 227 255
206 227 255
206 227 255
206 227 255
207 227 255
207 227 255
207 227 255
207 227 255
207 228 255
207 228 255
207 228 255
207 228 255
207 228 255
207 228 255
207 228 255
207 228 255
207 228 255
207 228 255
207 228 255
207 228 255
207 228 255
207 228 255
208 228 255
208 228 255
208 228 255
208 228 255
208 228 255
208 228 255
208 228 255
208 228 255
208 228 255
208 228 255
208 228 255
208 228 255
208 228 255
208 228 255
208 228 255
208 228 255
208 228 255
208 228 255
208 228 255
208 228 255
208 228 255
209 228 255
209 228 255
209 229 255
209 229 255
209 229 255
209 229 255
209 229 255
209 229 255
209 229 255
209 229 255
209 229 255
209 229 255
209 229 255
209 229 255
209 229 255
209 229 255
209 229 255
209 229 255
209 229 255
209 229 255
209 229 255
209 229 255
209 229 255
209 228 255
209 228 255
208 228 255
208 228 255
208 228 255
208 228 255
208 228 255
208 228 255
208 228 255
208 228 255
208 228 255
208 228 255
208 228 255
208 228 255
208 228 255
208 228 255
208 228 255
208 228 255
208 228 255
208 228 255
208 228 255
208 228 255
208 228 255
207 228 255
207 228 255
207 228 255
207 228 255
207 228 255
207 228 255
207 228 255
207 228 255
207 228 255
207 228 255
207 228 255
207 228 255
207 228 255
207 228 255
207 227 255
207 227 255
207 227 255
207 227 255
206 227 255
206 227 255
206 227 255
206 227 255
206 227 255
206 227 255
206 227 255
206 227 255
206 227 255
206 227 255
206 227 255
206 227 255
206 227 255
206 227 255
206 227 255
206 227 255
206 227 255
206 227 255
205 227 255
205 227 255
205 227 255
205 227 255
205 227 255
205 227 255
205 227 255
205 227 255
205 227 255
205 227 255
205 226 255
205 226 255
205 226 255
205 226 255
205 226 255
205 226 255
204 226 255
204 226 255
204 226 255
204 226 255
204 226 255
204 226 255
204 226 255
204 226 255
204 226 255
204 226 255
204 226 255
204 226 255
204 226 255
204 226 255
204 226 255
204 226 255
203 226 255
203 226 255
203 226 255
203 226 255
203 226 255
203 226 255
203 226 255
203 225 255
203 225 255
203 225 255
203 225 255
203 225 255
203 225 255
203 225 255
203 225 255
203 225 255
202 225 255
202 225 255
202 225 255
202 225 255
202 225 255
202 225 255
202 225 255
202 225 255
202 225 255
202 225 255
202 225 255
202 225 255
202 225 255
202 225 255
202 225 255
202 225 255
201 225 255
201 225 255
201 225 255
201 225 255
201 225 255
201 224 255
201 224 255
201 224 255
201 224 255
201 224 255
201 224 255
201 224 255
201 224 255
201 224 255
201 224 255
201 224 255
201 224 255
201 224 255
200 224 255
200 224 255
200 224 255
200 224 255
200 224 255
200 224 255
200 224 255
200 224 255
200 224 255
200 224 255
200 224 255
200 224 255
200 224 255
200 224 255
200 224 255
200 224 255
200 224 255
200 224 255
200 224 255
200 224 255
200 224 255
200 224 255
200 224 255
200 224 255
200 224 255
200 224 255
200 224 255
199 224 255
199 224 255
199 224 255
199 224 255
199 224 255
199 224 255
199 224 255
199 224 255
199 223 255
199 223 255
199 223 255
199 223 255
199 223 255
199 223 255
199 223 255
199 223 255
199 223 255
199 223 255
199 223 255
199 223 255
199 223 255
199 223 255
199 223 255
199 223 255
199 223 255
199 223 255
199 223 255
199 223 255
199 223 255
199 223 255
199 223 255
199 223 255
199 224 255
199 224 255
199 224 255
199 224 255
199 224 255
199 224 255
199 224 255
199 224 255
199 224 255
200 224 255
200 224 255
200 224 255
200 224 255
200 224 255
200 224 255
200 224 255
200 224 255
200 224 255
200 224 255
200 224 255
200 224 255
200 224 255
200 224 255
200 224 255
200 224 255
200 224 255
200 224 255
200 224 255
200 224 255
200 224 255
200 224 255
200 224 255
200 224 255
200 224 255
200 224 255
201 224 255
201 224 255
201 224 255
201 224 255
201 224 255
201 224 255
201 224 255
201 224 255
201 224 255
201 224 255
201 224 255
201 224 255
201 224 255
201 225 255
201 225 255
201 225 255
201 225 255
201 225 255
202 225 255
202 225 255
202 225 255
202 225 255
202 225 255
202 225 255
202 225 255
202 225 255
202 225 255
202 225 255
202 225 255
202 225 255
202 225 255
202 225 255
202 225 255
202 225 255
203 225 255
203 225 255
203 225 255
203 225 255
203 225 255
203 225 255
203 225 255
203 225 255
203 225 255
203 226 255
203 226 255
203 226 255
203 226 255
203 226 255
203 226 255
203 226 255
204 226 255
204 226 255
204 226 255
204 226 255
204 226 255
204 226 255
204 226 255
204 226 255
204 226 255
204 226 255
204 226 255
204 226 255
204 226 255
204 226 255
204 226 255
204 226 255
205 226 255
205 226 255
205 226 255
205 226 255
205 226 255
205 226 255
205 227 255
205 227 255
205 227 255
205 227 255
205 227 255
205 227 255
205 227 255
205 227 255
205 227 255
205 227 255
206 227 255
206 227 255
206 227 255
206 227 255
206 227 255
206 227 255
206 227 255
206 227 255
206 227 255
206 227 255
206 227 255
206 227 255
206 227 255
206 227 255
206 227 255
206 227 255
206 227 255
206 227 255
207 227 255
207 227 255
207 227 255
207 227 255
207 228 255
207 228 255
207 228 255
207 228 255
207 228 255
207 228 255
207 228 255
207 228 255
207 228 255
207 228 255
207 228 255
207 228 255
207 228 255
207 228 255
208 228 255
208 228 255
208 228 255
208 228 255
208 228 255
208 228 255
208 228 255
208 228 255
208 228 255
208 228 255
208 228 255
208 228 255
208 228 255
208 228 255
208 228 255
208 228 255
208 228 255
208 228 255
208 228 255
208 228 255
208 228 255
209 228 255
209 228 255
209 229 255
209 229 255
209 229 255
209 229 255
209 229 255
209 229 255
209 229 255
209 229 255
209 229 255
209 229 255
209 229 255
209 229 255
209 229 255
209 229 255
209 229 255
209 229 255
209 229 255
209 229 255
209 229 255
209 229 255
209 229 255
209 229 255
209 229 255
209 229 255
209 229 255
209 229 255
209 229 255
209 229 255
209 228 255
208 228 255
208 228 255
208 228 255
208 228 255
208 228 255
208 228 255
208 228 255
208 228 255
208 228 255
208 228 255
208 228 255
208 228 255
208 228 255
208 228 255
208 228 255
208 228 255
208 228 255
208 228 255
208 228 255
208 228 255
208 228 255
207 228 255
207 228 255
207 228 255
207 228 255
207 228 255
207 228 255
207 228 255
207 228 255
207 228 255
207 228 255
207 228 255
207 228 255
207 228 255
207 228 255
207 227 255
207 227 255
207 227 255
207 227 255
207 227 255
206 227 255
206 227 255
206 227 255
206 227 255
206 227 255
206 227 255
206 227 255
206 227 255
206 227 255
206 227 255
206 227 255
206 227 255
206 227 255
206 227 255
206 227 255
206 227 255
206 227 255
205 227 255
205 227 255
205 227 255
205 227 255
205 227 255
205 227 255
205 227 255
205 227 255
205 227 255
205 227 255
205 226 255
205 226 255
205 226 255
205 226 255
205 226 255
205 226 255
204 226 255
204 226 255
204 226 255
204 226 255
204 226 255
204 226 255
204 226 255
204 226 255
204 226 255
204 226 255
204 226 255
204 226 255
204 226 255
204 226 255
204 226 255
204 226 255
203 226 255
203 226 255
203 226 255
203 226 255
203 226 255
203 226 255
203 226 255
203 225 255
203 225 255
203 225 255
203 225 255
203 225 255
203 225 255
203 225 255
203 225 255
203 225 255
202 225 255
202 225 255
202 225 255
202 225 255
202 225 255
202 225 255
202 225 255
202 225 255
202 225 255
202 225 255
202 225 255
202 225 255
202 225 255
202 225 255
202 225 255
202 225 255
201 225 255
201 225 255
201 225 255
201 225 255
201 225 255
201 225 255
201 224 255
201 224 255
201 224 255
201 224 255
201 224 255
201 224 255
201 224 255
201 224 255
201 224 255
201 224 255
201 224 255
201 224 255
201 224 255
200 224 255
200 224 255
200 224 255
200 224 255
200 224 255
200 224 255
200 224 255
200 224 255
200 224 255
200 224 255
200 224 255
200 224 255
200 224 255
200 224 255
200 224 255
200 224 255
200 224 255
200 224 255
200 224 255
200 224 255
200 224 255
200 224 255
200 224 255
200 224 255
200 224 255
200 224 255
200 224 255
200 224 255
200 224 255
200 224 255
200 224 255
200 224 255
200 224 255
200 224 255
199 224 255
199 224 255
199 224 255
199 224 255
199 224 255
199 224 255
199 224 255
199 224 255
199 224 255
199 224 255
199 224 255
199 224 255
199 224 255
199 224 255
199 224 255
199 224 255
199 224 255
199 224 255
200 224 255
200 224 255
200 224 255
200 224 255
200 224 255
200 224 255
200 224 255
200 224 255
200 224 255
200 224 255
200 224 255
200 224 255
200 224 255
200 224 255
200 224 255
200 224 255
200 224 255
200 224 255
200 224 255
200 224 255
200 224 255
200 224 255
200 224 255
200 224 255
200 224 255
200 224 255
200 224 255
200 224 255
200 224 255
200 224 255
200 224 255
200 224 255
200 224 255
200 224 255
201 224 255
201 224 255
201 224 255
201 224 255
201 224 255
201 224 255
201 224 255
201 224 255
201 224 255
201 224 255
201 224 255
201 224 255
201 224 255
201 224 255
201 225 255
201 225 255
201 225 255
201 225 255
201 225 255
202 225 255
202 225 255
202 225 255
202 225 255
202 225 255
202 225 255
202 225 255
202 225 255
202 225 255
202 225 255
202 225 255
202 225 255
202 225 255
202 225 255
202 225 255
202 225 255
203 225 255
203 225 255
203 225 255
203 225 255
203 225 255
203 225 255
203 225 255
203 225 255
203 225 255
203 226 255
203 226 255
203 226 255
203 226 255
203 226 255
203 226 255
203 226 255
204 226 255
204 226 255
204 226 255
204 226 255
204 226 255
204 226 255
204 226 255
204 226 255
204 226 255
204 226 255
204 226 255
204 226 255
204 226 255
204 226 255
204 226 255
204 226 255
205 226 255
205 226 255
205 226 255
205 226 255
205 226 255
205 226 255
205 226 255
205 227 255
205 227 255
205 227 255
205 227 255
205 227 255
205 227 255
205 227 255
205 227 255
205 227 255
206 227 255
206 227 255
206 227 255
206 227 255
206 227 255
206 227 255
206 227 255
206 227 255
206 227 255
206 227 255
206 227 255
206 227 255
206 227 255
206 227 255
206 227 255
206 227 255
206 227 255
206 227 255
207 227 255
207 227 255
207 227 255
207 227 255
207 228 255
207 228 255
207 228 255
207 228 255
207 228 255
207 228 255
207 228 255
207 228 255
207 228 255
207 228 255
207 228 255
207 228 255
207 228 255
207 228 255
208 228 255
208 228 255
208 228 255
208 228 255
208 228 255
208 228 255
208 228 255
208 228 255
208 228 255
208 228 255
208 228 255
208 228 255
208 228 255
208 228 255
208 228 255
208 228 255
208 228 255
208 228 255
208 228 255
208 228 255
208 228 255
209 228 255
209 229 255
209 229 255
209 229 255
209 229 255
209 229 255
209 229 255
209 229 255
209 229 255
209 229 255
209 229 255
209 229 255
209 229 255
209 229 255
209 229 255
209 229 255
209 229 255
209 229 255
209 229 255
209 229 255
209 229 255
209 229 255
209 229 255
209 229 255
209 229 255
209 229 255
209 229 255
209 229 255
209 229 255
209 229 255
209 229 255
209 229 255
209 229 255
209 229 255
209 229 255
209 229 255
209 228 255
209 228 255
208 228 255
208 228 255
208 228 255
208 228 255
208 228 255
208 228 255
208 228 255
208 228 255
208 228 255
208 228 255
208 228 255
208 228 255
208 228 255
208 228 255
208 228 255
208 228 255
208 228 255
208 228 255
208 228 255
208 228 255
207 228 255
207 228 255
207 228 255
207 228 255
207 228 255
207 228 255
207 228 255
207 228 255
207 228 255
207 228 255
207 228 255
207 228 255
207 228 255
207 228 255
207 227 255
207 227 255
207 227 255
207 227 255
207 227 255
206 227 255
206 227 255
206 227 255
206 227 255
206 227 255
206 227 255
206 227 255
206 227 255
206 227 255
206 227 255
206 227 255
206 227 255
206 227 255
206 227 255
206 227 255
206 227 255
206 227 255
205 227 255
205 227 255
205 227 255
205 227 255
205 227 255
205 227 255
205 227 255
205 227 255
205 227 255
205 227 255
205 226 255
205 226 255
205 226 255
205 226 255
205 226 255
205 226 255
204 226 255
204 226 255
204 226 255
204 226 255
204 226 255
204 226 255
204 226 255
204 226 255
204 226 255
204 226 255
204 226 255
204 226 255
204 226 255
204 226 255
204 226 255
204 226 255
203 226 255
203 226 255
203 226 255
203 226 255
203 226 255
203 226 255
203 226 255
203 225 255
203 225 255
203 225 255
203 225 255
203 225 255
203 225 255
203 225 255
203 225 255
203 225 255
202 225 255
202 225 255
202 225 255
202 225 255
202 225 255
202 225 255
202 225 255
202 225 255
202 225 255
202 225 255
202 225 255
202 225 255
202 225 255
202 225 255
202 225 255
202 225 255
202 225 255
201 225 255
201 225 255
201 225 255
201 225 255
201 225 255
201 224 255
201 224 255
201 224 255
201 224 255
201 224 255
201 224 255
201 224 255
201 224 255
201 224 255
201 224 255
201 224 255
201 224 255
201 224 255
201 224 255
201 224 255
200 224 255
200 224 255
200 224 255
200 224 255
200 224 255
200 224 255
200 224 255
200 224 255
200 224 255
200 224 255
200 224 255
200 224 255
200 224 255
200 224 255
200 224 255
200 224 255
200 224 255
200 224 255
200 224 255
200 224 255
200 224 255
200 224 255
200 224 255
200 224 255
200 224 255
200 224 255
200 224 255
200 224 255
200 224 255
200 224 255
200 224 255
200 224 255
200 224 255
200 224 255
200 224 255
200 224 255
200 224 255
200 224 255
200 224 255
200 224 255
200 224 255
200 224 255
200 224 255
200 224 255
200 224 255
200 224 255
200 224 255
200 224 255
200 224 255
200 224 255
200 224 255
200 224 255
200 224 255
200 224 255
200 224 255
200 224 255
200 224 255
200 224 255
200 224 255
200 224 255
200 224 255
200 224 255
200 224 255
200 224 255
200 224 255
200 224 255
200 224 255
200 224 255
200 224 255
200 224 255
200 224 255
200 224 255
200 224 255
200 224 255
200 224 255
200 224 255
201 224 255
201 224 255
201 224 255
201 224 255
201 224 255
201 224 255
201 224 255
201 224 255
201 224 255
201 224 255
201 224 255
201 224 255
201 224 255
201 224 255
201 224 255
201 225 255
201 225 255
201 225 255
201 225 255
201 225 255
202 225 255
202 225 255
202 225 255
202 225 255
202 225 255
202 225 255
202 225 255
202 225 255
202 225 255
202 225 255
202 225 255
202 225 255
202 225 255
202 225 255
202 225 255
202 225 255
202 225 255
203 225 255
203 225 255
203 225 255
203 225 255
203 225 255
203 225 255
203 225 255
203 225 255
203 225 255
203 226 255
203 226 255
203 226 255
203 226 255
203 226 255
203 226 255
203 226 255
204 226 255
204 226 255
204 226 255
204 226 255
204 226 255
204 226 255
204 226 255
204 226 255
204 226 255
204 226 255
204 226 255
204 226 255
204 226 255
204 226 255
204 226 255
204 226 255
205 226 255
205 226 255
205 226 255
205 226 255
205 226 255
205 226 255
205 226 255
205 227 255
205 227 255
205 227 255
205 227 255
205 227 255
205 227 255
205 227 255
205 227 255
205 227 255
206 227 255
206 227 255
206 227 255
206 227 255
206 227 255
206 227 255
206 227 255
206 227 255
206 227 255
206 227 255
206 227 255
206 227 255
206 227 255
206 227 255
206 227 255
206 227 255
206 227 255
207 227 255
207 227 255
207 227 255
207 227 255
207 227 255
207 228 255
207 228 255
207 228 255
207 228 255
207 228 255
207 228 255
207 228 255
207 228 255
207 228 255
207 228 255
207 228 255
207 228 255
207 228 255
207 228 255
208 228 255
208 228 255
208 228 255
208 228 255
208 228 255
208 228 255
208 228 255
208 228 255
208 228 255
208 228 255
208 228 255
208 228 255
208 228 255
208 228 255
208 228 255
208 228 255
208 228 255
208 228 255
208 228 255
208 228 255
209 228 255
209 228 255
209 229 255
209 229 255
209 229 255
209 229 255
209 229 255
209 229 255
209 229 255
209 229 255
209 229 255
209 229 255
209 229 255
209 229 255
209 229 255
209 229 255
209 229 255
209 229 255
209 229 255
209 229 255
209 229 255
210 229 255
209 229 255
209 229 255
209 229 255
209 229 255
209 229 255
209 229 255
209 229 255
209 229 255
209 229 255
209 229 255
209 229 255
209 229 255
209 229 255
209 229 255
209 229 255
209 229 255
209 229 255
209 229 255
209 229 255
209 229 255
209 229 255
209 228 255
209 228 255
208 228 255
208 228 255
208 228 255
208 228 255
208 228 255
208 228 255
208 228 255
208 228 255
208 228 255
208 228 255
208 228 255
208 228 255
208 228 255
208 228 255
208 228 255
208 228 255
208 228 255
208 228 255
208 228 255
208 228 255
207 228 255
207 228 255
207 228 255
207 228 255
207 228 255
207 228 255
207 228 255
207 228 255
207 228 255
207 228 255
207 228 255
207 228 255
207 228 255
207 228 255
207 227 255
207 227 255
207 227 255
207 227 255
207 227 255
206 227 255
206 227 255
206 227 255
206 227 255
206 227 255
206 227 255
206 227 255
206 227 255
206 227 255
206 227 255
206 227 255
206 227 255
206 227 255
206 227 255
206 227 255
206 227 255
206 227 255
205 227 255
205 227 255
205 227 255
205 227 255
205 227 255
205 227 255
205 227 255
205 227 255
205 227 255
205 227 255
205 226 255
205 226 255
205 226 255
205 226 255
205 226 255
205 226 255
204 226 255
204 226 255
204 226 255
204 226 255
204 226 255
204 226 255
204 226 255
204 226 255
204 226 255
204 226 255
204 226 255
204 226 255
204 226 255
204 226 255
204 226 255
204 226 255
203 226 255
203 226 255
203 226 255
203 226 255
203 226 255
203 226 255
203 226 255
203 225 255
203 225 255
203 225 255
203 225 255
203 225 255
203 225 255
203 225 255
203 225 255
203 225 255
202 225 255
202 225 255
202 225 255
202 225 255
202 225 255
202 225 255
202 225 255
202 225 255
202 225 255
202 225 255
202 225 255
202 225 255
202 225 255
202 225 255
202 225 255
202 225 255
202 225 255
202 225 255
201 225 255
201 225 255
201 225 255
201 225 255
201 225 255
201 224 255
201 224 255
201 224 255
201 224 255
201 224 255
201 224 255
201 224 255
201 224 255
201 224 255
201 224 255
201 224 255
201 224 255
201 224 255
201 224 255
201 224 255
201 224 255
200 224 255
200 224 255
200 224 255
200 224 255
200 224 255
200 224 255
200 224 255
200 224 255
200 224 255
200 224 255
200 224 255
200 224 255
200 224 255
200 224 255
200 224 255
200 224 255
200 224 255
200 224 255
200 224 255
200 224 255
200 224 255
200 224 255
200 224 255
200 224 255
200 224 255
200 224 255
200 224 255
200 224 255
200 224 255
200 224 255
200 224 255
200 224 255
200 224 255
200 224 255
200 224 255
200 224 255
200 224 255
200 224 255
200 224 255
200 224 255
200 224 255
200 224 255
200 224 255
200 224 255
200 224 255
200 224 255
200 224 255
200 224 255
200 224 255
200 224 255
200 224 255
200 224 255
200 224 255
200 224 255
200 224 255
200 224 255
200 224 255
200 224 255
200 224 255
200 224 255
200 224 255
200 224 255
200 224 255
200 224 255
200 224 255
200 224 255
201 224 255
201 224 255
201 224 255
201 224 255
201 224 255
201 224 255
201 224 255
201 224 255
201 224 255
201 224 255
201 224 255
201 224 255
201 224 255
201 224 255
201 224 255
201 224 255
201 225 255
201 225 255
201 225 255
201 225 255
201 225 255
202 225 255
202 225 255
202 225 255
202 225 255
202 225 255
202 225 255
202 225 255
202 225 255
202 225 255
202 225 255
202 225 255
202 225 255
202 225 255
202 225 255
202 225 255
202 225 255
202 225 255
202 225 255
203 225 255
203 225 255
203 225 255
203 225 255
203 225 255
203 225 255
203 225 255
203 225 255
203 225 255
203 226 255
203 226 255
203 226 255
203 226 255
203 226 255
203 226 255
203 226 255
204 226 255
204 226 255
204 226 255
204 226 255
204 226 255
204 226 255
204 226 255
204 226 255
204 226 255
204 226 255
204 226 255
204 226 255
204 226 255
204 226 255
204 226 255
204 226 255
205 226 255
205 226 255
205 226 255
205 226 255
205 226 255
205 226 255
205 227 255
205 227 255
205 227 255
205 227 255
205 227 255
205 227 255
205 227 255
205 227 255
205 227 255
205 227 255
206 227 255
206 227 255
206 227 255
206 227 255
206 227 255
206 227 255
206 227 255
206 227 255
206 227 255
206 227 255
206 227 255
206 227 255
206 227 255
206 227 255
206 227 255
206 227 255
206 227 255
207 227 255
207 227 255
207 227 255
207 227 255
207 227 255
207 228 255
207 228 255
207 228 255
207 228 255
207 228 255
207 228 255
207 228 255
207 228 255
207 228 255
207 228 255
207 228 255
207 228 255
207 228 255
207 228 255
208 228 255
208 228 255
208 228 255
208 228 255
208 228 255
208 228 255
208 228 255
208 228 255
208 228 255
208 228 255
208 228 255
208 228 255
208 228 255
208 228 255
208 228 255
208 228 255
208 228 255
208 228 255
208 228 255
208 228 255
209 228 255
209 228 255
209 229 255
209 229 255
209 229 255
209 229 255
209 229 255
209 229 255
209 229 255
209 229 255
209 229 255
209 229 255
209 229 255
209 229 255
209 229 255
209 229 255
209 229 255
209 229 255
209 229 255
209 229 255
209 229 255
209 229 255
209 229 255
210 229 255
210 229 255
210 229 255
210 229 255
210 229 255
210 229 255
209 229 255
209 229 255
209 229 255
209 229 255
209 229 255
209 229 255
209 229 255
209 229 255
209 229 255
209 229 255
209 229 255
209 229 255
209 229 255
209 229 255
209 229 255
209 229 255
209 229 255
209 229 255
209 229 255
209 229 255
209 229 255
209 228 255
208 228 255
208 228 255
208 228 255
208 228 255
208 228 255
208 228 255
208 228 255
208 228 255
208 228 255
208 228 255
208 228 255
208 228 255
208 228 255
208 228 255
208 228 255
208 228 255
208 228 255
208 228 255
208 228 255
208 228 255
207 228 255
207 228 255
207 228 255
207 228 255
207 228 255
207 228 255
207 228 255
207 228 255
207 228 255
207 228 255
207 228 255
207 228 255
207 228 255
207 228 255
207 227 255
207 227 255
207 227 255
207 227 255
207 227 255
206 227 255
206 227 255
206 227 255
206 227 255
206 227 255
206 227 255
206 227 255
206 227 255
206 227 255
206 227 255
206 227 255
206 227 255
206 227 255
206 227 255
206 227 255
206 227 255
206 227 255
205 227 255
205 227 255
205 227 255
205 227 255
205 227 255
205 227 255
205 227 255
205 227 255
205 227 255
205 227 255
205 226 255
205 226 255
205 226 255
205 226 255
205 226 255
205 226 255
204 226 255
204 226 255
204 226 255
204 226 255
204 226 255
204 226 255
204 226 255
204 226 255
204 226 255
204 226 255
204 226 255
204 226 255
204 226 255
204 226 255
204 226 255
204 226 255
203 226 255
203 226 255
203 226 255
203 226 255
203 226 255
203 226 255
203 226 255
203 225 255
203 225 255
203 225 255
203 225 255
203 225 255
203 225 255
203 225 255
203 225 255
203 225 255
203 225 255
202 225 255
202 225 255
202 225 255
202 225 255
202 225 255
202 225 255
202 225 255
202 225 255
202 225 255
202 225 255
202 225 255
202 225 255
202 225 255
202 225 255
202 225 255
202 225 255
202 225 255
202 225 255
201 225 255
201 225 255
201 225 255
201 225 255
201 225 255
201 225 255
201 224 255
201 224 255
201 224 255
201 224 255
201 224 255
201 224 255
201 224 255
201 224 255
201 224 255
201 224 255
201 224 255
201 224 255
201 224 255
201 224 255
201 224 255
201 224 255
201 224 255
201 224 255
200 224 255
200 224 255
200 224 255
200 224 255
200 224 255
200 224 255
200 224 255
200 224 255
200 224 255
200 224 255
200 224 255
200 224 255
200 224 255
200 224 255
200 224 255
200 224 255
200 224 255
200 224 255
200 224 255
200 224 255
200 224 255
200 224 255
200 224 255
200 224 255
200 224 255
200 224 255
200 224 255
200 224 255
200 224 255
200 224 255
200 224 255
200 224 255
200 224 255
200 224 255
200 224 255
200 224 255
200 224 255
200 224 255
200 224 255
200 224 255
200 224 255
200 224 255
200 224 255
200 224 255
200 224 255
200 224 255
200 224 255
200 224 255
200 224 255
200 224 255
200 224 255
200 224 255
201 224 255
201 224 255
201 224 255
201 224 255
201 224 255
201 224 255
201 224 255
201 224 255
201 224 255
201 224 255
201 224 255
201 224 255
201 224 255
201 224 255
201 224 255
201 224 255
201 224 255
201 224 255
201 225 255
201 225 255
201 225 255
201 225 255
201 225 255
201 225 255
202 225 255
202 225 255
202 225 255
202 225 255
202 225 255
202 225 255
202 225 255
202 225 255
202 225 255
202 225 255
202 225 255
202 225 255
202 225 255
202 225 255
202 225 255
202 225 255
202 225 255
202 225 255
203 225 255
203 225 255
203 225 255
203 225 255
203 225 255
203 225 255
203 225 255
203 225 255
203 225 255
203 225 255
203 226 255
203 226 255
203 226 255
203 226 255
203 226 255
203 226 255
203 226 255
204 226 255
204 226 255
204 226 255
204 226 255
204 226 255
204 226 255
204 226 255
204 226 255
204 226 255
204 226 255
204 226 255
204 226 255
204 226 255
204 226 255
204 226 255
204 226 255
205 226 255
205 226 255
205 226 255
205 226 255
205 226 255
205 226 255
205 227 255
205 227 255
205 227 255
205 227 255
205 227 255
205 227 255
205 227 255
205 227 255
205 227 255
205 227 255
206 227 255
206 227 255
206 227 255
206 227 255
206 227 255
206 227 255
206 227 255
206 227 255
206 227 255
206 227 255
206 227 255
206 227 255
206 227 255
206 227 255
206 227 255
206 227 255
206 227 255
207 227 255
207 227 255
207 227 255
207 227 255
207 227 255
207 228 255
207 228 255
207 228 255
207 228 255
207 228 255
207 228 255
207 228 255
207 228 255
207 228 255
207 228 255
207 228 255
207 228 255
207 228 255
207 228 255
208 228 255
208 228 255
208 228 255
208 228 255
208 228 255
208 228 255
208 228 255
208 228 255
208 228 255
208 228 255
208 228 255
208 228 255
208 228 255
208 228 255
208 228 255
208 228 255
208 228 255
208 228 255
208 228 255
208 228 255
209 228 255
209 229 255
209 229 255
209 229 255
209 229 255
209 229 255
209 229 255
209 229 255
209 229 255
209 229 255
209 229 255
209 229 255
209 229 255
209 229 255
209 229 255
209 229 255
209 229 255
209 229 255
209 229 255
209 229 255
209 229 255
209 229 255
210 229 255
210 229 255
210 229 255
210 229 255
210 229 255
210 229 255
210 229 255
210 229 255
210 229 255
210 229 255
210 229 255
210 229 255
210 229 255
209 229 255
209 229 255
209 229 255
209 229 255
209 229 255
209 229 255
209 229 255
209 229 255
209 229 255
209 229 255
209 229 255
209 229 255
209 229 255
209 229 255
209 229 255
209 229 255
209 229 255
209 229 255
209 229 255
209 229 255
209 229 255
209 228 255
209 228 255
208 228 255
208 228 255
208 228 255
208 228 255
208 228 255
208 228 255
208 228 255
208 228 255
208 228 255
208 228 255
208 228 255
208 228 255
208 228 255
208 228 255
208 228 255
208 228 255
208 228 255
208 228 255
208 228 255
208 228 255
207 228 255
207 228 255
207 228 255
207 228 255
207 228 255
207 228 255
207 228 255
207 228 255
207 228 255
207 228 255
207 228 255
207 228 255
207 228 255
207 228 255
207 227 255
207 227 255
207 227 255
207 227 255
206 227 255
206 227 255
206 227 255
206 227 255
206 227 255
206 227 255
206 227 255
206 227 255
206 227 255
206 227 255
206 227 255
206 227 255
206 227 255
206 227 255
206 227 255
206 227 255
206 227 255
205 227 255
205 227 255
205 227 255
205 227 255
205 227 255
205 227 255
205 227 255
205 227 255
205 227 255
205 227 255
205 226 255
205 226 255
205 226 255
205 226 255
205 226 255
205 226 255
204 226 255
204 226 255
204 226 255
204 226 255
204 226 255
204 226 255
204 226 255
204 226 255
204 226 255
204 226 255
204 226 255
204 226 255
204 226 255
204 226 255
204 226 255
204 226 255
203 226 255
203 226 255
203 226 255
203 226 255
203 226 255
203 226 255
203 226 255
203 226 255
203 225 255
203 225 255
203 225 255
203 225 255
203 225 255
203 225 255
203 225 255
203 225 255
203 225 255
202 225 255
202 225 255
202 225 255
202 225 255
202 225 255
202 225 255
202 225 255
202 225 255
202 225 255
202 225 255
202 225 255
202 225 255
202 225 255
202 225 255
202 225 255
202 225 255
202 225 255
202 225 255
202 225 255
201 225 255
201 225 255
201 225 255
201 225 255
201 225 255
201 225 255
201 224 255
201 224 255
201 224 255
201 224 255
201 224 255
201 224 255
201 224 255
201 224 255
201 224 255
201 224 255
201 224 255
201 224 255
201 224 255
201 224 255
201 224 255
201 224 255
201 224 255
201 224 255
201 224 255
201 224 255
201 224 255
201 224 255
200 224 255
200 224 255
200 224 255
200 224 255
200 224 255
200 224 255
200 224 255
200 224 255
200 224 255
200 224 255
200 224 255
200 224 255
200 224 255
200 224 255
200 224 255
200 224 255
200 224 255
200 224 255
200 224 255
200 224 255
200 224 255
200 224 255
200 224 255
200 224 255
200 224 255
200 224 255
200 224 255
200 224 255
200 224 255
200 224 255
200 224 255
200 224 255
200 224 255
200 224 255
200 224 255
200 224 255
201 224 255
201 224 255
201 224 255
201 224 255
201 224 255
201 224 255
201 224 255
201 224 255
201 224 255
201 224 255
201 224 255
201 224 255
201 224 255
201 224 255
201 224 255
201 224 255
201 224 255
201 224 255
201 224 255
201 224 255
201 224 255
201 224 255
201 225 255
201 225 255
201 225 255
201 225 255
201 225 255
201 225 255
202 225 255
202 225 255
202 225 255
202 225 255
202 225 255
202 225 255
202 225 255
202 225 255
202 225 255
202 225 255
202 225 255
202 225 255
202 225 255
202 225 255
202 225 255
202 225 255
202 225 255
202 225 255
202 225 255
203 225 255
203 225 255
203 225 255
203 225 255
203 225 255
203 225 255
203 225 255
203 225 255
203 225 255
203 226 255
203 226 255
203 226 255
203 226 255
203 226 255
203 226 255
203 226 255
203 226 255
204 226 255
204 226 255
204 226 255
204 226 255
204 226 255
204 226 255
204 226 255
204 226 255
204 226 255
204 226 255
204 226 255
204 226 255
204 226 255
204 226 255
204 226 255
204 226 255
205 226 255
205 226 255
205 226 255
205 226 255
205 226 255
205 226 255
205 227 255
205 227 255
205 227 255
205 227 255
205 227 255
205 227 255
205 227 255
205 227 255
205 227 255
205 227 255
206 227 255
206 227 255
206 227 255
206 227 255
206 227 255
206 227 255
206 227 255
206 227 255
206 227 255
206 227 255
206 227 255
206 227 255
206 227 255
206 227 255
206 227 255
206 227 255
206 227 255
207 227 255
207 227 255
207 227 255
207 227 255
207 228 255
207 228 255
207 228 255
207 228 255
207 228 255
207 228 255
207 228 255
207 228 255
207 228 255
207 228 255
207 228 255
207 228 255
207 228 255
207 228 255
208 228 255
208 228 255
208 228 255
208 228 255
208 228 255
208 228 255
208 228 255
208 228 255
208 228 255
208 228 255
208 228 255
208 228 255
208 228 255
208 228 255
208 228 255
208 228 255
208 228 255
208 228 255
208 228 255
208 228 255
209 228 255
209 228 255
209 229 255
209 229 255
209 229 255
209 229 255
209 229 255
209 229 255
209 229 255
209 229 255
209 229 255
209 229 255
209 229 255
209 229 255
209 229 255
209 229 255
209 229 255
209 229 255
209 229 255
209 229 255
209 229 255
209 229 255
209 229 255
210 229 255
210 229 255
210 229 255
210 229 255
210 229 255
210 229 255
210 229 255
210 229 255
210 229 255
210 229 255
210 229 255
210 229 255
210 229 255
210 229 255
210 229 255
210 229 255
210 229 255
210 229 255
210 229 255
210 229 255
209 229 255
209 229 255
209 229 255
209 229 255
209 229 255
209 229 255
209 229 255
209 229 255
209 229 255
209 229 255
209 229 255
209 229 255
209 229 255
209 229 255
209 229 255
209 229 255
209 229 255
209 229 255
209 229 255
209 229 255
209 229 255
209 228 255
208 228 255
208 228 255
208 228 255
208 228 255
208 228 255
208 228 255
208 228 255
208 228 255
208 228 255
208 228 255
208 228 255
208 228 255
208 228 255
208 228 255
208 228 255
208 228 255
208 228 255
208 228 255
208 228 255
208 228 255
207 228 255
207 228 255
207 228 255
207 228 255
207 228 255
207 228 255
207 228 255
207 228 255
207 228 255
207 228 255
207 228 255
207 228 255
207 228 255
207 228 255
207 227 255
207 227 255
207 227 255
207 227 255
206 227 255
206 227 255
206 227 255
206 227 255
206 227 255
206 227 255
206 227 255
206 227 255
206 227 255
206 227 255
206 227 255
206 227 255
206 227 255
206 227 255
206 227 255
206 227 255
206 227 255
205 227 255
205 227 255
205 227 255
205 227 255
205 227 255
205 227 255
205 227 255
205 227 255
205 227 255
205 227 255
205 226 255
205 226 255
205 226 255
205 226 255
205 226 255
205 226 255
204 226 255
204 226 255
204 226 255
204 226 255
204 226 255
204 226 255
204 226 255
204 226 255
204 226 255
204 226 255
204 226 255
204 226 255
204 226 255
204 226 255
204 226 255
204 226 255
204 226 255
203 226 255
203 226 255
203 226 255
203 226 255
203 226 255
203 226 255
203 226 255
203 225 255
203 225 255
203 225 255
203 225 255
203 225 255
203 225 255
203 225 255
203 225 255
203 225 255
203 225 255
202 225 255
202 225 255
202 225 255
202 225 255
202 225 255
202 225 255
202 225 255
202 225 255
202 225 255
202 225 255
202 225 255
202 225 255
202 225 255
202 225 255
202 225 255
202 225 255
202 225 255
202 225 255
202 225 255
201 225 255
201 225 255
201 225 255
201 225 255
201 225 255
201 225 255
201 225 255
201 225 255
201 224 255
201 224 255
201 224 255
201 224 255
201 224 255
201 224 255
201 224 255
201 224 255
201 224 255
201 224 255
201 224 255
201 224 255
201 224 255
201 224 255
201 224 255
201 224 255
201 224 255
201 224 255
201 224 255
201 224 255
201 224 255
201 224 255
201 224 255
201 224 255
201 224 255
201 224 255
201 224 255
201 224 255
201 224 255
201 224 255
201 224 255
201 224 255
201 224 255
201 224 255
201 224 255
201 224 255
201 224 255
201 224 255
201 224 255
201 224 255
201 224 255
201 224 255
201 224 255
201 224 255
201 224 255
201 224 255
201 224 255
201 224 255
201 224 255
201 224 255
201 224 255
201 224 255
201 224 255
201 224 255
201 224 255
201 224 255
201 224 255
201 224 255
201 224 255
201 224 255
201 224 255
201 224 255
201 224 255
201 224 255
201 224 255
201 224 255
201 224 255
201 224 255
201 225 255
201 225 255
201 225 255
201 225 255
201 225 255
201 225 255
201 225 255
202 225 255
202 225 255
202 225 255
202 225 255
202 225 255
202 225 255
202 225 255
202 225 255
202 225 255
202 225 255
202 225 255
202 225 255
202 225 255
202 225 255
202 225 255
202 225 255
202 225 255
202 225 255
202 225 255
202 225 255
203 225 255
203 225 255
203 225 255
203 225 255
203 225 255
203 225 255
203 225 255
203 225 255
203 225 255
203 225 255
203 226 255
203 226 255
203 226 255
203 226 255
203 226 255
203 226 255
203 226 255
204 226 255
204 226 255
204 226 255
204 226 255
204 226 255
204 226 255
204 226 255
204 226 255
204 226 255
204 226 255
204 226 255
204 226 255
204 226 255
204 226 255
204 226 255
204 226 255
204 226 255
205 226 255
205 226 255
205 226 255
205 226 255
205 226 255
205 226 255
205 227 255
205 227 255
205 227 255
205 227 255
205 227 255
205 227 255
205 227 255
205 227 255
205 227 255
205 227 255
206 227 255
206 227 255
206 227 255
206 227 255
206 227 255
206 227 255
206 227 255
206 227 255
206 227 255
206 227 255
206 227 255
206 227 255
206 227 255
206 227 255
206 227 255
206 227 255
206 227 255
207 227 255
207 227 255
207 227 255
207 227 255
207 228 255
207 228 255
207 228 255
207 228 255
207 228 255
207 228 255
207 228 255
207 228 255
207 228 255
207 228 255
207 228 255
207 228 255
207 228 255
207 228 255
208 228 255
208 228 255
208 228 255
208 228 255
208 228 255
208 228 255
208 228 255
208 228 255
208 228 255
208 228 255
208 228 255
208 228 255
208 228 255
208 228 255
208 228 255
208 228 255
208 228 255
208 228 255
208 228 255
208 228 255
209 228 255
209 229 255
209 229 255
209 229 255
209 229 255
209 229 255
209 229 255
209 229 255
209 229 255
209 229 255
209 229 255
209 229 255
209 229 255
209 229 255
209 229 255
209 229 255
209 229 255
209 229 255
209 229 255
209 229 255
209 229 255
209 229 255
210 229 255
210 229 255
210 229 255
210 229 255
210 229 255
210 229 255
210 229 255
210 229 255
210 229 255
210 229 255
210 229 255
210 229 255
210 229 255
210 229 255
210 229 255
210 229 255
210 229 255
210 229 255
210 229 255
210 229 255
210 229 255
210 229 255
210 229 255
210 229 255
210 229 255
210 229 255
210 229 255
210 229 255
209 229 255
209 229 255
209 229 255
209 229 255
209 229 255
209 229 255
209 229 255
209 229 255
209 229 255
209 229 255
209 229 255
209 229 255
209 229 255
209 229 255
209 229 255
209 229 255
209 229 255
209 229 255
209 229 255
209 229 255
209 228 255
209 228 255
208 228 255
208 228 255
208 228 255
208 228 255
208 228 255
208 228 255
208 228 255
208 228 255
208 228 255
208 228 255
208 228 255
208 228 255
208 228 255
208 228 255
208 228 255
208 228 255
208 228 255
208 228 255
208 228 255
207 228 255
207 228 255
207 228 255
207 228 255
207 228 255
207 228 255
207 228 255
207 228 255
207 228 255
207 228 255
207 228 255
207 228 255
207 228 255
207 228 255
207 227 255
207 227 255
207 227 255
207 227 255
206 227 255
206 227 255
206 227 255
206 227 255
206 227 255
206 227 255
206 227 255
206 227 255
206 227 255
206 227 255
206 227 255
206 227 255
206 227 255
206 227 255
206 227 255
206 227 255
206 227 255
205 227 255
205 227 255
205 227 255
205 227 255
205 227 255
205 227 255
205 227 255
205 227 255
205 227 255
205 227 255
205 226 255
205 226 255
205 226 255
205 226 255
205 226 255
205 226 255
205 226 255
204 226 255
204 226 255
204 226 255
204 226 255
204 226 255
204 226 255
204 226 255
204 226 255
204 226 255
204 226 255
204 226 255
204 226 255
204 226 255
204 226 255
204 226 255
204 226 255
203 226 255
203 226 255
203 226 255
203 226 255
203 226 255
203 226 255
203 226 255
203 226 255
203 225 255
203 225 255
203 225 255
203 225 255
203 225 255
203 225 255
203 225 255
203 225 255
203 225 255
203 225 255
202 225 255
202 225 255
202 225 255
202 225 255
202 225 255
202 225 255
202 225 255
202 225 255
202 225 255
202 225 255
202 225 255
202 225 255
202 225 255
202 225 255
202 225 255
202 225 255
202 225 255
202 225 255
202 225 255
202 225 255
202 225 255
201 225 255
201 225 255
201 225 255
201 225 255
201 225 255
201 225 255
201 225 255
201 225 255
201 224 255
201 224 255
201 224 255
201 224 255
201 224 255
201 224 255
201 224 255
201 224 255
201 224 255
201 224 255
201 224 255
201 224 255
201 224 255
201 224 255
201 224 255
201 224 255
201 224 255
201 224 255
201 224 255
201 224 255
201 224 255
201 224 255
201 224 255
201 224 255
201 224 255
201 224 255
201 224 255
201 224 255
201 224 255
201 224 255
201 224 255
201 224 255
201 224 255
201 224 255
201 224 255
201 224 255
201 224 255
201 224 255
201 224 255
201 224 255
201 224 255
201 224 255
201 224 255
201 224 255
201 224 255
201 224 255
201 224 255
201 224 255
201 224 255
201 224 255
201 224 255
201 224 255
201 224 255
201 224 255
201 224 255
201 224 255
201 225 255
201 225 255
201 225 255
201 225 255
201 225 255
201 225 255
201 225 255
201 225 255
202 225 255
202 225 255
202 225 255
202 225 255
202 225 255
202 225 255
202 225 255
202 225 255
202 225 255
202 225 255
202 225 255
202 225 255
202 225 255
202 225 255
202 225 255
202 225 255
202 225 255
202 225 255
202 225 255
202 225 255
202 225 255
203 225 255
203 225 255
203 225 255
203 225 255
203 225 255
203 225 255
203 225 255
203 225 255
203 225 255
203 225 255
203 226 255
203 226 255
203 226 255
203 226 255
203 226 255
203 226 255
203 226 255
203 226 255
204 226 255
204 226 255
204 226 255
204 226 255
204 226 255
204 226 255
204 226 255
204 226 255
204 226 255
204 226 255
204 226 255
204 226 255
204 226 255
204 226 255
204 226 255
204 226 255
205 226 255
205 226 255
205 226 255
205 226 255
205 226 255
205 226 255
205 226 255
205 227 255
205 227 255
205 227 255
205 227 255
205 227 255
205 227 255
205 227 255
205 227 255
205 227 255
205 227 255
206 227 255
206 227 255
206 227 255
206 227 255
206 227 255
206 227 255
206 227 255
206 227 255
206 227 255
206 227 255
206 227 255
206 227 255
206 227 255
206 227 255
206 227 255
206 227 255
206 227 255
207 227 255
207 227 255
207 227 255
207 227 255
207 228 255
207 228 255
207 228 255
207 228 255
207 228 255
207 228 255
207 228 255
207 228 255
207 228 255
207 228 255
207 228 255
207 228 255
207 228 255
207 228 255
208 228 255
208 228 255
208 228 255
208 228 255
208 228 255
208 228 255
208 228 255
208 228 255
208 228 255
208 228 255
208 228 255
208 228 255
208 228 255
208 228 255
208 228 255
208 228 255
208 228 255
208 228 255
208 228 255
209 228 255
209 228 255
209 229 255
209 229 255
209 229 255
209 229 255
209 229 255
209 229 255
209 229 255
209 229 255
209 229 255
209 229 255
209 229 255
209 229 255
209 229 255
209 229 255
209 229 255
209 229 255
209 229 255
209 229 255
209 229 255
209 229 255
210 229 255
210 229 255
210 229 255
210 229 255
210 229 255
210 229 255
210 229 255
210 229 255
210 229 255
210 229 255
210 229 255
210 229 255
210 229 255
210 229 255
210 229 255
210 229 255
210 229 255
210 229 255
210 229 255
210 229 255
210 229 255
210 229 255
210 229 255
210 229 255
210 229 255
210 229 255
210 229 255
210 229 255
210 229 255
210 229 255
210 229 255
210 229 255
210 229 255
210 229 255
210 229 255
209 229 255
209 229 255
209 229 255
209 229 255
209 229 255
209 229 255
209 229 255
209 229 255
209 229 255
209 229 255
209 229 255
209 229 255
209 229 255
209 229 255
209 229 255
209 229 255
209 229 255
209 229 255
209 229 255
209 229 255
209 229 255
209 228 255
208 228 255
208 228 255
208 228 255
208 228 255
208 228 255
208 228 255
208 228 255
208 228 255
208 228 255
208 228 255
208 228 255
208 228 255
208 228 255
208 228 255
208 228 255
208 228 255
208 228 255
208 228 255
208 228 255
208 228 255
207 228 255
207 228 255
207 228 255
207 228 255
207 228 255
207 228 255
207 228 255
207 228 255
207 228 255
207 228 255
207 228 255
207 228 255
207 228 255
207 227 255
207 227 255
207 227 255
207 227 255
207 227 255
206 227 255
206 227 255
206 227 255
206 227 255
206 227 255
206 227 255
206 227 255
206 227 255
206 227 255
206 227 255
206 227 255
206 227 255
206 227 255
206 227 255
206 227 255
206 227 255
206 227 255
205 227 255
205 227 255
205 227 255
205 227 255
205 227 255
205 227 255
205 227 255
205 227 255
205 227 255
205 226 255
205 226 255
205 226 255
205 226 255
205 226 255
205 226 255
205 226 255
204 226 255
204 226 255
204 226 255
204 226 255
204 226 255
204 226 255
204 226 255
204 226 255
204 226 255
204 226 255
204 226 255
204 226 255
204 226 255
204 226 255
204 226 255
204 226 255
204 226 255
203 226 255
203 226 255
203 226 255
203 226 255
203 226 255
203 226 255
203 226 255
203 225 255
203 225 255
203 225 255
203 225 255
203 225 255
203 225 255
203 225 255
203 225 255
203 225 255
203 225 255
203 225 255
202 225 255
202 225 255
202 225 255
202 225 255
202 225 255
202 225 255
202 225 255
202 225 255
202 225 255
202 225 255
202 225 255
202 225 255
202 225 255
202 225 255
202 225 255
202 225 255
202 225 255
202 225 255
202 225 255
202 225 255
202 225 255
202 225 255
202 225 255
201 225 255
201 225 255
201 225 255
201 225 255
201 225 255
201 225 255
201 225 255
201 225 255
201 225 255
201 225 255
201 224 255
201 224 255
201 224 255
201 224 255
201 224 255
201 224 255
201 224 255
201 224 255
201 224 255
201 224 255
201 224 255
201 224 255
201 224 255
201 224 255
201 224 255
201 224 255
201 224 255
201 224 255
201 224 255
201 224 255
201 224 255
201 224 255
201 224 255
201 224 255
201 224 255
201 224 255
201 224 255
201 224 255
201 224 255
201 224 255
201 224 255
201 224 255
201 224 255
201 224 255
201 224 255
201 224 255
201 224 255
201 224 255
201 224 255
201 224 255
201 225 255
201 225 255
201 225 255
201 225 255
201 225 255
201 225 255
201 225 255
201 225 255
201 225 255
201 225 255
202 225 255
202 225 255
202 225 255
202 225 255
202 225 255
202 225 255
202 225 255
202 225 255
202 225 255
202 225 255
202 225 255
202 225 255
202 225 255
202 225 255
202 225 255
202 225 255
202 225 255
202 225 255
202 225 255
202 225 255
202 225 255
202 225 255
202 225 255
203 225 255
203 225 255
203 225 255
203 225 255
203 225 255
203 225 255
203 225 255
203 225 255
203 225 255
203 225 255
203 225 255
203 226 255
203 226 255
203 226 255
203 226 255
203 226 255
203 226 255
203 226 255
204 226 255
204 226 255
204 226 255
204 226 255
204 226 255
204 226 255
204 226 255
204 226 255
204 226 255
204 226 255
204 226 255
204 226 255
204 226 255
204 226 255
204 226 255
204 226 255
204 226 255
205 226 255
205 226 255
205 226 255
205 226 255
205 226 255
205 226 255
205 226 255
205 227 255
205 227 255
205 227 255
205 227 255
205 227 255
205 227 255
205 227 255
205 227 255
205 227 255
205 227 255
206 227 255
206 227 255
206 227 255
206 227 255
206 227 255
206 227 255
206 227 255
206 227 255
206 227 255
206 227 255
206 227 255
206 227 255
206 227 255
206 227 255
206 227 255
206 227 255
206 227 255
207 227 255
207 227 255
207 227 255
207 227 255
207 228 255
207 228 255
207 228 255
207 228 255
207 228 255
207 228 255
207 228 255
207 228 255
207 228 255
207 228 255
207 228 255
207 228 255
207 228 255
208 228 255
208 228 255
208 228 255
208 228 255
208 228 255
208 228 255
208 228 255
208 228 255
208 228 255
208 228 255
208 228 255
208 228 255
208 228 255
208 228 255
208 228 255
208 228 255
208 228 255
208 228 255
208 228 255
208 228 255
209 228 255
209 229 255
209 229 255
209 229 255
209 229 255
209 229 255
209 229 255
209 229 255
209 229 255
209 229 255
209 229 255
209 229 255
209 229 255
209 229 255
209 229 255
209 229 255
209 229 255
209 229 255
209 229 255
209 229 255
209 229 255
209 229 255
210 229 255
210 229 255
210 229 255
210 229 255
210 229 255
210 229 255
210 229 255
210 229 255
210 229 255
210 229 255
210 229 255
210 229 255
210 229 255
210 229 255
210 229 255
210 229 255
210 229 255
210 229 255
210 229 255
210 230 255
210 229 255
210 229 255
210 229 255
210 229 255
210 229 255
210 229 255
210 229 255
210 229 255
210 229 255
210 229 255
210 229 255
210 229 255
210 229 255
210 229 255
210 229 255
210 229 255
210 229 255
210 229 255
210 229 255
210 229 255
210 229 255
210 229 255
209 229 255
209 229 255
209 229 255
209 229 255
209 229 255
209 229 255
209 229 255
209 229 255
209 229 255
209 229 255
209 229 255
209 229 255
209 229 255
209 229 255
209 229 255
209 229 255
209 229 255
209 229 255
209 229 255
209 229 255
209 228 255
208 228 255
208 228 255
208 228 255
208 228 255
208 228 255
208 228 255
208 228 255
208 228 255
208 228 255
208 228 255
208 228 255
208 228 255
208 228 255
208 228 255
208 228 255
208 228 255
208 228 255
208 228 255
208 228 255
208 228 255
207 228 255
207 228 255
207 228 255
207 228 255
207 228 255
207 228 255
207 228 255
207 228 255
207 228 255
207 228 255
207 228 255
207 228 255
207 228 255
207 228 255
207 227 255
207 227 255
207 227 255
207 227 255
206 227 255
206 227 255
206 227 255
206 227 255
206 227 255
206 227 255
206 227 255
206 227 255
206 227 255
206 227 255
206 227 255
206 227 255
206 227 255
206 227 255
206 227 255
206 227 255
206 227 255
205 227 255
205 227 255
205 227 255
205 227 255
205 227 255
205 227 255
205 227 255
205 227 255
205 227 255
205 227 255
205 226 255
205 226 255
205 226 255
205 226 255
205 226 255
205 226 255
204 226 255
204 226 255
204 226 255
204 226 255
204 226 255
204 226 255
204 226 255
204 226 255
204 226 255
204 226 255
204 226 255
204 226 255
204 226 255
204 226 255
204 226 255
204 226 255
204 226 255
203 226 255
203 226 255
203 226 255
203 226 255
203 226 255
203 226 255
203 226 255
203 226 255
203 225 255
203 225 255
203 225 255
203 225 255
203 225 255
203 225 255
203 225 255
203 225 255
203 225 255
203 225 255
203 225 255
202 225 255
202 225 255
202 225 255
202 225 255
202 225 255
202 225 255
202 225 255
202 225 255
202 225 255
202 225 255
202 225 255
202 225 255
202 225 255
202 225 255
202 225 255
202 225 255
202 225 255
202 225 255
202 225 255
202 225 255
202 225 255
202 225 255
202 225 255
202 225 255
202 225 255
202 225 255
201 225 255
201 225 255
201 225 255
201 225 255
201 225 255
201 225 255
201 225 255
201 225 255
201 225 255
201 225 255
201 225 255
201 225 255
201 225 255
201 225 255
201 225 255
201 225 255
201 225 255
201 224 255
201 224 255
201 224 255
201 224 255
201 224 255
201 224 255
201 224 255
201 224 255
201 224 255
201 224 255
201 224 255
201 225 255
201 225 255
201 225 255
201 225 255
201 225 255
201 225 255
201 225 255
201 225 255
201 225 255
201 225 255
201 225 255
201 225 255
201 225 255
201 225 255
201 225 255
201 225 255
201 225 255
201 225 255
202 225 255
202 225 255
202 225 255
202 225 255
202 225 255
202 225 255
202 225 255
202 225 255
202 225 255
202 225 255
202 225 255
202 225 255
202 225 255
202 225 255
202 225 255
202 225 255
202 225 255
202 225 255
202 225 255
202 225 255
202 225 255
202 225 255
202 225 255
202 225 255
202 225 255
202 225 255
203 225 255
203 225 255
203 225 255
203 225 255
203 225 255
203 225 255
203 225 255
203 225 255
203 225 255
203 225 255
203 225 255
203 226 255
203 226 255
203 226 255
203 226 255
203 226 255
203 226 255
203 226 255
203 226 255
204 226 255
204 226 255
204 226 255
204 226 255
204 226 255
204 226 255
204 226 255
204 226 255
204 226 255
204 226 255
204 226 255
204 226 255
204 226 255
204 226 255
204 226 255
204 226 255
204 226 255
205 226 255
205 226 255
205 226 255
205 226 255
205 226 255
205 226 255
205 227 255
205 227 255
205 227 255
205 227 255
205 227 255
205 227 255
205 227 255
205 227 255
205 227 255
205 227 255
206 227 255
206 227 255
206 227 255
206 227 255
206 227 255
206 227 255
206 227 255
206 227 255
206 227 255
206 227 255
206 227 255
206 227 255
206 227 255
206 227 255
206 227 255
206 227 255
206 227 255
207 227 255
207 227 255
207 227 255
207 227 255
207 228 255
207 228 255
207 228 255
207 228 255
207 228 255
207 228 255
207 228 255
207 228 255
207 228 255
207 228 255
207 228 255
207 228 255
207 228 255
207 228 255
208 228 255
208 228 255
208 228 255
208 228 255
208 228 255
208 228 255
208 228 255
208 228 255
208 228 255
208 228 255
208 228 255
208 228 255
208 228 255
208 228 255
208 228 255
208 228 255
208 228 255
208 228 255
208 228 255
208 228 255
209 228 255
209 229 255
209 229 255
209 229 255
209 229 255
209 229 255
209 229 255
209 229 255
209 229 255
209 229 255
209 229 255
209 229 255
209 229 255
209 229 255
209 229 255
209 229 255
209 229 255
209 229 255
209 229 255
209 229 255
209 229 255
210 229 255
210 229 255
210 229 255
210 229 255
210 229 255
210 229 255
210 229 255
210 229 255
210 229 255
210 229 255
210 229 255
210 229 255
210 229 255
210 229 255
210 229 255
210 229 255
210 229 255
210 229 255
210 229 255
210 229 255
210 229 255
210 229 255
210 230 255
211 230 255
211 230 255
210 230 255
210 230 255
210 230 255
210 229 255
210 229 255
210 229 255
210 229 255
210 229 255
210 229 255
210 229 255
210 229 255
210 229 255
210 229 255
210 229 255
210 229 255
210 229 255
210 229 255
210 229 255
210 229 255
210 229 255
210 229 255
210 229 255
210 229 255
210 229 255
210 229 255
209 229 255
209 229 255
209 229 255
209 229 255
209 229 255
209 229 255
209 229 255
209 229 255
209 229 255
209 229 255
209 229 255
209 229 255
209 229 255
209 229 255
209 229 255
209 229 255
209 229 255
209 229 255
209 229 255
209 229 255
209 228 255
208 228 255
208 228 255
208 228 255
208 228 255
208 228 255
208 228 255
208 228 255
208 228 255
208 228 255
208 228 255
208 228 255
208 228 255
208 228 255
208 228 255
208 228 255
208 228 255
208 228 255
208 228 255
208 228 255
207 228 255
207 228 255
207 228 255
207 228 255
207 228 255
207 228 255
207 228 255
207 228 255
207 228 255
207 228 255
207 228 255
207 228 255
207 228 255
207 228 255
207 227 255
207 227 255
207 227 255
207 227 255
206 227 255
206 227 255
206 227 255
206 227 255
206 227 255
206 227 255
206 227 255
206 227 255
206 227 255
206 227 255
206 227 255
206 227 255
206 227 255
206 227 255
206 227 255
206 227 255
206 227 255
205 227 255
205 227 255
205 227 255
205 227 255
205 227 255
205 227 255
205 227 255
205 227 255
205 227 255
205 227 255
205 226 255
205 226 255
205 226 255
205 226 255
205 226 255
205 226 255
205 226 255
204 226 255
204 226 255
204 226 255
204 226 255
204 226 255
204 226 255
204 226 255
204 226 255
204 226 255
204 226 255
204 226 255
204 226 255
204 226 255
204 226 255
204 226 255
204 226 255
204 226 255
203 226 255
203 226 255
203 226 255
203 226 255
203 226 255
203 226 255
203 226 255
203 226 255
203 225 255
203 225 255
203 225 255
203 225 255
203 225 255
203 225 255
203 225 255
203 225 255
203 225 255
203 225 255
203 225 255
203 225 255
202 225 255
202 225 255
202 225 255
202 225 255
202 225 255
202 225 255
202 225 255
202 225 255
202 225 255
202 225 255
202 225 255
202 225 255
202 225 255
202 225 255
202 225 255
202 225 255
202 225 255
202 225 255
202 225 255
202 225 255
202 225 255
202 225 255
202 225 255
202 225 255
202 225 255
202 225 255
202 225 255
202 225 255
202 225 255
202 225 255
202 225 255
202 225 255
201 225 255
201 225 255
201 225 255
201 225 255
201 225 255
201 225 255
201 225 255
201 225 255
201 225 255
201 225 255
201 225 255
201 225 255
201 225 255
201 225 255
201 225 255
201 225 255
201 225 255
201 225 255
201 225 255
201 225 255
201 225 255
201 225 255
201 225 255
201 225 255
202 225 255
202 225 255
202 225 255
202 225 255
202 225 255
202 225 255
202 225 255
202 225 255
202 225 255
202 225 255
202 225 255
202 225 255
202 225 255
202 225 255
202 225 255
202 225 255
202 225 255
202 225 255
202 225 255
202 225 255
202 225 255
202 225 255
202 225 255
202 225 255
202 225 255
202 225 255
202 225 255
202 225 255
202 225 255
202 225 255
202 225 255
202 225 255
203 225 255
203 225 255
203 225 255
203 225 255
203 225 255
203 225 255
203 225 255
203 225 255
203 225 255
203 225 255
203 225 255
203 225 255
203 226 255
203 226 255
203 226 255
203 226 255
203 226 255
203 226 255
203 226 255
203 226 255
204 226 255
204 226 255
204 226 255
204 226 255
204 226 255
204 226 255
204 226 255
204 226 255
204 226 255
204 226 255
204 226 255
204 226 255
204 226 255
204 226 255
204 226 255
204 226 255
204 226 255
205 226 255
205 226 255
205 226 255
205 226 255
205 226 255
205 226 255
205 226 255
205 227 255
205 227 255
205 227 255
205 227 255
205 227 255
205 227 255
205 227 255
205 227 255
205 227 255
205 227 255
206 227 255
206 227 255
206 227 255
206 227 255
206 227 255
206 227 255
206 227 255
206 227 255
206 227 255
206 227 255
206 227 255
206 227 255
206 227 255
206 227 255
206 227 255
206 227 255
206 227 255
207 227 255
207 227 255
207 227 255
207 227 255
207 228 255
207 228 255
207 228 255
207 228 255
207 228 255
207 228 255
207 228 255
207 228 255
207 228 255
207 228 255
207 228 255
207 228 255
207 228 255
207 228 255
208 228 255
208 228 255
208 228 255
208 228 255
208 228 255
208 228 255
208 228 255
208 228 255
208 228 255
208 228 255
208 228 255
208 228 255
208 228 255
208 228 255
208 228 255
208 228 255
208 228 255
208 228 255
208 228 255
209 228 255
209 229 255
209 229 255
209 229 255
209 229 255
209 229 255
209 229 255
209 229 255
209 229 255
209 229 255
209 229 255
209 229 255
209 229 255
209 229 255
209 229 255
209 229 255
209 229 255
209 229 255
209 229 255
209 229 255
209 229 255
210 229 255
210 229 255
210 229 255
210 229 255
210 229 255
210 229 255
210 229 255
210 229 255
210 229 255
210 229 255
210 229 255
210 229 255
210 229 255
210 229 255
210 229 255
210 229 255
210 229 255
210 229 255
210 229 255
210 229 255
210 229 255
210 229 255
210 230 255
210 230 255
210 230 255
211 230 255
211 230 255
211 230 255
211 230 255
211 230 255
211 230 255
211 230 255
211 230 255
210 230 255
210 230 255
210 230 255
210 229 255
210 229 255
210 229 255
210 229 255
210 229 255
210 229 255
210 229 255
210 229 255
210 229 255
210 229 255
210 229 255
210 229 255
210 229 255
210 229 255
210 229 255
210 229 255
210 229 255
210 229 255
210 229 255
210 229 255
210 229 255
209 229 255
209 229 255
209 229 255
209 229 255
209 229 255
209 229 255
209 229 255
209 229 255
209 229 255
209 229 255
209 229 255
209 229 255
209 229 255
209 229 255
209 229 255
209 229 255
209 229 255
209 229 255
209 229 255
209 229 255
209 228 255
209 228 255
208 228 255
208 228 255
208 228 255
208 228 255
208 228 255
208 228 255
208 228 255
208 228 255
208 228 255
208 228 255
208 228 255
208 228 255
208 228 255
208 228 255
208 228 255
208 228 255
208 228 255
208 228 255
208 228 255
207 228 255
207 228 255
207 228 255
207 228 255
207 228 255
207 228 255
207 228 255
207 228 255
207 228 255
207 228 255
207 228 255
207 228 255
207 228 255
207 227 255
207 227 255
207 227 255
207 227 255
206 227 255
206 227 255
206 227 255
206 227 255
206 227 255
206 227 255
206 227 255
206 227 255
206 227 255
206 227 255
206 227 255
206 227 255
206 227 255
206 227 255
206 227 255
206 227 255
206 227 255
206 227 255
205 227 255
205 227 255
205 227 255
205 227 255
205 227 255
205 227 255
205 227 255
205 227 255
205 227 255
205 227 255
205 226 255
205 226 255
205 226 255
205 226 255
205 226 255
205 226 255
205 226 255
204 226 255
204 226 255
204 226 255
204 226 255
204 226 255
204 226 255
204 226 255
204 226 255
204 226 255
204 226 255
204 226 255
204 226 255
204 226 255
204 226 255
204 226 255
204 226 255
204 226 255
203 226 255
203 226 255
203 226 255
203 226 255
203 226 255
203 226 255
203 226 255
203 226 255
203 226 255
203 225 255
203 225 255
203 225 255
203 225 255
203 225 255
203 225 255
203 225 255
203 225 255
203 225 255
203 225 255
203 225 255
203 225 255
202 225 255
202 225 255
202 225 255
202 225 255
202 225 255
202 225 255
202 225 255
202 225 255
202 225 255
202 225 255
202 225 255
202 225 255
202 225 255
202 225 255
202 225 255
202 225 255
202 225 255
202 225 255
202 225 255
202 225 255
202 225 255
202 225 255
202 225 255
202 225 255
202 225 255
202 225 255
202 225 255
202 225 255
202 225 255
202 225 255
202 225 255
202 225 255
202 225 255
202 225 255
202 225 255
202 225 255
202 225 255
202 225 255
202 225 255
202 225 255
202 225 255
202 225 255
202 225 255
202 225 255
202 225 255
202 225 255
202 225 255
202 225 255
202 225 255
202 225 255
202 225 255
202 225 255
202 225 255
202 225 255
202 225 255
202 225 255
202 225 255
202 225 255
202 225 255
202 225 255
202 225 255
202 225 255
202 225 255
202 225 255
202 225 255
202 225 255
202 225 255
202 225 255
202 225 255
202 225 255
202 225 255
202 225 255
202 225 255
202 225 255
202 225 255
202 225 255
202 225 255
202 225 255
203 225 255
203 225 255
203 225 255
203 225 255
203 225 255
203 225 255
203 225 255
203 225 255
203 225 255
203 225 255
203 225 255
203 225 255
203 226 255
203 226 255
203 226 255
203 226 255
203 226 255
203 226 255
203 226 255
203 226 255
203 226 255
204 226 255
204 226 255
204 226 255
204 226 255
204 226 255
204 226 255
204 226 255
204 226 255
204 226 255
204 226 255
204 226 255
204 226 255
204 226 255
204 226 255
204 226 255
204 226 255
204 226 255
205 226 255
205 226 255
205 226 255
205 226 255
205 226 255
205 226 255
205 226 255
205 227 255
205 227 255
205 227 255
205 227 255
205 227 255
205 227 255
205 227 255
205 227 255
205 227 255
205 227 255
206 227 255
206 227 255
206 227 255
206 227 255
206 227 255
206 227 255
206 227 255
206 227 255
206 227 255
206 227 255
206 227 255
206 227 255
206 227 255
206 227 255
206 227 255
206 227 255
206 227 255
207 227 255
207 227 255
207 227 255
207 227 255
207 227 255
207 228 255
207 228 255
207 228 255
207 228 255
207 228 255
207 228 255
207 228 255
207 228 255
207 228 255
207 228 255
207 228 255
207 228 255
207 228 255
208 228 255
208 228 255
208 228 255
208 228 255
208 228 255
208 228 255
208 228 255
208 228 255
208 228 255
208 228 255
208 228 255
208 228 255
208 228 255
208 228 255
208 228 255
208 228 255
208 228 255
208 228 255
208 228 255
209 228 255
209 228 255
209 229 255
209 229 255
209 229 255
209 229 255
209 229 255
209 229 255
209 229 255
209 229 255
209 229 255
209 229 255
209 229 255
209 229 255
209 229 255
209 229 255
209 229 255
209 229 255
209 229 255
209 229 255
209 229 255
209 229 255
210 229 255
210 229 255
210 229 255
210 229 255
210 229 255
210 229 255
210 229 255
210 229 255
210 229 255
210 229 255
210 229 255
210 229 255
210 229 255
210 229 255
210 229 255
210 229 255
210 229 255
210 229 255
210 229 255
210 229 255
210 229 255
210 230 255
210 230 255
210 230 255
211 230 255
211 230 255
211 230 255
211 230 255
211 230 255
211 230 255
211 230 255
211 230 255
211 230 255
211 230 255
211 230 255
211 230 255
211 230 255
211 230 255
211 230 255
211 230 255
210 230 255
210 230 255
210 230 255
210 229 255
210 229 255
210 229 255
210 229 255
210 229 255
210 229 255
210 229 255
210 229 255
210 229 255
210 229 255
210 229 255
210 229 255
210 229 255
210 229 255
210 229 255
210 229 255
210 229 255
210 229 255
210 229 255
210 229 255
210 229 255
209 229 255
209 229 255
209 229 255
209 229 255
208 227 254
205 224 250
199 218 244
199 218 244
195 214 239
192 211 236
190 209 234
187 206 231
185 203 228
185 203 228
187 206 231
184 202 227
184 202 227
184 202 227
184 203 228
186 204 229
186 205 230
189 208 234
193 212 237
195 214 240
196 215 241
200 219 246
203 223 250
207 227 254
208 228 255
208 228 255
208 228 255
208 228 255
208 228 255
208 228 255
208 228 255
208 228 255
208 228 255
208 228 255
208 228 255
208 228 255
207 228 255
207 228 255
207 228 255
207 228 255
207 228 255
207 228 255
207 228 255
207 228 255
207 228 255
207 228 255
207 228 255
207 228 255
207 228 255
207 228 255
207 227 255
207 227 255
207 227 255
207 227 255
206 227 255
206 227 255
206 227 255
206 227 255
206 227 255
206 227 255
206 227 255
206 227 255
206 227 255
206 227 255
206 227 255
206 227 255
206 227 255
206 227 255
206 227 255
206 227 255
206 227 255
205 227 255
205 227 255
205 227 255
205 227 255
205 227 255
205 227 255
205 227 255
205 227 255
205 227 255
205 227 255
205 226 255
205 226 255
205 226 255
205 226 255
205 226 255
205 226 255
205 226 255
204 226 255
204 226 255
204 226 255
204 226 255
204 226 255
204 226 255
204 226 255
204 226 255
204 226 255
204 226 255
204 226 255
204 226 255
204 226 255
204 226 255
204 226 255
204 226 255
204 226 255
204 226 255
203 226 255
203 226 255
203 226 255
203 226 255
203 226 255
203 226 255
203 226 255
203 226 255
203 226 255
203 225 255
203 225 255
203 225 255
203 225 255
203 225 255
203 225 255
203 225 255
203 225 255
203 225 255
203 225 255
203 225 255
203 225 255
203 225 255
203 225 255
202 225 255
202 225 255
202 225 255
202 225 255
202 225 255
202 225 255
202 225 255
202 225 255
202 225 255
202 225 255
202 225 255
202 225 255
202 225 255
202 225 255
202 225 255
202 225 255
202 225 255
202 225 255
202 225 255
202 225 255
202 225 255
202 225 255
202 225 255
202 225 255
202 225 255
202 225 255
202 225 255
202 225 255
202 225 255
202 225 255
202 225 255
202 225 255
202 225 255
202 225 255
202 225 255
202 225 255
202 225 255
202 225 255
202 225 255
202 225 255
202 225 255
202 225 255
202 225 255
202 225 255
202 225 255
202 225 255
202 225 255
202 225 255
202 225 255
202 225 255
202 225 255
202 225 255
202 225 255
202 225 255
202 225 255
202 225 255
202 225 255
202 225 255
202 225 255
202 225 255
202 225 255
202 225 255
202 225 255
202 225 255
202 225 255
202 225 255
203 225 255
203 225 255
203 225 255
203 225 255
203 225 255
203 225 255
203 225 255
203 225 255
203 225 255
203 225 255
203 225 255
203 225 255
203 225 255
203 225 255
203 226 255
203 226 255
203 226 255
203 226 255
203 226 255
203 226 255
203 226 255
203 226 255
203 226 255
204 226 255
204 226 255
204 226 255
204 226 255
204 226 255
204 226 255
204 226 255
204 226 255
204 226 255
204 226 255
204 226 255
204 226 255
204 226 255
204 226 255
204 226 255
204 226 255
204 226 255
204 226 255
205 226 255
205 226 255
205 226 255
205 226 255
205 226 255
205 226 255
205 226 255
205 227 255
205 227 255
205 227 255
205 227 255
205 227 255
205 227 255
205 227 255
205 227 255
205 227 255
205 227 255
206 227 255
206 227 255
206 227 255
206 227 255
206 227 255
206 227 255
206 227 255
206 227 255
206 227 255
206 227 255
206 227 255
206 227 255
206 227 255
206 227 255
206 227 255
206 227 255
206 227 255
207 227 255
207 227 255
207 227 255
207 227 255
207 228 255
207 228 255
207 228 255
207 228 255
207 228 255
207 228 255
207 228 255
207 228 255
207 228 255
207 228 255
207 228 255
207 228 255
207 228 255
207 228 255
208 228 255
208 228 255
208 228 255
208 228 255
208 228 255
208 228 255
208 228 255
208 228 255
208 228 255
208 228 255
208 228 255
208 228 255
207 227 253
202 221 245
197 214 235
192 209 227
191 207 225
188 203 219
183 197 211
178 191 203
180 192 202
176 188 198
175 186 195
178 189 197
175 187 194
174 185 194
178 190 200
178 191 201
182 195 206
184 197 211
188 202 216
189 205 222
195 211 230
199 216 237
204 222 246
208 227 253
209 229 255
209 229 255
209 229 255
209 229 255
210 229 255
210 229 255
210 229 255
210 229 255
210 229 255
210 229 255
210 229 255
210 229 255
210 229 255
210 229 255
210 229 255
210 229 255
210 229 255
210 229 255
210 229 255
210 229 255
210 229 255
210 229 255
210 229 255
210 229 255
210 229 255
210 230 255
210 230 255
210 230 255
211 230 255
211 230 255
211 230 255
211 230 255
211 230 255
211 230 255
211 230 255
211 230 255
211 230 255
211 230 255
211 230 255
211 230 255
211 230 255
211 230 255
211 230 255
211 230 255
211 230 255
211 230 255
211 230 255
211 230 255
211 230 255
211 230 255
211 230 255
211 230 255
210 230 255
210 230 255
210 230 255
210 229 255
210 229 255
210 229 255
210 229 255
210 229 255
210 229 255
210 229 255
210 229 255
210 229 255
210 229 255
210 229 255
210 229 255
206 225 251
200 219 244
192 211 236
187 205 230
180 198 222
174 192 215
166 184 207
165 183 206
159 177 200
157 175 198
160 178 203
158 176 200
164 183 208
162 181 206
162 181 207
164 184 210
164 184 210
165 184 211
167 187 214
164 184 210
166 186 212
164 185 211
166 186 213
166 186 213
166 187 214
166 186 213
165 185 211
163 183 209
163 183 210
162 182 208
157 176 202
159 178 204
157 176 202
159 178 203
163 181 206
168 187 212
172 191 216
177 196 221
182 201 226
190 209 234
199 218 245
204 224 252
208 228 255
208 228 255
208 228 255
208 228 255
208 228 255
208 228 255
208 228 255
207 228 255
207 228 255
207 228 255
207 228 255
207 228 255
207 228 255
207 228 255
207 228 255
207 228 255
207 228 255
207 228 255
207 228 255
207 228 255
207 227 255
207 227 255
207 227 255
207 227 255
206 227 255
206 227 255
206 227 255
206 227 255
206 227 255
206 227 255
206 227 255
206 227 255
206 227 255
206 227 255
206 227 255
206 227 255
206 227 255
206 227 255
206 227 255
206 227 255
206 227 255
206 227 255
205 227 255
205 227 255
205 227 255
205 227 255
205 227 255
205 227 255
205 227 255
205 227 255
205 227 255
205 227 255
205 226 255
205 226 255
205 226 255
205 226 255
205 226 255
205 226 255
205 226 255
204 226 255
204 226 255
204 226 255
204 226 255
204 226 255
204 226 255
204 226 255
204 226 255
204 226 255
204 226 255
204 226 255
204 226 255
204 226 255
204 226 255
204 226 255
204 226 255
204 226 255
204 226 255
204 226 255
203 226 255
203 226 255
203 226 255
203 226 255
203 226 255
203 226 255
203 226 255
203 226 255
203 226 255
203 226 255
203 225 255
203 225 255
203 225 255
203 225 255
203 225 255
203 225 255
203 225 255
203 225 255
203 225 255
203 225 255
203 225 255
203 225 255
203 225 255
203 225 255
203 225 255
202 225 255
202 225 255
202 225 255
202 225 255
202 225 255
202 225 255
202 225 255
202 225 255
202 225 255
202 225 255
202 225 255
202 225 255
202 225 255
202 225 255
202 225 255
202 225 255
202 225 255
202 225 255
202 225 255
202 225 255
202 225 255
202 225 255
202 225 255
202 225 255
202 225 255
202 225 255
202 225 255
202 225 255
202 225 255
202 225 255
202 225 255
202 225 255
202 225 255
202 225 255
202 225 255
202 225 255
202 225 255
202 225 255
202 225 255
202 225 255
202 225 255
202 225 255
202 225 255
202 225 255
202 225 255
202 225 255
202 225 255
202 225 255
202 225 255
202 225 255
202 225 255
202 225 255
203 225 255
203 225 255
203 225 255
203 225 255
203 225 255
203 225 255
203 225 255
203 225 255
203 225 255
203 225 255
203 225 255
203 225 255
203 225 255
203 225 255
203 225 255
203 226 255
203 226 255
203 226 255
203 226 255
203 226 255
203 226 255
203 226 255
203 226 255
203 226 255
203 226 255
204 226 255
204 226 255
204 226 255
204 226 255
204 226 255
204 226 255
204 226 255
204 226 255
204 226 255
204 226 255
204 226 255
204 226 255
204 226 255
204 226 255
204 226 255
204 226 255
204 226 255
204 226 255
204 226 255
205 226 255
205 226 255
205 226 255
205 226 255
205 226 255
205 226 255
205 226 255
205 227 255
205 227 255
205 227 255
205 227 255
205 227 255
205 227 255
205 227 255
205 227 255
205 227 255
205 227 255
206 227 255
206 227 255
206 227 255
206 227 255
206 227 255
206 227 255
206 227 255
206 227 255
206 227 255
206 227 255
206 227 255
206 227 255
206 227 255
206 227 255
206 227 255
206 227 255
206 227 255
206 227 255
207 227 255
207 227 255
207 227 255
207 227 255
207 228 255
207 228 255
207 228 255
207 228 255
207 228 255
207 228 255
207 228 255
207 228 255
207 228 255
207 228 255
207 228 255
207 228 255
207 228 255
208 228 255
208 228 255
208 228 255
208 228 255
208 228 255
208 228 255
208 228 255
205 225 251
194 211 231
186 201 216
177 190 201
167 177 181
158 165 161
151 155 143
141 143 123
130 128 96
123 120 80
128 123 81
128 124 81
128 125 82
126 122 79
126 122 80
129 125 82
130 126 83
130 126 83
132 128 83
129 125 82
132 127 83
129 125 82
132 128 83
126 122 80
132 128 84
129 125 81
133 129 85
133 128 84
133 128 84
131 126 82
133 128 83
126 121 79
130 126 83
134 133 103
138 138 118
152 156 144
157 163 159
172 182 185
179 191 200
188 202 217
197 213 233
206 224 249
210 229 255
210 229 255
210 229 255
210 229 255
210 229 255
210 229 255
210 229 255
210 229 255
210 229 255
210 229 255
210 229 255
210 229 255
210 230 255
210 230 255
210 230 255
211 230 255
211 230 255
211 230 255
211 230 255
211 230 255
211 230 255
211 230 255
211 230 255
211 230 255
211 230 255
211 230 255
211 230 255
211 230 255
211 230 255
211 230 255
211 230 255
211 230 255
211 230 255
211 230 255
211 230 255
211 230 255
211 230 255
211 230 255
211 230 255
211 230 255
211 230 255
211 230 255
211 230 255
211 230 255
211 230 255
211 230 255
211 230 255
210 230 255
210 230 255
210 230 255
210 229 255
210 229 255
206 225 251
196 214 239
186 204 228
175 192 216
169 187 210
159 176 199
160 178 201
159 177 201
163 182 207
165 184 210
166 185 211
168 188 214
171 191 219
170 190 217
172 193 221
172 193 221
174 195 224
172 194 222
175 197 225
174 196 225
174 196 225
175 197 226
175 197 226
175 197 227
175 198 228
175 198 228
175 198 228
175 197 228
174 197 228
174 197 228
174 197 228
174 197 228
174 197 227
174 197 227
173 196 227
174 197 227
173 196 226
173 196 226
172 195 225
173 196 225
171 193 223
170 192 221
169 191 220
167 188 217
166 188 216
160 180 207
162 182 209
159 179 204
160 178 203
169 187 213
175 194 219
182 201 226
191 210 236
203 223 250
208 228 255
208 228 255
208 228 255
208 228 255
207 228 255
207 228 255
207 228 255
207 228 255
207 228 255
207 228 255
207 228 255
207 228 255
207 228 255
207 228 255
207 228 255
207 228 255
207 228 255
207 228 255
207 227 255
207 227 255
207 227 255
207 227 255
206 227 255
206 227 255
206 227 255
206 227 255
206 227 255
206 227 255
206 227 255
206 227 255
206 227 255
206 227 255
206 227 255
206 227 255
206 227 255
206 227 255
206 227 255
206 227 255
206 227 255
205 227 255
205 227 255
205 227 255
205 227 255
205 227 255
205 227 255
205 227 255
205 227 255
205 227 255
205 227 255
205 227 255
205 226 255
205 226 255
205 226 255
205 226 255
205 226 255
205 226 255
205 226 255
204 226 255
204 226 255
204 226 255
204 226 255
204 226 255
204 226 255
204 226 255
204 226 255
204 226 255
204 226 255
204 226 255
204 226 255
204 226 255
204 226 255
204 226 255
204 226 255
204 226 255
204 226 255
204 226 255
204 226 255
203 226 255
203 226 255
203 226 255
203 226 255
203 226 255
203 226 255
203 226 255
203 226 255
203 226 255
203 226 255
203 225 255
203 225 255
203 225 255
203 225 255
203 225 255
203 225 255
203 225 255
203 225 255
203 225 255
203 225 255
203 225 255
203 225 255
203 225 255
203 225 255
203 225 255
203 225 255
203 225 255
203 225 255
203 225 255
203 225 255
202 225 255
202 225 255
202 225 255
202 225 255
202 225 255
202 225 255
202 225 255
202 225 255
202 225 255
202 225 255
202 225 255
202 225 255
202 225 255
202 225 255
202 225 255
202 225 255
202 225 255
202 225 255
202 225 255
202 225 255
202 225 255
202 225 255
202 225 255
202 225 255
202 225 255
202 225 255
202 225 255
202 225 255
202 225 255
202 225 255
202 225 255
202 225 255
203 225 255
203 225 255
203 225 255
203 225 255
203 225 255
203 225 255
203 225 255
203 225 255
203 225 255
203 225 255
203 225 255
203 225 255
203 225 255
203 225 255
203 225 255
203 225 255
203 225 255
203 225 255
203 225 255
203 225 255
203 226 255
203 226 255
203 226 255
203 226 255
203 226 255
203 226 255
203 226 255
203 226 255
203 226 255
203 226 255
204 226 255
204 226 255
204 226 255
204 226 255
204 226 255
204 226 255
204 226 255
204 226 255
204 226 255
204 226 255
204 226 255
204 226 255
204 226 255
204 226 255
204 226 255
204 226 255
204 226 255
204 226 255
204 226 255
204 226 255
205 226 255
205 226 255
205 226 255
205 226 255
205 226 255
205 226 255
205 226 255
205 227 255
205 227 255
205 227 255
205 227 255
205 227 255
205 227 255
205 227 255
205 227 255
205 227 255
205 227 255
205 227 255
206 227 255
206 227 255
206 227 255
206 227 255
206 227 255
206 227 255
206 227 255
206 227 255
206 227 255
206 227 255
206 227 255
206 227 255
206 227 255
206 227 255
206 227 255
206 227 255
206 227 255
207 227 255
207 227 255
207 227 255
207 227 255
207 228 255
207 228 255
207 228 255
207 228 255
207 228 255
207 228 255
207 228 255
207 228 255
207 228 255
207 228 255
207 228 255
207 228 255
207 228 255
207 228 255
208 228 255
208 228 255
208 228 255
208 228 255
202 221 245
188 204 222
178 191 200
163 172 173
150 154 142
135 135 109
129 125 82
130 126 83
131 127 83
126 123 81
126 123 81
130 127 83
130 127 83
131 127 83
132 128 84
129 125 82
132 128 84
134 130 86
131 127 83
134 131 86
134 131 86
132 129 84
137 133 87
133 129 85
135 131 86
135 131 86
137 133 87
131 128 84
133 128 84
135 131 86
132 128 84
135 131 86
131 126 82
135 131 86
134 130 84
133 129 84
134 130 85
134 130 84
133 129 84
133 128 83
133 127 82
133 128 83
129 124 81
132 127 83
135 130 85
130 125 81
135 129 84
128 124 81
138 136 107
152 156 145
167 175 174
177 188 196
191 205 221
204 221 245
210 229 255
210 229 255
210 230 255
210 230 255
210 230 255
211 230 255
211 230 255
211 230 255
211 230 255
211 230 255
211 230 255
211 230 255
211 230 255
211 230 255
211 230 255
211 230 255
211 230 255
211 230 255
211 230 255
211 230 255
211 230 255
211 230 255
211 230 255
211 230 255
211 230 255
211 230 255
211 230 255
211 230 255
211 230 255
211 230 255
211 230 255
211 230 255
211 230 255
211 230 255
211 230 255
211 230 255
211 230 255
211 230 255
211 230 255
211 230 255
211 230 255
204 223 248
193 211 236
183 200 224
172 190 213
158 175 197
158 175 198
163 181 206
164 183 208
167 186 212
168 188 214
171 191 218
172 192 219
175 196 224
175 196 224
175 197 225
176 198 227
176 198 227
176 199 228
177 199 228
176 199 228
176 199 228
176 199 228
176 198 228
175 198 228
175 198 228
175 198 228
174 198 228
174 198 228
174 198 228
174 198 228
174 197 228
173 197 228
173 197 228
173 197 228
173 197 228
173 197 228
173 197 228
173 197 228
173 197 228
173 197 228
173 197 228
172 197 228
173 197 228
173 197 228
173 197 228
173 197 228
173 197 228
173 197 228
173 197 228
174 197 228
173 197 228
173 196 227
172 196 226
171 194 223
172 195 224
168 190 219
167 188 216
164 184 212
158 178 204
164 183 209
171 190 215
182 201 227
192 211 237
203 223 250
208 228 255
208 228 255
208 228 255
207 228 255
207 228 255
207 228 255
207 228 255
207 228 255
207 228 255
207 228 255
207 228 255
207 228 255
207 228 255
207 228 255
207 228 255
207 228 255
207 227 255
207 227 255
207 227 255
207 227 255
207 227 255
206 227 255
206 227 255
206 227 255
206 227 255
206 227 255
206 227 255
206 227 255
206 227 255
206 227 255
206 227 255
206 227 255
206 227 255
206 227 255
206 227 255
206 227 255
206 227 255
206 227 255
205 227 255
205 227 255
205 227 255
205 227 255
205 227 255
205 227 255
205 227 255
205 227 255
205 227 255
205 227 255
205 227 255
205 226 255
205 226 255
205 226 255
205 226 255
205 226 255
205 226 255
205 226 255
204 226 255
204 226 255
204 226 255
204 226 255
204 226 255
204 226 255
204 226 255
204 226 255
204 226 255
204 226 255
204 226 255
204 226 255
204 226 255
204 226 255
204 226 255
204 226 255
204 226 255
204 226 255
204 226 255
204 226 255
204 226 255
203 226 255
203 226 255
203 226 255
203 226 255
203 226 255
203 226 255
203 226 255
203 226 255
203 226 255
203 226 255
203 226 255
203 226 255
203 225 255
203 225 255
203 225 255
203 225 255
203 225 255
203 225 255
203 225 255
203 225 255
203 225 255
203 225 255
203 225 255
203 225 255
203 225 255
203 225 255
203 225 255
203 225 255
203 225 255
203 225 255
203 225 255
203 225 255
203 225 255
203 225 255
203 225 255
203 225 255
203 225 255
203 225 255
203 225 255
203 225 255
203 225 255
203 225 255
203 225 255
203 225 255
203 225 255
203 225 255
203 225 255
203 225 255
203 225 255
203 225 255
203 225 255
203 225 255
203 225 255
203 225 255
203 225 255
203 225 255
203 225 255
203 225 255
203 225 255
203 225 255
203 225 255
203 225 255
203 225 255
203 225 255
203 225 255
203 225 255
203 225 255
203 225 255
203 225 255
203 225 255
203 226 255
203 226 255
203 226 255
203 226 255
203 226 255
203 226 255
203 226 255
203 226 255
203 226 255
203 226 255
203 226 255
203 226 255
204 226 255
204 226 255
204 226 255
204 226 255
204 226 255
204 226 255
204 226 255
204 226 255
204 226 255
204 226 255
204 226 255
204 226 255
204 226 255
204 226 255
204 226 255
204 226 255
204 226 255
204 226 255
204 226 255
204 226 255
204 226 255
205 226 255
205 226 255
205 226 255
205 226 255
205 226 255
205 226 255
205 226 255
205 227 255
205 227 255
205 227 255
205 227 255
205 227 255
205 227 255
205 227 255
205 227 255
205 227 255
205 227 255
205 227 255
206 227 255
206 227 255
206 227 255
206 227 255
206 227 255
206 227 255
206 227 255
206 227 255
206 227 255
206 227 255
206 227 255
206 227 255
206 227 255
206 227 255
206 227 255
206 227 255
206 227 255
207 227 255
207 227 255
207 227 255
207 227 255
207 227 255
207 228 255
207 228 255
207 228 255
207 228 255
207 228 255
207 228 255
207 228 255
207 228 255
207 228 255
207 228 255
207 228 255
207 228 255
207 228 255
208 228 255
208 228 255
208 228 255
202 221 246
187 203 219
170 181 186
154 161 154
137 137 109
130 126 82
129 126 83
128 125 82
129 125 82
128 125 82
131 127 83
133 129 85
129 126 83
132 129 85
132 129 85
133 129 85
135 131 86
133 130 86
132 129 85
134 131 86
139 136 90
136 132 87
136 133 88
133 129 85
137 133 87
137 133 87
136 133 88
136 133 87
138 135 88
138 134 88
140 137 90
137 133 87
140 136 89
136 133 87
135 131 86
139 136 89
135 131 85
134 130 85
135 131 85
135 132 87
135 130 84
137 132 86
135 131 85
135 131 86
136 132 86
140 136 89
135 131 85
135 131 86
136 131 85
134 129 84
133 128 84
134 129 84
135 130 84
133 128 83
131 126 82
132 127 82
130 125 81
129 123 80
127 121 78
140 138 109
153 157 146
177 187 193
189 202 216
204 221 244
211 230 255
211 230 255
211 230 255
211 230 255
211 230 255
211 230 255
211 230 255
211 230 255
211 230 255
211 230 255
211 230 255
211 230 255
211 230 255
211 230 255
211 230 255
211 230 255
211 230 255
211 230 255
211 230 255
211 230 255
211 230 255
211 230 255
211 230 255
211 230 255
211 230 255
211 230 255
211 230 255
211 230 255
211 230 255
211 230 255
211 230 255
211 230 255
202 220 245
187 204 228
176 193 216
163 180 202
158 175 197
162 180 203
167 185 210
169 188 213
171 190 216
173 193 219
176 196 224
176 196 224
177 198 227
178 199 228
177 199 228
177 199 228
177 199 228
177 199 228
176 199 228
176 199 228
175 198 228
175 198 228
175 198 228
175 198 228
174 198 228
174 198 228
174 198 228
174 197 228
173 197 228
173 197 228
173 197 228
173 197 228
172 197 228
172 197 228
172 197 228
172 196 228
172 196 228
172 196 228
171 196 228
171 196 228
171 196 228
171 196 228
171 196 228
171 196 228
171 196 228
171 196 228
171 196 228
171 196 228
171 196 228
171 196 228
171 196 228
171 196 228
171 196 228
171 196 228
171 196 228
171 196 228
172 196 228
172 196 228
172 197 228
172 197 228
173 197 228
173 197 228
173 197 227
172 195 225
169 192 221
167 189 218
164 185 213
160 180 207
162 181 207
176 195 221
186 205 231
199 219 246
208 228 255
208 228 255
208 228 255
207 228 255
207 228 255
207 228 255
207 228 255
207 228 255
207 228 255
207 228 255
207 228 255
207 228 255
207 228 255
207 228 255
207 228 255
207 228 255
207 227 255
207 227 255
207 227 255
207 227 255
206 227 255
206 227 255
206 227 255
206 227 255
206 227 255
206 227 255
206 227 255
206 227 255
206 227 255
206 227 255
206 227 255
206 227 255
206 227 255
206 227 255
206 227 255
206 227 255
206 227 255
206 227 255
205 227 255
205 227 255
205 227 255
205 227 255
205 227 255
205 227 255
205 227 255
205 227 255
205 227 255
205 227 255
205 227 255
205 226 255
205 226 255
205 226 255
205 226 255
205 226 255
205 226 255
205 226 255
205 226 255
204 226 255
204 226 255
204 226 255
204 226 255
204 226 255
204 226 255
204 226 255
204 226 255
204 226 255
204 226 255
204 226 255
204 226 255
204 226 255
204 226 255
204 226 255
204 226 255
204 226 255
204 226 255
204 226 255
204 226 255
204 226 255
204 226 255
203 226 255
203 226 255
203 226 255
203 226 255
203 226 255
203 226 255
203 226 255
203 226 255
203 226 255
203 226 255
203 226 255
203 226 255
203 226 255
203 226 255
203 226 255
203 225 255
203 225 255
203 225 255
203 225 255
203 225 255
203 225 255
203 225 255
203 225 255
203 225 255
203 225 255
203 225 255
203 225 255
203 225 255
203 225 255
203 225 255
203 225 255
203 225 255
203 225 255
203 225 255
203 225 255
203 225 255
203 225 255
203 225 255
203 225 255
203 225 255
203 225 255
203 225 255
203 225 255
203 225 255
203 225 255
203 225 255
203 225 255
203 225 255
203 225 255
203 225 255
203 225 255
203 225 255
203 225 255
203 225 255
203 225 255
203 226 255
203 226 255
203 226 255
203 226 255
203 226 255
203 226 255
203 226 255
203 226 255
203 226 255
203 226 255
203 226 255
203 226 255
203 226 255
203 226 255
203 226 255
204 226 255
204 226 255
204 226 255
204 226 255
204 226 255
204 226 255
204 226 255
204 226 255
204 226 255
204 226 255
204 226 255
204 226 255
204 226 255
204 226 255
204 226 255
204 226 255
204 226 255
204 226 255
204 226 255
204 226 255
204 226 255
204 226 255
205 226 255
205 226 255
205 226 255
205 226 255
205 226 255
205 226 255
205 226 255
205 226 255
205 227 255
205 227 255
205 227 255
205 227 255
205 227 255
205 227 255
205 227 255
205 227 255
205 227 255
205 227 255
205 227 255
206 227 255
206 227 255
206 227 255
206 227 255
206 227 255
206 227 255
206 227 255
206 227 255
206 227 255
206 227 255
206 227 255
206 227 255
206 227 255
206 227 255
206 227 255
206 227 255
206 227 255
206 227 255
207 227 255
207 227 255
207 227 255
207 227 255
207 228 255
207 228 255
207 228 255
207 228 255
207 228 255
207 228 255
207 228 255
207 228 255
207 228 255
207 228 255
207 228 255
207 228 255
207 228 255
208 228 255
208 228 255
207 228 255
197 215 238
179 193 206
159 168 168
137 138 117
126 123 81
126 123 81
130 127 83
131 128 84
129 126 83
131 128 85
132 128 84
133 130 86
131 128 84
132 129 85
135 132 86
136 133 88
134 131 86
138 135 89
136 133 87
137 134 88
134 131 86
137 133 88
138 135 89
136 133 88
140 137 90
138 135 89
134 131 86
137 133 87
136 133 88
140 136 90
140 137 90
136 133 87
140 137 90
140 136 90
140 136 89
139 135 88
139 135 89
140 136 89
143 139 91
139 135 89
139 136 89
137 134 88
139 135 88
141 136 89
140 135 89
140 136 89
140 136 89
137 133 87
136 131 85
139 134 87
137 133 87
134 129 84
135 131 86
138 134 87
139 135 88
134 129 84
138 133 87
134 130 85
137 133 86
137 132 86
135 131 85
135 130 85
131 126 82
132 127 82
132 127 82
132 127 83
129 124 80
132 126 81
146 146 122
161 167 161
184 196 206
202 218 239
211 230 255
211 230 255
211 230 255
211 230 255
211 230 255
211 230 255
211 230 255
211 230 255
211 230 255
211 230 255
211 230 255
211 230 255
211 230 255
211 230 255
212 230 255
212 230 255
212 230 255
212 230 255
211 230 255
211 230 255
211 230 255
211 230 255
211 230 255
211 230 255
206 224 249
189 207 230
178 195 218
162 178 200
162 179 202
162 180 204
167 185 210
170 189 214
172 192 218
175 196 223
176 197 224
178 198 226
178 200 228
179 200 228
178 200 228
178 199 228
177 199 228
177 199 228
176 199 228
176 199 228
176 198 228
175 198 228
175 198 228
175 198 228
174 198 228
174 198 228
174 197 228
173 197 228
173 197 228
173 197 228
173 197 228
172 197 228
172 197 228
172 196 228
172 196 228
171 196 228
171 196 228
171 196 228
171 196 228
171 196 228
170 196 228
170 196 228
170 196 228
170 195 228
170 195 228
170 195 228
170 195 228
170 195 228
169 195 228
169 195 228
169 195 228
169 195 228
169 195 228
169 195 228
169 195 228
169 195 228
169 195 228
169 195 228
169 195 228
170 195 228
169 195 228
170 195 228
170 195 228
170 196 228
170 196 228
171 196 228
171 196 228
171 196 228
172 196 228
172 197 228
173 197 228
172 196 227
171 194 225
170 192 222
166 187 216
161 181 208
163 182 208
175 194 219
189 208 234
201 221 248
208 228 255
208 228 255
207 228 255
207 228 255
207 228 255
207 228 255
207 228 255
207 228 255
207 228 255
207 228 255
207 228 255
207 228 255
207 228 255
207 228 255
207 228 255
207 228 255
207 227 255
207 227 255
207 227 255
207 227 255
206 227 255
206 227 255
206 227 255
206 227 255
206 227 255
206 227 255
206 227 255
206 227 255
206 227 255
206 227 255
206 227 255
206 227 255
206 227 255
206 227 255
206 227 255
206 227 255
206 227 255
206 227 255
205 227 255
205 227 255
205 227 255
205 227 255
205 227 255
205 227 255
205 227 255
205 227 255
205 227 255
205 227 255
205 227 255
205 226 255
205 226 255
205 226 255
205 226 255
205 226 255
205 226 255
205 226 255
205 226 255
204 226 255
204 226 255
204 226 255
204 226 255
204 226 255
204 226 255
204 226 255
204 226 255
204 226 255
204 226 255
204 226 255
204 226 255
204 226 255
204 226 255
204 226 255
204 226 255
204 226 255
204 226 255
204 226 255
204 226 255
204 226 255
204 226 255
204 226 255
204 226 255
204 226 255
203 226 255
203 226 255
203 226 255
203 226 255
203 226 255
203 226 255
203 226 255
203 226 255
203 226 255
203 226 255
203 226 255
203 226 255
203 226 255
203 226 255
203 226 255
203 226 255
203 226 255
203 226 255
203 226 255
203 226 255
203 226 255
203 226 255
203 226 255
203 226 255
203 226 255
203 226 255
203 226 255
203 226 255
203 226 255
203 226 255
203 226 255
203 226 255
203 226 255
203 226 255
203 226 255
203 226 255
203 226 255
203 226 255
203 226 255
203 226 255
203 226 255
203 226 255
203 226 255
203 226 255
203 226 255
203 226 255
203 226 255
203 226 255
203 226 255
203 226 255
203 226 255
203 226 255
203 226 255
203 226 255
203 226 255
203 226 255
204 226 255
204 226 255
204 226 255
204 226 255
204 226 255
204 226 255
204 226 255
204 226 255
204 226 255
204 226 255
204 226 255
204 226 255
204 226 255
204 226 255
204 226 255
204 226 255
204 226 255
204 226 255
204 226 255
204 226 255
204 226 255
204 226 255
204 226 255
204 226 255
204 226 255
205 226 255
205 226 255
205 226 255
205 226 255
205 226 255
205 226 255
205 226 255
205 226 255
205 227 255
205 227 255
205 227 255
205 227 255
205 227 255
205 227 255
205 227 255
205 227 255
205 227 255
205 227 255
205 227 255
206 227 255
206 227 255
206 227 255
206 227 255
206 227 255
206 227 255
206 227 255
206 227 255
206 227 255
206 227 255
206 227 255
206 227 255
206 227 255
206 227 255
206 227 255
206 227 255
206 227 255
206 227 255
207 227 255
207 227 255
207 227 255
207 227 255
207 228 255
207 228 255
207 228 255
207 228 255
207 228 255
207 228 255
207 228 255
207 228 255
207 228 255
207 228 255
207 228 255
207 228 255
207 228 255
207 228 255
208 228 255
208 228 255
202 221 245
177 191 204
162 170 168
136 136 113
127 123 81
129 126 83
127 124 81
130 127 84
132 128 84
133 129 85
132 128 85
135 132 87
134 131 86
136 133 87
134 131 87
135 132 87
137 135 89
138 136 90
137 133 88
135 132 87
138 135 89
138 135 89
137 134 88
138 135 89
138 135 89
139 136 89
136 133 87
142 138 91
139 136 90
142 139 92
138 135 89
141 138 91
142 138 91
137 134 89
139 135 89
139 136 89
143 139 91
141 138 91
137 134 87
141 138 91
142 139 91
139 135 88
138 134 88
141 137 91
144 140 92
142 139 91
140 136 90
139 135 89
140 137 90
141 138 90
141 137 90
141 137 90
139 135 88
141 137 90
142 138 90
139 134 88
139 134 87
136 132 87
141 136 89
137 132 86
141 135 88
140 135 88
138 134 87
136 132 86
137 132 86
137 132 86
139 133 86
136 131 85
137 131 85
132 127 82
134 129 83
135 130 84
134 129 82
133 127 82
130 125 80
133 128 82
140 139 113
164 171 170
184 196 208
205 222 245
211 230 255
211 230 255
211 230 255
211 230 255
211 230 255
211 230 255
212 230 255
212 230 255
212 230 255
212 230 255
212 230 255
212 230 255
212 230 255
212 230 255
212 230 255
212 230 255
211 230 255
202 220 245
183 200 223
166 182 204
158 174 196
165 183 206
166 184 208
171 189 215
173 192 218
175 195 221
177 198 225
178 199 227
179 200 228
179 200 228
178 200 228
178 200 228
178 200 228
177 199 228
177 199 228
176 199 228
176 199 228
175 198 228
175 198 228
175 198 228
174 198 228
174 198 228
174 197 228
174 197 228
173 197 228
173 197 228
173 197 228
172 197 228
172 197 228
172 197 228
172 196 228
171 196 228
171 196 228
171 196 228
171 196 228
170 196 228
170 196 228
170 195 228
170 195 228
170 195 228
170 195 228
169 195 228
169 195 228
169 195 228
169 195 228
169 195 228
168 195 228
168 195 228
168 195 228
168 195 228
168 195 228
168 194 228
168 194 228
168 194 228
168 194 228
168 194 228
168 194 228
168 194 228
168 194 228
168 194 228
168 194 228
168 195 228
168 195 228
169 195 228
168 195 228
169 195 228
169 195 228
169 195 228
170 195 228
170 195 228
170 196 228
171 196 228
171 196 228
172 196 228
172 197 228
173 197 228
172 195 225
168 190 220
166 188 216
157 177 203
163 182 207
182 201 226
197 217 243
208 228 255
208 228 255
208 228 255
207 228 255
207 228 255
207 228 255
207 228 255
207 228 255
207 228 255
207 228 255
207 228 255
207 228 255
207 228 255
207 228 255
207 228 255
207 228 255
207 228 255
207 227 255
207 227 255
207 227 255
207 227 255
206 227 255
206 227 255
206 227 255
206 227 255
206 227 255
206 227 255
206 227 255
206 227 255
206 227 255
206 227 255
206 227 255
206 227 255
206 227 255
206 227 255
206 227 255
206 227 255
206 227 255
206 227 255
205 227 255
205 227 255
205 227 255
205 227 255
205 227 255
205 227 255
205 227 255
205 227 255
205 227 255
205 227 255
205 227 255
205 227 255
205 226 255
205 226 255
205 226 255
205 226 255
205 226 255
205 226 255
205 226 255
205 226 255
205 226 255
204 226 255
204 226 255
204 226 255
204 226 255
204 226 255
204 226 255
204 226 255
204 226 255
204 226 255
204 226 255
204 226 255
204 226 255
204 226 255
204 226 255
204 226 255
204 226 255
204 226 255
204 226 255
204 226 255
204 226 255
204 226 255
204 226 255
204 226 255
204 226 255
204 226 255
204 226 255
204 226 255
204 226 255
204 226 255
203 226 255
203 226 255
203 226 255
203 226 255
203 226 255
203 226 255
203 226 255
203 226 255
203 226 255
203 226 255
203 226 255
203 226 255
203 226 255
203 226 255
203 226 255
203 226 255
203 226 255
203 226 255
203 226 255
203 226 255
203 226 255
203 226 255
203 226 255
203 226 255
203 226 255
203 226 255
203 226 255
203 226 255
203 226 255
203 226 255
203 226 255
203 226 255
203 226 255
203 226 255
203 226 255
203 226 255
204 226 255
204 226 255
204 226 255
204 226 255
204 226 255
204 226 255
204 226 255
204 226 255
204 226 255
204 226 255
204 226 255
204 226 255
204 226 255
204 226 255
204 226 255
204 226 255
204 226 255
204 226 255
204 226 255
204 226 255
204 226 255
204 226 255
204 226 255
204 226 255
204 226 255
204 226 255
204 226 255
204 226 255
204 226 255
204 226 255
205 226 255
205 226 255
205 226 255
205 226 255
205 226 255
205 226 255
205 226 255
205 226 255
205 227 255
205 227 255
205 227 255
205 227 255
205 227 255
205 227 255
205 227 255
205 227 255
205 227 255
205 227 255
205 227 255
205 227 255
206 227 255
206 227 255
206 227 255
206 227 255
206 227 255
206 227 255
206 227 255
206 227 255
206 227 255
206 227 255
206 227 255
206 227 255
206 227 255
206 227 255
206 227 255
206 227 255
206 227 255
206 227 255
207 227 255
207 227 255
207 227 255
207 227 255
207 228 255
207 228 255
207 228 255
207 228 255
207 228 255
207 228 255
207 228 255
207 228 255
207 228 255
207 228 255
207 228 255
207 228 255
207 228 255
207 228 255
208 228 255
208 228 255
208 228 255
196 213 234
173 184 191
145 149 136
128 125 83
129 126 82
130 127 83
130 127 84
132 129 85
130 127 83
134 131 86
135 133 88
130 127 84
137 134 89
134 131 86
135 133 88
137 134 88
135 132 87
139 136 90
138 135 89
138 136 89
139 136 90
138 135 90
139 136 90
140 137 90
140 137 91
139 137 91
138 136 90
141 138 91
140 136 90
140 138 91
138 136 90
141 138 90
143 140 93
145 142 94
142 138 91
142 139 92
144 141 93
141 138 91
143 140 92
143 140 92
144 141 92
142 138 91
143 139 92
140 137 90
142 138 91
143 140 92
144 141 93
141 137 90
142 138 91
144 140 92
143 139 91
143 139 91
143 139 91
143 139 91
141 137 90
141 137 89
145 140 91
142 138 90
140 136 89
142 137 89
144 139 91
142 138 90
143 138 91
142 137 90
139 135 88
140 136 88
143 138 90
140 135 88
138 133 87
139 134 87
139 135 88
137 132 86
139 134 88
139 134 86
138 132 85
139 134 86
135 129 83
134 128 82
132 127 82
133 127 81
132 127 82
132 127 80
130 125 81
145 146 128
174 183 187
198 214 232
211 230 255
212 230 255
212 230 255
212 230 255
212 230 255
212 230 255
212 230 255
212 230 255
212 230 255
212 230 255
212 230 255
199 217 241
182 199 221
161 177 198
158 174 196
163 180 203
167 185 209
170 189 213
175 195 220
177 197 223
179 199 227
180 200 228
179 201 228
179 200 228
179 200 228
178 200 228
178 200 228
177 199 228
177 199 228
176 199 228
176 199 228
176 199 228
175 198 228
175 198 228
175 198 228
174 198 228
174 198 228
174 197 228
173 197 228
173 197 228
173 197 228
172 197 228
172 197 228
172 196 228
172 196 228
171 196 228
171 196 228
171 196 228
171 196 228
170 196 228
170 196 228
170 195 228
170 195 228
169 195 228
169 195 228
169 195 228
169 195 228
168 195 228
168 195 228
168 195 228
168 195 228
168 194 228
168 194 228
168 194 228
167 194 228
167 194 228
167 194 228
167 194 228
167 194 228
167 194 228
167 194 228
167 194 228
167 194 228
167 194 228
167 194 228
167 194 228
167 194 228
167 194 228
167 194 228
167 194 228
167 194 228
167 194 228
167 194 228
167 194 228
167 194 228
168 194 228
168 194 228
168 195 228
168 195 228
169 195 228
169 195 228
170 195 228
170 196 228
171 196 228
172 196 228
172 197 228
172 196 227
172 196 226
167 190 219
159 179 206
164 184 209
179 198 224
194 213 239
207 228 255
208 228 255
208 228 255
208 228 255
207 228 255
207 228 255
207 228 255
207 228 255
207 228 255
207 228 255
207 228 255
207 228 255
207 228 255
207 228 255
207 228 255
207 228 255
207 228 255
207 228 255
207 227 255
207 227 255
207 227 255
207 227 255
206 227 255
206 227 255
206 227 255
206 227 255
206 227 255
206 227 255
206 227 255
206 227 255
206 227 255
206 227 255
206 227 255
206 227 255
206 227 255
206 227 255
206 227 255
206 227 255
206 227 255
206 227 255
206 227 255
205 227 255
205 227 255
205 227 255
205 227 255
205 227 255
205 227 255
205 227 255
205 227 255
205 227 255
205 227 255
205 227 255
205 227 255
205 226 255
205 226 255
205 226 255
205 226 255
205 226 255
205 226 255
205 226 255
205 226 255
205 226 255
204 226 255
204 226 255
204 226 255
204 226 255
204 226 255
204 226 255
204 226 255
204 226 255
204 226 255
204 226 255
204 226 255
204 226 255
204 226 255
204 226 255
204 226 255
204 226 255
204 226 255
204 226 255
204 226 255
204 226 255
204 226 255
204 226 255
204 226 255
204 226 255
204 226 255
204 226 255
204 226 255
204 226 255
204 226 255
204 226 255
204 226 255
204 226 255
204 226 255
204 226 255
204 226 255
204 226 255
204 226 255
204 226 255
204 226 255
204 226 255
204 226 255
204 226 255
204 226 255
204 226 255
204 226 255
204 226 255
204 226 255
204 226 255
204 226 255
204 226 255
204 226 255
204 226 255
204 226 255
204 226 255
204 226 255
204 226 255
204 226 255
204 226 255
204 226 255
204 226 255
204 226 255
204 226 255
204 226 255
204 226 255
204 226 255
204 226 255
204 226 255
204 226 255
204 226 255
204 226 255
204 226 255
204 226 255
204 226 255
204 226 255
204 226 255
204 226 255
204 226 255
204 226 255
204 226 255
204 226 255
204 226 255
204 226 255
204 226 255
204 226 255
205 226 255
205 226 255
205 226 255
205 226 255
205 226 255
205 226 255
205 226 255
205 226 255
205 226 255
205 227 255
205 227 255
205 227 255
205 227 255
205 227 255
205 227 255
205 227 255
205 227 255
205 227 255
205 227 255
205 227 255
205 227 255
206 227 255
206 227 255
206 227 255
206 227 255
206 227 255
206 227 255
206 227 255
206 227 255
206 227 255
206 227 255
206 227 255
206 227 255
206 227 255
206 227 255
206 227 255
206 227 255
206 227 255
206 227 255
206 227 255
207 227 255
207 227 255
207 227 255
207 227 255
207 228 255
207 228 255
207 228 255
207 228 255
207 228 255
207 228 255
207 228 255
207 228 255
207 228 255
207 228 255
207 228 255
207 228 255
207 228 255
207 228 255
208 228 255
208 228 255
208 228 255
207 228 255
193 210 231
170 180 185
141 143 121
128 124 81
130 126 82
130 127 83
132 129 85
136 133 88
132 129 86
130 128 84
134 131 86
135 132 87
136 133 88
135 132 87
136 133 88
141 138 90
136 134 88
139 136 90
138 135 89
139 137 91
139 136 89
139 137 90
141 139 92
141 138 91
141 138 91
141 139 92
142 139 92
142 140 93
139 137 90
143 140 93
142 139 92
144 141 93
147 144 95
144 142 94
143 140 93
144 141 93
141 139 91
145 142 94
143 140 92
142 139 92
140 137 90
143 140 92
146 142 93
147 143 94
145 142 93
143 140 92
144 140 92
144 141 93
144 140 92
146 142 93
146 143 94
144 140 92
145 141 93
147 143 94
145 141 92
143 140 92
142 138 91
146 142 93
145 141 92
144 139 91
144 140 92
141 138 91
145 141 93
141 137 89
142 137 90
144 140 92
145 140 91
141 137 89
142 137 89
142 137 90
140 136 89
143 138 90
144 139 91
141 136 88
139 135 87
141 135 88
139 133 86
139 134 87
140 134 87
136 131 84
141 136 88
138 132 85
135 130 84
137 131 84
134 129 83
130 124 79
131 125 80
131 125 79
129 123 79
142 141 117
171 179 180
198 213 230
211 230 255
212 230 255
212 230 255
212 230 255
212 230 255
205 223 247
184 200 223
162 178 200
155 171 192
166 183 206
169 187 211
173 191 216
175 194 220
178 198 224
180 200 227
180 201 228
180 201 228
179 200 228
179 200 228
179 200 228
178 200 228
177 199 228
177 199 228
177 199 228
177 199 228
176 199 228
176 198 228
175 198 228
175 198 228
175 198 228
174 198 228
174 197 228
174 197 228
173 197 228
173 197 228
173 197 228
172 197 228
172 197 228
172 196 228
172 196 228
171 196 228
171 196 228
171 196 228
171 196 228
170 196 228
170 195 228
170 195 228
169 195 228
169 195 228
169 195 228
169 195 228
169 195 228
168 195 228
168 195 228
168 195 228
168 194 228
168 194 228
167 194 228
167 194 228
167 194 228
167 194 228
167 194 228
167 194 228
166 194 228
166 194 228
166 194 228
166 194 228
166 193 228
166 193 228
166 193 228
166 193 228
166 193 228
166 193 228
166 193 228
166 193 228
166 193 228
166 193 228
166 193 228
166 193 228
166 193 228
166 194 228
166 194 228
166 194 228
166 194 228
167 194 228
167 194 228
167 194 228
168 194 228
168 194 228
168 195 228
169 195 228
169 195 228
170 195 228
170 196 228
171 196 228
172 197 228
173 197 228
172 196 226
169 191 220
163 183 211
164 183 208
180 199 225
198 218 244
208 228 255
208 228 255
208 228 255
208 228 255
208 228 255
207 228 255
207 228 255
207 228 255
207 228 255
207 228 255
207 228 255
207 228 255
207 228 255
207 228 255
207 228 255
207 228 255
207 228 255
207 228 255
207 228 255
207 227 255
207 227 255
207 227 255
207 227 255
206 227 255
206 227 255
206 227 255
206 227 255
206 227 255
206 227 255
206 227 255
206 227 255
206 227 255
206 227 255
206 227 255
206 227 255
206 227 255
206 227 255
206 227 255
206 227 255
206 227 255
206 227 255
206 227 255
205 227 255
205 227 255
205 227 255
205 227 255
205 227 255
205 227 255
205 227 255
205 227 255
205 227 255
205 227 255
205 227 255
205 227 255
205 227 255
205 226 255
205 226 255
205 226 255
205 226 255
205 226 255
205 226 255
205 226 255
205 226 255
205 226 255
205 226 255
205 226 255
204 226 255
204 226 255
204 226 255
204 226 255
204 226 255
204 226 255
204 226 255
204 226 255
204 226 255
204 226 255
204 226 255
204 226 255
204 226 255
204 226 255
204 226 255
204 226 255
204 226 255
204 226 255
204 226 255
204 226 255
204 226 255
204 226 255
204 226 255
204 226 255
204 226 255
204 226 255
204 226 255
204 226 255
204 226 255
204 226 255
204 226 255
204 226 255
204 226 255
204 226 255
204 226 255
204 226 255
204 226 255
204 226 255
204 226 255
204 226 255
204 226 255
204 226 255
204 226 255
204 226 255
204 226 255
204 226 255
204 226 255
204 226 255
204 226 255
204 226 255
204 226 255
204 226 255
204 226 255
204 226 255
204 226 255
204 226 255
204 226 255
204 226 255
204 226 255
204 226 255
204 226 255
204 226 255
204 226 255
204 226 255
204 226 255
204 226 255
204 226 255
204 226 255
204 226 255
204 226 255
204 226 255
205 226 255
205 226 255
205 226 255
205 226 255
205 226 255
205 226 255
205 226 255
205 226 255
205 226 255
205 226 255
205 227 255
205 227 255
205 227 255
205 227 255
205 227 255
205 227 255
205 227 255
205 227 255
205 227 255
205 227 255
205 227 255
205 227 255
205 227 255
206 227 255
206 227 255
206 227 255
206 227 255
206 227 255
206 227 255
206 227 255
206 227 255
206 227 255
206 227 255
206 227 255
206 227 255
206 227 255
206 227 255
206 227 255
206 227 255
206 227 255
206 227 255
206 227 255
207 227 255
207 227 255
207 227 255
207 227 255
207 228 255
207 228 255
207 228 255
207 228 255
207 228 255
207 228 255
207 228 255
207 228 255
207 228 255
207 228 255
207 228 255
207 228 255
207 228 255
207 228 255
208 228 255
208 228 255
208 228 255
208 228 255
208 228 255
196 214 235
171 181 185
137 138 113
129 126 83
133 130 85
130 127 84
132 129 85
133 130 86
134 131 86
135 133 88
136 132 87
135 132 87
138 135 89
139 136 89
138 135 89
138 136 90
137 134 89
138 135 89
143 140 93
141 139 92
144 141 93
142 140 92
142 140 92
143 141 93
141 138 91
141 139 91
143 141 93
143 141 94
144 141 93
141 139 91
142 139 92
142 140 92
145 143 94
143 140 93
145 143 94
143 140 93
144 142 94
145 142 94
144 142 94
144 141 93
146 143 94
146 143 94
143 141 93
145 143 94
146 142 93
146 143 94
144 140 92
145 141 93
146 143 95
142 138 91
146 141 92
148 145 95
146 142 93
148 145 96
147 143 94
147 143 94
145 141 92
146 142 93
146 142 94
148 143 94
144 141 93
144 140 92
144 140 92
145 142 93
146 142 93
146 142 93
143 139 90
141 137 89
141 137 90
142 137 90
143 138 90
147 142 93
144 139 91
142 137 89
142 137 90
141 136 88
144 139 91
141 136 88
142 137 89
142 137 89
139 134 87
141 136 88
141 136 88
141 135 87
139 134 86
135 130 84
137 131 85
137 132 85
135 130 83
138 134 87
140 134 86
133 127 82
135 129 82
131 125 80
129 123 77
141 140 114
172 181 183
200 216 234
212 230 255
169 185 207
160 176 198
165 182 205
168 185 209
172 191 215
176 195 220
178 197 223
180 200 227
181 201 228
180 201 228
180 201 228
179 200 228
179 200 228
178 200 228
178 200 228
178 199 228
177 199 228
177 199 228
176 199 228
176 199 228
176 198 228
175 198 228
175 198 228
175 198 228
175 198 228
174 198 228
174 197 228
173 197 228
173 197 228
173 197 228
172 197 228
172 197 228
172 197 228
172 196 228
171 196 228
171 196 228
171 196 228
171 196 228
170 196 228
170 196 228
170 195 228
169 195 228
169 195 228
169 195 228
169 195 228
168 195 228
168 195 228
168 194 228
168 194 228
168 194 228
167 194 228
167 194 228
167 194 228
167 194 228
167 194 228
167 194 228
167 194 228
166 194 228
166 193 228
166 193 228
166 193 228
166 193 228
166 193 228
165 193 228
165 193 228
165 193 228
165 193 228
165 193 228
165 193 228
165 193 228
165 193 228
165 193 228
165 193 228
165 193 228
165 193 228
165 193 228
165 193 228
165 193 228
165 193 228
165 193 228
165 193 228
166 193 228
166 193 228
166 194 228
166 194 228
167 194 228
167 194 228
167 194 228
168 194 228
168 195 228
169 195 228
169 195 228
170 196 228
171 196 228
172 196 228
172 197 228
172 196 226
168 190 220
162 183 210
168 187 212
186 205 231
204 224 251
208 228 255
208 228 255
208 228 255
208 228 255
208 228 255
208 228 255
207 228 255
207 228 255
207 228 255
207 228 255
207 228 255
207 228 255
207 228 255
207 228 255
207 228 255
207 228 255
207 228 255
207 228 255
207 228 255
207 228 255
207 227 255
207 227 255
207 227 255
207 227 255
207 227 255
206 227 255
206 227 255
206 227 255
206 227 255
206 227 255
206 227 255
206 227 255
206 227 255
206 227 255
206 227 255
206 227 255
206 227 255
206 227 255
206 227 255
206 227 255
206 227 255
206 227 255
206 227 255
206 227 255
206 227 255
205 227 255
205 227 255
205 227 255
205 227 255
205 227 255
205 227 255
205 227 255
205 227 255
205 227 255
205 227 255
205 227 255
205 227 255
205 227 255
205 226 255
205 226 255
205 226 255
205 226 255
205 226 255
205 226 255
205 226 255
205 226 255
205 226 255
205 226 255
205 226 255
205 226 255
204 226 255
204 226 255
204 226 255
204 226 255
204 226 255
204 226 255
204 226 255
204 226 255
204 226 255
204 226 255
204 226 255
204 226 255
204 226 255
204 226 255
204 226 255
204 226 255
204 226 255
204 226 255
204 226 255
204 226 255
204 226 255
204 226 255
204 226 255
204 226 255
204 226 255
204 226 255
204 226 255
204 226 255
204 226 255
204 226 255
204 226 255
204 226 255
204 226 255
204 226 255
204 226 255
204 226 255
204 226 255
204 226 255
204 226 255
204 226 255
204 226 255
204 226 255
204 226 255
204 226 255
204 226 255
204 226 255
204 226 255
204 226 255
204 226 255
204 226 255
204 226 255
204 226 255
204 226 255
204 226 255
204 226 255
204 226 255
205 226 255
205 226 255
205 226 255
205 226 255
205 226 255
205 226 255
205 226 255
205 226 255
205 226 255
205 226 255
205 226 255
205 226 255
205 227 255
205 227 255
205 227 255
205 227 255
205 227 255
205 227 255
205 227 255
205 227 255
205 227 255
205 227 255
205 227 255
205 227 255
205 227 255
205 227 255
206 227 255
206 227 255
206 227 255
206 227 255
206 227 255
206 227 255
206 227 255
206 227 255
206 227 255
206 227 255
206 227 255
206 227 255
206 227 255
206 227 255
206 227 255
206 227 255
206 227 255
206 227 255
206 227 255
207 227 255
207 227 255
207 227 255
207 227 255
207 227 255
207 228 255
207 228 255
207 228 255
207 228 255
207 228 255
207 228 255
207 228 255
207 228 255
207 228 255
207 228 255
207 228 255
207 228 255
207 228 255
207 228 255
208 228 255
208 228 255
208 228 255
208 228 255
208 228 255
208 228 255
204 224 250
181 194 205
147 150 137
127 123 81
130 126 83
129 126 83
131 128 84
132 129 84
136 133 88
134 131 87
138 135 89
137 135 89
137 134 89
139 137 91
140 137 91
137 134 88
141 139 92
141 139 92
141 138 90
143 140 93
142 140 93
142 140 93
143 141 94
143 141 93
143 141 93
143 140 93
141 138 91
144 142 94
144 141 93
143 140 93
144 141 93
145 143 95
144 141 93
146 144 95
146 143 95
146 143 95
147 144 95
147 145 96
144 142 94
147 144 95
147 145 96
148 146 97
147 144 95
146 143 94
147 143 94
147 144 95
147 143 94
145 142 93
146 142 94
147 145 96
149 146 96
147 143 94
149 145 96
146 143 94
147 144 95
148 145 95
148 145 95
146 142 93
146 142 94
150 145 95
144 141 93
146 142 93
148 144 95
146 142 94
148 144 94
145 141 93
148 143 94
145 140 92
145 141 93
149 144 95
144 139 91
143 139 91
145 141 92
144 140 91
143 139 91
142 138 90
146 141 92
145 140 91
145 140 91
143 138 90
142 137 89
141 137 89
141 135 88
145 140 91
144 139 91
143 137 89
143 137 88
138 133 86
137 131 85
140 135 87
141 135 87
138 133 86
136 130 84
138 132 85
138 133 86
138 133 85
137 131 83
134 128 81
130 124 79
130 125 79
130 124 78
150 151 133
170 188 211
174 192 216
176 194 219
179 198 224
181 201 228
181 202 228
181 201 228
180 201 228
180 201 228
179 200 228
179 200 228
179 200 228
178 200 228
178 200 228
177 199 228
177 199 228
176 199 228
176 199 228
176 199 228
176 198 228
175 198 228
175 198 228
174 198 228
174 198 228
174 197 228
174 197 228
173 197 228
173 197 228
173 197 228
172 197 228
172 196 228
172 196 228
171 196 228
171 196 228
171 196 228
171 196 228
170 196 228
170 196 228
170 195 228
170 195 228
169 195 228
169 195 228
169 195 228
169 195 228
168 195 228
168 195 228
168 194 228
168 194 228
168 194 228
167 194 228
167 194 228
167 194 228
167 194 228
167 194 228
166 194 228
166 193 228
166 193 228
166 193 228
166 193 228
166 193 228
165 193 228
165 193 228
165 193 228
165 193 228
165 193 228
165 193 228
165 193 228
165 193 228
164 193 228
164 193 228
164 193 228
164 193 228
164 193 228
164 193 228
164 193 228
164 193 228
164 193 228
164 193 228
164 193 228
164 193 228
165 193 228
165 193 228
165 193 228
165 193 228
165 193 228
166 193 228
166 193 228
166 193 228
166 194 228
167 194 228
167 194 228
168 194 228
168 194 228
169 195 228
169 195 228
170 195 228
171 196 228
172 197 228
173 197 228
171 194 224
167 188 217
161 181 207
176 195 221
198 217 244
208 228 255
208 228 255
208 228 255
208 228 255
208 228 255
208 228 255
208 228 255
208 228 255
207 228 255
207 228 255
207 228 255
207 228 255
207 228 255
207 228 255
207 228 255
207 228 255
207 228 255
207 228 255
207 228 255
207 228 255
207 228 255
207 228 255
207 227 255
207 227 255
207 227 255
207 227 255
207 227 255
206 227 255
206 227 255
206 227 255
206 227 255
206 227 255
206 227 255
206 227 255
206 227 255
206 227 255
206 227 255
206 227 255
206 227 255
206 227 255
206 227 255
206 227 255
206 227 255
206 227 255
206 227 255
206 227 255
206 227 255
206 227 255
205 227 255
205 227 255
205 227 255
205 227 255
205 227 255
205 227 255
205 227 255
205 227 255
205 227 255
205 227 255
205 227 255
205 227 255
205 227 255
205 227 255
205 227 255
205 226 255
205 226 255
205 226 255
205 226 255
205 226 255
205 226 255
205 226 255
205 226 255
205 226 255
205 226 255
205 226 255
205 226 255
205 226 255
205 226 255
205 226 255
204 226 255
204 226 255
204 226 255
204 226 255
204 226 255
204 226 255
204 226 255
204 226 255
204 226 255
204 226 255
204 226 255
204 226 255
204 226 255
204 226 255
204 226 255
204 226 255
204 226 255
204 226 255
204 226 255
204 226 255
204 226 255
204 226 255
204 226 255
204 226 255
204 226 255
204 226 255
204 226 255
204 226 255
204 226 255
204 226 255
204 226 255
204 226 255
204 226 255
204 226 255
204 226 255
204 226 255
205 226 255
205 226 255
205 226 255
205 226 255
205 226 255
205 226 255
205 226 255
205 226 255
205 226 255
205 226 255
205 226 255
205 226 255
205 226 255
205 226 255
205 226 255
205 227 255
205 227 255
205 227 255
205 227 255
205 227 255
205 227 255
205 227 255
205 227 255
205 227 255
205 227 255
205 227 255
205 227 255
205 227 255
205 227 255
205 227 255
206 227 255
206 227 255
206 227 255
206 227 255
206 227 255
206 227 255
206 227 255
206 227 255
206 227 255
206 227 255
206 227 255
206 227 255
206 227 255
206 227 255
206 227 255
206 227 255
206 227 255
206 227 255
206 227 255
206 227 255
206 227 255
207 227 255
207 227 255
207 227 255
207 227 255
207 227 255
207 228 255
207 228 255
207 228 255
207 228 255
207 228 255
207 228 255
207 228 255
207 228 255
207 228 255
207 228 255
207 228 255
207 228 255
207 228 255
207 228 255
208 228 255
208 228 255
208 228 255
208 228 255
208 228 255
208 228 255
208 228 255
208 228 255
195 212 232
161 170 171
128 127 93
127 124 81
130 126 83
135 132 87
135 132 87
137 134 88
138 135 89
136 134 88
137 134 88
139 136 90
138 135 89
139 136 90
142 140 92
141 138 91
141 139 92
141 139 92
142 140 93
142 140 93
142 140 93
142 140 93
141 139 92
144 141 93
143 141 94
144 142 94
144 142 94
144 142 94
146 144 95
143 140 93
146 144 95
148 146 97
145 143 94
146 143 95
146 143 95
144 142 94
145 142 94
148 146 97
147 145 96
148 145 96
148 145 96
146 144 96
149 146 97
149 147 97
147 145 96
144 141 93
149 146 96
147 144 95
147 144 95
147 144 95
147 144 95
145 141 93
148 145 95
150 148 98
147 144 94
148 144 95
149 146 96
147 144 95
147 143 94
148 144 94
147 144 95
149 146 96
147 144 94
146 141 93
149 146 96
149 145 96
148 144 94
149 144 94
148 144 95
145 141 93
147 143 94
147 143 94
146 141 93
144 140 92
147 143 94
145 141 92
147 142 92
148 143 93
147 142 93
145 141 92
145 140 91
144 139 90
148 143 93
147 142 92
149 143 93
144 138 90
146 140 92
142 136 88
142 137 89
143 137 89
144 139 90
144 138 89
140 135 87
142 136 88
138 132 85
137 132 85
142 136 87
139 133 85
137 131 83
137 131 83
134 128 81
137 131 83
133 127 81
132 126 79
178 197 222
181 200 226
181 201 228
181 202 228
181 201 228
181 201 228
180 201 228
180 201 228
179 200 228
179 200 228
178 200 228
178 200 228
177 199 228
177 199 228
177 199 228
176 199 228
176 199 228
176 198 228
175 198 228
175 198 228
175 198 228
174 198 228
174 198 228
174 198 228
174 197 228
173 197 228
173 197 228
172 197 228
172 197 228
172 196 228
172 196 228
171 196 228
171 196 228
171 196 228
171 196 228
170 196 228
170 196 228
170 195 228
170 195 228
169 195 228
169 195 228
169 195 228
169 195 228
168 195 228
168 194 228
168 194 228
168 194 228
168 194 228
167 194 228
167 194 228
167 194 228
167 194 228
166 194 228
166 194 228
166 193 228
166 193 228
166 193 228
166 193 228
165 193 228
165 193 228
165 193 228
165 193 228
165 193 228
165 193 228
164 193 228
164 193 228
164 193 228
164 192 228
164 192 228
164 192 228
164 192 228
164 192 228
164 192 228
164 192 228
164 192 228
164 192 228
164 192 228
164 192 228
164 192 228
164 192 228
164 192 228
164 192 228
164 192 228
164 192 228
164 193 228
164 193 228
165 193 228
165 193 228
165 193 228
165 193 228
166 193 228
166 193 228
166 194 228
167 194 228
168 194 228
168 194 228
169 195 228
170 195 228
170 196 228
171 196 228
172 197 228
173 197 228
169 192 221
163 184 211
167 186 211
188 207 233
207 227 254
208 228 255
208 228 255
208 228 255
208 228 255
208 228 255
208 228 255
208 228 255
208 228 255
208 228 255
207 228 255
207 228 255
207 228 255
207 228 255
207 228 255
207 228 255
207 228 255
207 228 255
207 228 255
207 228 255
207 228 255
207 228 255
207 228 255
207 228 255
207 228 255
207 227 255
207 227 255
207 227 255
207 227 255
207 227 255
206 227 255
206 227 255
206 227 255
206 227 255
206 227 255
206 227 255
206 227 255
206 227 255
206 227 255
206 227 255
206 227 255
206 227 255
206 227 255
206 227 255
206 227 255
206 227 255
206 227 255
206 227 255
206 227 255
206 227 255
206 227 255
206 227 255
205 227 255
205 227 255
205 227 255
205 227 255
205 227 255
205 227 255
205 227 255
205 227 255
205 227 255
205 227 255
205 227 255
205 227 255
205 227 255
205 227 255
205 227 255
205 227 255
205 227 255
205 227 255
205 226 255
205 226 255
205 226 255
205 226 255
205 226 255
205 226 255
205 226 255
205 226 255
205 226 255
205 226 255
205 226 255
205 226 255
205 226 255
205 226 255
205 226 255
205 226 255
205 226 255
205 226 255
205 226 255
205 226 255
205 226 255
205 226 255
205 226 255
205 226 255
205 226 255
205 226 255
205 226 255
205 226 255
205 226 255
205 226 255
205 226 255
205 226 255
205 226 255
205 226 255
205 226 255
205 226 255
205 226 255
205 226 255
205 226 255
205 226 255
205 226 255
205 226 255
205 226 255
205 226 255
205 226 255
205 226 255
205 226 255
205 226 255
205 227 255
205 227 255
205 227 255
205 227 255
205 227 255
205 227 255
205 227 255
205 227 255
205 227 255
205 227 255
205 227 255
205 227 255
205 227 255
205 227 255
205 227 255
205 227 255
205 227 255
205 227 255
206 227 255
206 227 255
206 227 255
206 227 255
206 227 255
206 227 255
206 227 255
206 227 255
206 227 255
206 227 255
206 227 255
206 227 255
206 227 255
206 227 255
206 227 255
206 227 255
206 227 255
206 227 255
206 227 255
206 227 255
206 227 255
206 227 255
207 227 255
207 227 255
207 227 255
207 227 255
207 227 255
207 228 255
207 228 255
207 228 255
207 228 255
207 228 255
207 228 255
207 228 255
207 228 255
207 228 255
207 228 255
207 228 255
207 228 255
207 228 255
207 228 255
207 228 255
208 228 255
208 228 255
208 228 255
208 228 255
208 228 255
208 228 255
208 228 255
208 228 255
208 228 255
207 227 254
183 198 213
144 148 134
130 126 83
130 127 83
133 130 85
136 133 87
132 129 85
136 133 88
136 134 89
141 138 91
140 137 91
140 138 92
141 138 92
140 138 92
141 138 91
142 139 92
141 139 92
145 142 94
144 141 93
144 142 94
143 140 93
144 142 94
145 142 94
145 143 95
145 142 94
144 142 95
145 143 95
144 142 95
147 145 96
147 146 97
148 145 96
147 145 96
147 146 97
146 144 95
146 144 96
148 145 96
146 143 95
147 144 96
147 144 96
149 147 98
149 146 97
149 146 97
148 146 97
148 146 97
149 147 98
149 146 97
149 147 97
150 147 97
147 144 95
149 146 97
149 147 97
148 145 95
150 147 97
149 146 96
148 144 95
148 144 95
150 147 97
149 146 96
149 146 96
146 143 94
149 146 96
149 146 96
151 147 97
150 146 96
147 144 95
150 147 97
148 144 94
149 145 95
151 147 96
149 145 95
151 147 97
150 145 95
150 145 95
146 141 92
150 145 95
148 144 94
147 143 93
150 146 95
147 142 93
152 146 96
148 143 93
147 142 93
149 143 93
146 141 92
146 141 92
147 142 93
144 139 90
146 141 91
146 141 92
143 138 90
142 137 89
143 138 89
141 135 88
141 136 88
143 138 89
139 133 87
140 134 86
140 134 86
143 137 88
139 134 86
139 134 86
140 134 85
138 132 84
135 130 82
136 131 83
132 126 80
182 202 228
182 202 228
181 202 228
181 201 228
180 201 228
180 201 228
179 200 228
179 200 228
179 200 228
178 200 228
178 200 228
177 199 228
177 199 228
177 199 228
176 199 228
176 199 228
176 199 228
175 198 228
175 198 228
175 198 228
174 198 228
174 198 228
174 198 228
173 197 228
173 197 228
173 197 228
173 197 228
172 197 228
172 196 228
172 196 228
171 196 228
171 196 228
171 196 228
171 196 228
170 196 228
170 196 228
170 195 228
170 195 228
169 195 228
169 195 228
169 195 228
169 195 228
169 195 228
168 195 228
168 194 228
168 194 228
168 194 228
167 194 228
167 194 228
167 194 228
167 194 228
167 194 228
166 194 228
166 193 228
166 193 228
166 193 228
165 193 228
165 193 228
165 193 228
165 193 228
165 193 228
165 193 228
164 193 228
164 193 228
164 193 228
164 192 228
164 192 228
164 192 228
164 192 228
164 192 228
164 192 228
163 192 228
163 192 228
163 192 228
163 192 228
163 192 228
163 192 228
163 192 228
163 192 228
163 192 228
163 192 228
163 192 228
163 192 228
163 192 228
164 192 228
164 192 228
164 192 228
164 192 228
164 192 228
164 193 228
165 193 228
165 193 228
165 193 228
166 193 228
166 193 228
166 194 228
167 194 228
168 194 228
168 195 228
169 195 228
170 195 228
171 196 228
172 197 228
173 197 228
172 194 224
167 189 217
162 181 207
185 204 229
206 226 253
208 228 255
208 228 255
208 228 255
208 228 255
208 228 255
208 228 255
208 228 255
208 228 255
208 228 255
208 228 255
208 228 255
208 228 255
207 228 255
207 228 255
207 228 255
207 228 255
207 228 255
207 228 255
207 228 255
207 228 255
207 228 255
207 228 255
207 228 255
207 228 255
207 228 255
207 228 255
207 228 255
207 227 255
207 227 255
207 227 255
207 227 255
207 227 255
206 227 255
206 227 255
206 227 255
206 227 255
206 227 255
206 227 255
206 227 255
206 227 255
206 227 255
206 227 255
206 227 255
206 227 255
206 227 255
206 227 255
206 227 255
206 227 255
206 227 255
206 227 255
206 227 255
206 227 255
206 227 255
206 227 255
206 227 255
206 227 255
205 227 255
205 227 255
205 227 255
205 227 255
205 227 255
205 227 255
205 227 255
205 227 255
205 227 255
205 227 255
205 227 255
205 227 255
205 227 255
205 227 255
205 227 255
205 227 255
205 227 255
205 227 255
205 227 255
205 227 255
205 227 255
205 227 255
205 227 255
205 227 255
205 227 255
205 226 255
205 226 255
205 226 255
205 226 255
205 226 255
205 226 255
205 226 255
205 226 255
205 226 255
205 226 255
205 226 255
205 226 255
205 226 255
205 226 255
205 226 255
205 226 255
205 226 255
205 226 255
205 226 255
205 226 255
205 227 255
205 227 255
205 227 255
205 227 255
205 227 255
205 227 255
205 227 255
205 227 255
205 227 255
205 227 255
205 227 255
205 227 255
205 227 255
205 227 255
205 227 255
205 227 255
205 227 255
205 227 255
205 227 255
205 227 255
205 227 255
205 227 255
205 227 255
205 227 255
205 227 255
206 227 255
206 227 255
206 227 255
206 227 255
206 227 255
206 227 255
206 227 255
206 227 255
206 227 255
206 227 255
206 227 255
206 227 255
206 227 255
206 227 255
206 227 255
206 227 255
206 227 255
206 227 255
206 227 255
206 227 255
206 227 255
206 227 255
206 227 255
206 227 255
207 227 255
207 227 255
207 227 255
207 227 255
207 227 255
207 228 255
207 228 255
207 228 255
207 228 255
207 228 255
207 228 255
207 228 255
207 228 255
207 228 255
207 228 255
207 228 255
207 228 255
207 228 255
207 228 255
207 228 255
208 228 255
208 228 255
208 228 255
208 228 255
208 228 255
208 228 255
208 228 255
208 228 255
208 228 255
208 228 255
208 228 255
208 228 255
205 225 250
178 191 201
139 140 116
128 124 80
133 130 86
132 129 85
132 128 84
137 134 88
137 134 88
134 132 87
140 137 91
140 138 91
138 135 90
140 138 92
142 140 93
142 140 92
142 139 92
141 138 91
143 141 94
144 142 95
147 145 96
144 142 94
146 144 95
145 143 95
145 143 95
148 145 96
147 145 96
147 145 97
146 144 96
148 146 97
145 143 95
148 146 97
150 148 98
149 147 97
147 145 97
146 144 95
150 147 98
148 146 97
147 145 96
149 146 97
152 150 99
149 147 98
148 146 97
150 147 98
149 146 96
150 148 98
150 147 97
149 146 97
150 148 98
150 148 98
151 148 98
150 147 97
150 147 97
150 147 97
150 147 97
151 148 98
149 146 96
151 147 97
151 147 97
150 147 97
150 147 97
150 146 96
152 148 98
149 146 96
147 143 94
152 148 98
151 147 97
151 147 97
150 146 96
150 147 96
152 147 96
149 145 96
148 144 94
150 145 95
152 148 97
151 146 96
152 148 97
151 147 97
151 146 96
150 145 95
152 147 96
147 142 93
148 143 93
147 142 93
150 145 94
149 144 94
151 146 96
148 143 93
145 139 91
146 140 92
146 141 92
145 140 91
147 142 92
146 140 91
146 140 91
146 141 91
148 142 92
145 140 91
144 139 90
144 139 90
142 136 88
140 134 86
141 135 86
143 137 88
140 134 86
137 131 84
141 135 86
138 132 84
136 129 82
181 202 228
181 201 228
180 201 228
180 201 228
180 201 228
179 200 228
179 200 228
178 200 228
178 200 228
178 200 228
177 199 228
177 199 228
177 199 228
176 199 228
176 199 228
176 198 228
176 198 228
175 198 228
175 198 228
174 198 228
174 198 228
174 198 228
173 197 228
173 197 228
173 197 228
173 197 228
172 197 228
172 197 228
172 196 228
172 196 228
171 196 228
171 196 228
171 196 228
170 196 228
170 196 228
170 195 228
170 195 228
170 195 228
169 195 228
169 195 228
169 195 228
169 195 228
168 195 228
168 195 228
168 194 228
168 194 228
167 194 228
167 194 228
167 194 228
167 194 228
166 194 228
166 194 228
166 194 228
166 193 228
166 193 228
166 193 228
165 193 228
165 193 228
165 193 228
165 193 228
165 193 228
164 193 228
164 193 228
164 192 228
164 192 228
164 192 228
164 192 228
164 192 228
163 192 228
163 192 228
163 192 228
163 192 228
163 192 228
163 192 228
163 192 228
163 192 228
163 192 228
163 192 228
163 192 228
163 192 228
163 192 228
163 192 228
163 192 228
163 192 228
163 192 228
163 192 228
163 192 228
163 192 228
163 192 228
164 192 228
164 192 228
164 192 228
164 193 228
165 193 228
165 193 228
165 193 228
166 193 228
166 193 228
167 194 228
167 194 228
168 194 228
169 195 228
169 195 228
170 196 228
172 196 228
173 197 228
172 196 226
168 190 219
166 186 212
182 201 226
205 225 251
208 228 255
208 228 255
208 228 255
208 228 255
208 228 255
208 228 255
208 228 255
208 228 255
208 228 255
208 228 255
208 228 255
208 228 255
208 228 255
208 228 255
207 228 255
207 228 255
207 228 255
207 228 255
207 228 255
207 228 255
207 228 255
207 228 255
207 228 255
207 228 255
207 228 255
207 228 255
207 228 255
207 228 255
207 228 255
207 228 255
207 227 255
207 227 255
207 227 255
207 227 255
207 227 255
206 227 255
206 227 255
206 227 255
206 227 255
206 227 255
206 227 255
206 227 255
206 227 255
206 227 255
206 227 255
206 227 255
206 227 255
206 227 255
206 227 255
206 227 255
206 227 255
206 227 255
206 227 255
206 227 255
206 227 255
206 227 255
206 227 255
206 227 255
206 227 255
206 227 255
206 227 255
206 227 255
205 227 255
205 227 255
205 227 255
205 227 255
205 227 255
205 227 255
205 227 255
205 227 255
205 227 255
205 227 255
205 227 255
205 227 255
205 227 255
205 227 255
205 227 255
205 227 255
205 227 255
205 227 255
205 227 255
205 227 255
205 227 255
205 227 255
205 227 255
205 227 255
205 226 255
202 223 253
199 221 251
199 221 251
202 224 253
204 226 255
205 227 255
205 227 255
205 227 255
205 227 255
205 227 255
205 227 255
205 227 255
205 227 255
205 227 255
205 227 255
205 227 255
205 227 255
205 227 255
205 227 255
205 227 255
205 227 255
205 227 255
205 227 255
205 227 255
205 227 255
205 227 255
205 227 255
205 227 255
205 227 255
206 227 255
206 227 255
206 227 255
206 227 255
206 227 255
206 227 255
206 227 255
206 227 255
206 227 255
206 227 255
206 227 255
206 227 255
206 227 255
206 227 255
206 227 255
206 227 255
206 227 255
206 227 255
206 227 255
206 227 255
206 227 255
206 227 255
206 227 255
206 227 255
206 227 255
206 227 255
206 227 255
207 227 255
207 227 255
207 227 255
207 227 255
207 227 255
207 228 255
207 228 255
207 228 255
207 228 255
207 228 255
207 228 255
207 228 255
207 228 255
207 228 255
207 228 255
207 228 255
207 228 255
207 228 255
207 228 255
207 228 255
207 228 255
208 228 255
208 228 255
208 228 255
208 228 255
208 228 255
208 228 255
208 228 255
208 228 255
208 228 255
208 228 255
208 228 255
208 228 255
208 228 255
208 228 255
205 224 250
174 185 193
135 134 102
129 126 82
134 130 86
134 130 85
131 128 84
136 133 88
137 134 89
139 135 89
141 139 92
139 136 90
138 136 90
140 137 90
144 141 93
145 143 94
145 142 94
143 140 92
144 142 94
144 142 94
145 144 96
146 144 96
146 144 95
148 146 97
146 144 96
145 143 95
148 146 97
148 146 97
146 144 96
148 146 97
148 146 97
150 148 98
146 144 96
148 146 97
149 147 97
148 146 97
150 148 99
150 148 98
151 149 99
149 147 97
148 146 97
152 150 100
152 150 100
149 147 97
152 150 100
151 148 98
151 148 98
150 147 98
151 148 98
151 148 98
151 148 98
151 148 98
151 148 98
150 147 97
153 151 100
151 148 98
152 149 98
153 149 98
152 149 98
154 150 99
150 147 98
151 147 96
150 146 97
152 148 97
151 147 97
153 149 98
152 148 97
151 147 97
150 146 96
151 147 96
153 149 98
152 148 97
150 146 96
151 147 96
152 147 97
150 146 96
152 148 97
151 146 96
153 149 98
151 147 96
152 147 96
151 146 96
148 144 94
149 144 94
149 145 95
151 146 96
152 147 96
151 146 95
148 143 93
151 146 95
148 143 93
149 144 93
147 142 92
146 140 91
147 141 92
146 141 91
146 140 91
148 143 93
146 140 91
148 142 92
146 140 90
143 138 89
143 137 89
143 137 88
145 139 89
143 137 88
141 136 87
141 135 85
137 131 84
140 134 86
141 134 85
181 201 228
180 201 228
180 201 228
180 201 228
179 200 228
179 200 228
178 200 228
178 200 228
178 200 228
178 199 228
177 199 228
177 199 228
176 199 228
176 199 228
176 199 228
175 198 228
175 198 228
175 198 228
175 198 228
174 198 228
174 198 228
174 197 228
173 197 228
173 197 228
173 197 228
172 197 228
172 197 228
172 197 228
172 196 228
172 196 228
171 196 228
171 196 228
171 196 228
170 196 228
170 196 228
170 196 228
170 195 228
169 195 228
169 195 228
169 195 228
169 195 228
169 195 228
168 195 228
168 195 228
168 194 228
168 194 228
167 194 228
167 194 228
167 194 228
167 194 228
167 194 228
166 194 228
166 193 228
166 193 228
166 193 228
165 193 228
165 193 228
165 193 228
165 193 228
165 193 228
165 193 228
164 193 228
164 193 228
164 192 228
164 192 228
164 192 228
164 192 228
163 192 228
163 192 228
163 192 228
163 192 228
163 192 228
163 192 228
163 192 228
163 192 228
163 192 228
163 192 228
163 192 228
163 192 228
163 192 228
162 192 228
162 192 228
162 192 228
163 192 228
163 192 228
163 192 228
163 192 228
163 192 228
163 192 228
163 192 228
163 192 228
163 192 228
164 192 228
164 192 228
164 192 228
164 193 228
165 193 228
165 193 228
165 193 228
166 193 228
166 194 228
167 194 228
168 194 228
169 195 228
169 195 228
170 196 228
171 196 228
173 197 228
173 196 226
168 190 218
163 183 208
182 201 226
205 225 252
208 228 255
208 228 255
208 228 255
208 228 255
208 228 255
208 228 255
208 228 255
208 228 255
208 228 255
208 228 255
208 228 255
208 228 255
208 228 255
208 228 255
208 228 255
208 228 255
208 228 255
207 228 255
207 228 255
207 228 255
207 228 255
207 228 255
207 228 255
207 228 255
207 228 255
207 228 255
207 228 255
207 228 255
207 228 255
207 228 255
207 228 255
207 228 255
207 228 255
207 227 255
207 227 255
207 227 255
207 227 255
207 227 255
207 227 255
206 227 255
206 227 255
206 227 255
206 227 255
206 227 255
206 227 255
206 227 255
206 227 255
206 227 255
206 227 255
206 227 255
206 227 255
206 227 255
206 227 255
206 227 255
206 227 255
206 227 255
206 227 255
206 227 255
206 227 255
206 227 255
206 227 255
206 227 255
206 227 255
206 227 255
206 227 255
206 227 255
206 227 255
206 227 255
206 227 255
206 227 255
206 227 255
206 227 255
205 227 255
205 227 255
205 227 255
205 227 255
204 226 255
187 208 242
167 189 228
144 166 213
126 150 202
106 132 191
95 122 186
74 105 177
59 93 172
58 93 171
58 92 170
58 93 170
58 93 172
59 94 172
75 106 177
94 121 185
112 137 193
127 151 202
151 173 218
168 190 230
189 210 243
204 225 254
205 227 255
205 227 255
205 227 255
205 227 255
206 227 255
206 227 255
206 227 255
206 227 255
206 227 255
206 227 255
206 227 255
206 227 255
206 227 255
206 227 255
206 227 255
206 227 255
206 227 255
206 227 255
206 227 255
206 227 255
206 227 255
206 227 255
206 227 255
206 227 255
206 227 255
206 227 255
206 227 255
206 227 255
206 227 255
206 227 255
206 227 255
206 227 255
206 227 255
206 227 255
206 227 255
206 227 255
206 227 255
207 227 255
207 227 255
207 227 255
207 227 255
207 227 255
207 227 255
207 228 255
207 228 255
207 228 255
207 228 255
207 228 255
207 228 255
207 228 255
207 228 255
207 228 255
207 228 255
207 228 255
207 228 255
207 228 255
207 228 255
207 228 255
207 228 255
208 228 255
208 228 255
208 228 255
208 228 255
208 228 255
208 228 255
208 228 255
208 228 255
208 228 255
208 228 255
208 228 255
208 228 255
208 228 255
208 228 255
208 228 255
208 228 255
208 228 255
205 224 250
174 186 196
137 137 107
134 131 86
134 131 86
136 133 88
136 133 88
137 134 88
138 135 88
142 139 92
138 136 90
141 139 92
144 141 94
139 136 90
143 141 93
142 139 92
143 141 93
145 143 95
145 143 95
145 143 95
146 145 96
146 143 95
146 143 95
148 146 97
149 147 98
147 145 97
149 147 97
149 147 97
149 147 98
148 146 97
147 146 97
148 147 98
149 147 98
149 147 98
151 149 99
148 147 98
150 148 99
150 148 98
151 149 99
149 147 98
153 151 101
151 148 98
149 147 98
151 149 99
150 148 98
150 147 97
154 151 100
151 147 97
152 150 100
150 147 97
152 150 99
153 151 100
154 150 99
153 150 99
152 148 98
154 151 100
152 149 99
152 149 99
153 150 99
150 147 97
155 151 100
153 149 98
152 148 98
154 150 99
152 149 98
153 150 99
152 148 97
154 150 99
152 148 97
152 149 98
152 148 97
152 148 98
150 146 96
154 150 98
153 149 98
151 147 97
150 146 95
154 149 98
153 149 97
151 147 96
152 148 97
153 148 97
148 144 94
152 147 97
152 147 96
151 146 95
150 145 95
150 145 94
151 145 95
150 145 95
150 145 95
148 143 94
149 143 93
149 143 93
150 144 94
149 143 92
146 141 92
146 141 92
148 143 93
150 144 94
147 142 92
146 141 92
148 142 92
148 142 92
145 140 90
145 139 90
142 137 88
143 137 88
140 134 86
143 137 88
140 134 86
141 135 86
144 138 88
181 201 228
180 201 228
180 201 228
179 200 228
179 200 228
179 200 228
178 200 228
178 200 228
178 200 228
177 199 228
177 199 228
177 199 228
176 199 228
176 199 228
176 198 228
175 198 228
175 198 228
175 198 228
174 198 228
174 198 228
174 198 228
174 197 228
173 197 228
173 197 228
173 197 228
172 197 228
172 197 228
172 197 228
172 196 228
171 196 228
171 196 228
171 196 228
171 196 228
170 196 228
170 196 228
170 195 228
170 195 228
169 195 228
169 195 228
169 195 228
169 195 228
169 195 228
168 195 228
168 194 228
168 194 228
168 194 228
167 194 228
167 194 228
167 194 228
167 194 228
167 194 228
166 194 228
166 193 228
166 193 228
166 193 228
165 193 228
165 193 228
165 193 228
165 193 228
165 193 228
165 193 228
164 193 228
164 192 228
164 192 228
164 192 228
164 192 228
164 192 228
163 192 228
163 192 228
163 192 228
163 192 228
163 192 228
163 192 228
163 192 228
163 192 228
163 192 228
162 192 228
162 192 228
162 192 228
162 192 228
162 192 228
162 192 228
162 192 228
162 191 228
162 192 228
162 192 228
162 192 228
162 192 228
163 192 228
163 192 228
163 192 228
163 192 228
163 192 228
163 192 228
163 192 228
164 192 228
164 192 228
164 192 228
165 193 228
165 193 228
165 193 228
166 193 228
167 194 228
167 194 228
168 194 228
168 195 228
170 195 228
170 196 228
171 196 228
173 197 228
173 196 227
170 192 220
165 184 210
187 206 231
208 228 255
208 228 255
208 228 255
208 228 255
208 228 255
208 228 255
208 228 255
208 228 255
208 228 255
208 228 255
208 228 255
208 228 255
208 228 255
208 228 255
208 228 255
208 228 255
208 228 255
208 228 255
208 228 255
208 228 255
208 228 255
207 228 255
207 228 255
207 228 255
207 228 255
207 228 255
207 228 255
207 228 255
207 228 255
207 228 255
207 228 255
207 228 255
207 228 255
207 228 255
207 228 255
207 228 255
207 228 255
207 228 255
207 227 255
207 227 255
207 227 255
207 227 255
207 227 255
207 227 255
206 227 255
206 227 255
206 227 255
206 227 255
206 227 255
206 227 255
206 227 255
206 227 255
206 227 255
206 227 255
206 227 255
206 227 255
206 227 255
206 227 255
206 227 255
206 227 255
206 227 255
206 227 255
206 227 255
206 227 255
206 227 255
206 227 255
206 227 255
206 227 255
206 227 255
206 227 255
206 227 255
203 224 253
177 199 235
146 169 214
110 135 193
68 100 174
58 93 171
58 93 171
58 93 171
58 92 170
58 92 169
58 92 170
58 93 170
59 94 172
58 93 171
58 93 169
58 93 170
58 93 170
58 93 170
58 93 170
58 93 170
58 93 170
58 93 171
59 94 172
58 93 171
58 93 171
69 102 176
116 141 197
147 170 215
178 200 235
203 224 253
206 227 255
206 227 255
206 227 255
206 227 255
206 227 255
206 227 255
206 227 255
206 227 255
206 227 255
206 227 255
206 227 255
206 227 255
206 227 255
206 227 255
206 227 255
206 227 255
206 227 255
206 227 255
206 227 255
206 227 255
206 227 255
206 227 255
206 227 255
206 227 255
206 227 255
206 227 255
206 227 255
207 227 255
207 227 255
207 227 255
207 227 255
207 227 255
207 227 255
207 228 255
207 228 255
207 228 255
207 228 255
207 228 255
207 228 255
207 228 255
207 228 255
207 228 255
207 228 255
207 228 255
207 228 255
207 228 255
207 228 255
207 228 255
207 228 255
207 228 255
208 228 255
208 228 255
208 228 255
208 228 255
208 228 255
208 228 255
208 228 255
208 228 255
208 228 255
208 228 255
208 228 255
208 228 255
208 228 255
208 228 255
208 228 255
208 228 255
208 228 255
208 228 255
208 228 255
208 228 255
208 228 254
183 196 208
138 138 112
128 124 81
133 130 86
136 132 87
137 134 88
137 135 89
137 134 88
139 136 90
142 139 91
142 140 92
142 139 92
142 139 92
143 141 93
143 141 93
142 140 93
143 140 93
145 143 94
147 145 96
147 145 96
146 144 96
149 146 97
147 145 97
150 147 98
148 146 97
149 147 97
148 146 97
149 147 98
148 145 96
148 146 97
151 149 99
149 148 98
150 148 98
149 147 98
152 150 100
150 148 99
152 150 100
150 148 98
153 151 101
148 146 97
153 151 100
152 149 99
152 150 100
154 151 100
154 152 101
152 149 99
154 151 100
152 150 99
153 150 100
153 150 100
155 152 100
152 149 99
154 151 100
153 150 99
155 152 101
154 152 100
152 149 98
153 150 99
153 149 99
154 151 99
155 152 101
155 151 99
154 150 99
156 152 100
154 150 99
155 151 99
155 152 100
152 148 97
153 149 98
152 148 97
154 149 98
154 149 98
154 150 99
154 149 98
154 150 98
155 150 99
154 149 98
154 149 98
152 147 96
150 146 96
154 149 98
154 149 98
155 151 99
152 147 96
151 146 96
155 150 97
153 148 97
152 147 96
154 149 97
151 146 95
152 147 96
149 144 94
150 144 94
151 145 95
152 147 96
152 147 96
151 146 95
146 141 91
146 141 92
152 147 95
151 145 94
146 141 92
149 143 92
149 143 92
149 142 92
146 141 90
148 142 91
145 140 89
148 141 91
147 140 89
145 140 89
143 137 88
144 138 88
144 137 88
180 201 228
180 201 228
179 200 228
179 200 228
179 200 228
178 200 228
178 200 228
178 200 228
177 199 228
177 199 228
177 199 228
176 199 228
176 199 228
176 199 228
176 198 228
175 198 228
175 198 228
175 198 228
174 198 228
174 198 228
174 198 228
174 197 228
173 197 228
173 197 228
173 197 228
173 197 228
172 197 228
172 196 228
172 196 228
171 196 228
171 196 228
171 196 228
171 196 228
170 196 228
170 196 228
170 195 228
170 195 228
169 195 228
169 195 228
169 195 228
169 195 228
168 195 228
168 195 228
168 194 228
168 194 228
168 194 228
167 194 228
167 194 228
167 194 228
167 194 228
167 194 228
166 194 228
166 194 228
166 193 228
166 193 228
166 193 228
165 193 228
165 193 228
165 193 228
165 193 228
165 193 228
164 193 228
164 193 228
164 192 228
164 192 228
164 192 228
164 192 228
163 192 228
163 192 228
163 192 228
163 192 228
163 192 228
163 192 228
163 192 228
163 192 228
163 192 228
162 192 228
162 192 228
162 192 228
162 192 228
162 191 228
162 191 228
162 191 228
162 191 228
162 191 228
162 191 228
162 191 228
162 191 228
162 191 228
162 192 228
162 192 228
162 192 228
163 192 228
163 192 228
163 192 228
163 192 228
163 192 228
164 192 228
164 192 228
164 192 228
165 193 228
165 193 228
165 193 228
166 193 228
166 194 228
167 194 228
168 194 228
169 195 228
170 195 228
171 196 228
172 196 228
173 197 228
173 196 226
167 188 215
167 186 211
193 212 238
209 229 255
209 229 255
209 228 255
209 228 255
208 228 255
208 228 255
208 228 255
208 228 255
208 228 255
208 228 255
208 228 255
208 228 255
208 228 255
208 228 255
208 228 255
208 228 255
208 228 255
208 228 255
208 228 255
208 228 255
208 228 255
208 228 255
208 228 255
208 228 255
208 228 255
207 228 255
207 228 255
207 228 255
207 228 255
207 228 255
207 228 255
207 228 255
207 228 255
207 228 255
207 228 255
207 228 255
207 228 255
207 228 255
207 228 255
207 228 255
207 228 255
207 228 255
207 228 255
207 227 255
207 227 255
207 227 255
207 227 255
207 227 255
207 227 255
207 227 255
206 227 255
206 227 255
206 227 255
206 227 255
206 227 255
206 227 255
206 227 255
206 227 255
206 227 255
206 227 255
206 227 255
206 227 255
206 227 255
206 227 255
206 227 255
206 227 255
201 222 252
173 194 232
128 152 203
75 106 177
58 93 169
57 92 169
59 94 171
59 94 171
59 94 171
58 93 170
58 93 170
58 93 170
58 92 168
58 92 169
58 92 169
59 93 170
59 93 170
58 93 169
58 92 168
58 92 168
58 93 170
58 93 170
58 93 168
59 94 171
58 92 169
58 93 169
58 92 169
58 93 170
58 92 169
58 93 170
58 93 169
58 93 170
70 102 175
125 148 201
172 193 231
201 222 251
206 227 255
206 227 255
206 227 255
206 227 255
206 227 255
206 227 255
206 227 255
206 227 255
206 227 255
206 227 255
206 227 255
206 227 255
206 227 255
206 227 255
206 227 255
206 227 255
207 227 255
207 227 255
207 227 255
207 227 255
207 227 255
207 227 255
207 227 255
207 228 255
207 228 255
207 228 255
207 228 255
207 228 255
207 228 255
207 228 255
207 228 255
207 228 255
207 228 255
207 228 255
207 228 255
207 228 255
207 228 255
207 228 255
207 228 255
207 228 255
207 228 255
208 228 255
208 228 255
208 228 255
208 228 255
208 228 255
208 228 255
208 228 255
208 228 255
208 228 255
208 228 255
208 228 255
208 228 255
208 228 255
208 228 255
208 228 255
208 228 255
208 228 255
208 228 255
208 228 255
208 228 255
208 228 255
208 228 255
209 228 255
209 229 255
209 229 255
189 204 219
143 145 127
129 126 83
133 129 85
133 129 84
138 135 89
138 136 90
141 138 91
140 137 90
141 138 91
142 139 92
144 142 94
143 141 93
142 139 92
145 143 95
144 142 94
146 144 96
146 144 96
147 145 96
147 145 97
147 145 96
147 146 97
149 146 97
150 148 98
149 147 98
150 148 99
151 149 99
150 148 99
149 147 98
150 148 99
151 149 99
151 149 100
151 150 100
153 150 100
154 151 101
151 150 100
152 150 100
153 151 101
154 152 101
152 150 100
152 150 100
154 152 101
153 150 100
153 150 100
155 152 101
154 152 101
152 150 99
154 152 101
155 153 101
154 151 100
156 154 102
153 151 100
154 151 100
155 152 100
154 151 100
155 152 100
154 151 100
156 152 101
155 151 100
154 150 99
152 149 99
155 152 100
156 152 100
153 149 98
156 152 100
154 150 99
153 149 98
157 153 101
156 152 100
155 151 99
156 152 100
155 150 98
154 150 98
155 151 100
153 149 97
154 149 97
153 149 98
153 148 97
155 150 99
154 150 98
153 148 97
153 148 96
154 149 97
155 150 98
156 151 99
153 149 97
153 148 96
154 149 97
153 148 96
152 147 96
152 147 95
153 147 96
154 149 97
153 148 96
151 146 95
152 147 96
152 146 95
150 145 95
150 144 93
150 145 94
151 146 95
151 145 94
148 143 93
148 143 93
150 145 94
146 140 91
148 142 91
148 142 92
151 145 94
148 143 92
145 139 89
146 140 90
146 140 90
146 140 89
144 137 87
144 138 88
180 201 228
180 201 228
179 200 228
179 200 228
179 200 228
178 200 228
178 200 228
178 199 228
177 199 228
177 199 228
177 199 228
176 199 228
176 199 228
176 199 228
175 198 228
175 198 228
175 198 228
175 198 228
174 198 228
174 198 228
174 197 228
174 197 228
173 197 228
173 197 228
173 197 228
172 197 228
172 197 228
172 197 228
172 196 228
172 196 228
171 196 228
171 196 228
171 196 228
171 196 228
170 196 228
170 196 228
170 195 228
170 195 228
170 195 228
169 195 228
169 195 228
169 195 228
168 195 228
168 195 228
168 194 228
168 194 228
168 194 228
167 194 228
167 194 228
167 194 228
167 194 228
167 194 228
166 194 228
166 193 228
166 193 228
166 193 228
166 193 228
165 193 228
165 193 228
165 193 228
165 193 228
165 193 228
164 193 228
164 192 228
164 192 228
164 192 228
164 192 228
164 192 228
163 192 228
163 192 228
163 192 228
163 192 228
163 192 228
163 192 228
163 192 228
163 192 228
162 192 228
162 192 228
162 192 228
162 191 228
162 191 228
162 191 228
162 191 228
162 191 228
162 191 228
162 191 228
162 191 228
162 191 228
162 191 228
162 191 228
162 191 228
162 191 228
162 192 228
162 192 228
163 192 228
163 192 228
163 192 228
163 192 228
163 192 228
164 192 228
164 192 228
164 193 228
165 193 228
165 193 228
166 193 228
166 193 228
167 194 228
167 194 228
168 194 228
169 195 228
170 195 228
171 196 228
172 197 228
174 197 228
174 196 226
164 184 210
174 193 218
203 222 249
209 229 255
209 229 255
209 229 255
209 229 255
209 229 255
209 228 255
208 228 255
208 228 255
208 228 255
208 228 255
208 228 255
208 228 255
208 228 255
208 228 255
208 228 255
208 228 255
208 228 255
208 228 255
208 228 255
208 228 255
208 228 255
208 228 255
208 228 255
208 228 255
208 228 255
208 228 255
208 228 255
208 228 255
207 228 255
207 228 255
207 228 255
207 228 255
207 228 255
207 228 255
207 228 255
207 228 255
207 228 255
207 228 255
207 228 255
207 228 255
207 228 255
207 228 255
207 228 255
207 228 255
207 228 255
207 228 255
207 228 255
207 228 255
207 228 255
207 227 255
207 227 255
207 227 255
207 227 255
207 227 255
207 227 255
207 227 255
207 227 255
206 227 255
206 227 255
206 227 255
206 227 255
206 227 255
183 204 238
131 154 205
70 101 174
58 92 170
58 93 170
57 91 167
57 92 168
59 93 169
59 93 170
58 93 168
58 93 169
58 93 168
59 94 170
58 93 168
58 93 168
59 94 170
58 93 169
58 93 168
59 94 170
59 94 171
59 93 169
58 92 167
59 93 169
59 94 170
59 93 170
58 93 168
58 92 168
58 92 167
58 93 169
58 93 169
58 92 168
58 92 168
58 92 168
58 93 169
59 94 170
58 92 169
58 93 170
68 100 174
136 159 208
185 206 240
206 227 255
206 227 255
206 227 255
206 227 255
206 227 255
207 227 255
207 227 255
207 227 255
207 227 255
207 227 255
207 227 255
207 227 255
207 227 255
207 228 255
207 228 255
207 228 255
207 228 255
207 228 255
207 228 255
207 228 255
207 228 255
207 228 255
207 228 255
207 228 255
207 228 255
207 228 255
207 228 255
207 228 255
207 228 255
207 228 255
207 228 255
207 228 255
207 228 255
207 228 255
208 228 255
208 228 255
208 228 255
208 228 255
208 228 255
208 228 255
208 228 255
208 228 255
208 228 255
208 228 255
208 228 255
208 228 255
208 228 255
208 228 255
208 228 255
208 228 255
208 228 255
208 228 255
208 228 255
208 228 255
208 228 255
208 228 255
209 228 255
209 229 255
209 229 255
209 229 255
209 229 255
209 229 255
199 217 240
156 162 157
126 121 79
135 131 86
135 131 86
137 133 87
138 134 88
140 137 90
141 138 91
143 140 92
144 141 93
144 141 93
144 141 93
143 141 93
146 144 95
145 143 94
145 143 95
147 145 97
149 147 97
147 144 95
151 150 100
148 146 97
149 147 98
150 148 98
151 149 99
151 149 99
152 150 99
150 148 98
151 150 100
153 152 101
152 151 101
152 150 100
152 151 101
154 152 102
153 151 101
152 150 100
155 153 102
150 148 98
153 151 100
153 150 100
153 151 101
154 152 101
152 150 100
153 151 100
155 152 101
154 151 100
154 152 101
153 151 100
155 152 101
156 153 102
155 153 101
154 152 100
156 153 101
157 155 103
155 152 101
153 151 100
156 152 100
155 151 99
156 153 101
155 152 100
155 152 101
156 153 101
157 153 101
155 152 100
156 153 101
155 152 100
158 154 101
155 151 100
156 151 99
157 153 100
155 151 99
157 152 100
156 152 100
154 150 98
155 151 99
155 150 98
156 151 100
156 151 99
154 150 99
159 154 101
155 151 99
155 151 98
156 152 99
158 152 99
155 150 98
153 148 97
155 150 98
156 150 97
154 150 98
156 151 98
154 149 97
155 150 98
155 150 98
153 148 96
153 147 96
153 148 97
152 146 96
155 149 97
152 146 95
150 145 94
156 150 97
154 149 97
154 148 96
152 145 94
149 143 93
152 146 95
152 146 94
148 143 92
148 142 92
149 143 92
151 145 94
147 140 90
151 144 93
148 141 90
145 139 88
146 140 90
146 140 90
146 140 89
180 201 228
179 200 228
179 200 228
179 200 228
178 200 228
178 200 228
178 200 228
177 199 228
177 199 228
177 199 228
177 199 228
177 199 228
176 199 228
176 199 228
176 198 228
176 198 228
175 198 228
175 198 228
174 198 228
174 198 228
174 198 228
174 198 228
173 197 228
173 197 228
173 197 228
173 197 228
173 197 228
172 197 228
172 197 228
172 196 228
172 196 228
171 196 228
171 196 228
171 196 228
171 196 228
170 196 228
170 196 228
170 195 228
169 195 228
169 195 228
169 195 228
169 195 228
169 195 228
168 195 228
168 194 228
168 194 228
168 194 228
168 194 228
167 194 228
167 194 228
167 194 228
167 194 228
167 194 228
166 194 228
166 193 228
166 193 228
166 193 228
166 193 228
165 193 228
165 193 228
165 193 228
165 193 228
165 193 228
164 193 228
164 193 228
164 192 228
164 192 228
164 192 228
164 192 228
164 192 228
163 192 228
163 192 228
163 192 228
163 192 228
163 192 228
163 192 228
163 192 228
162 192 228
162 192 228
162 192 228
162 191 228
162 191 228
162 191 228
162 191 228
162 191 228
162 191 228
162 191 228
162 191 228
162 191 228
162 191 228
162 191 228
162 191 228
162 191 228
162 191 228
162 192 228
162 192 228
163 192 228
163 192 228
163 192 228
163 192 228
163 192 228
164 192 228
164 192 228
164 193 228
165 193 228
165 193 228
166 193 228
166 194 228
167 194 228
168 194 228
168 195 228
169 195 228
170 196 228
171 196 228
173 197 228
174 198 228
171 193 222
165 184 210
185 204 229
208 227 254
209 229 255
209 229 255
209 229 255
209 229 255
209 229 255
209 229 255
209 229 255
209 229 255
209 228 255
209 228 255
208 228 255
208 228 255
208 228 255
208 228 255
208 228 255
208 228 255
208 228 255
208 228 255
208 228 255
208 228 255
208 228 255
208 228 255
208 228 255
208 228 255
208 228 255
208 228 255
208 228 255
208 228 255
208 228 255
208 228 255
208 228 255
208 228 255
208 228 255
207 228 255
207 228 255
207 228 255
207 228 255
207 228 255
207 228 255
207 228 255
207 228 255
207 228 255
207 228 255
207 228 255
207 228 255
207 228 255
207 228 255
207 228 255
207 228 255
207 228 255
207 228 255
207 228 255
207 228 255
207 228 255
207 228 255
207 228 255
207 228 255
204 225 254
167 188 227
104 129 189
58 92 169
58 93 170
58 92 168
58 93 170
58 92 168
58 93 169
58 93 169
58 93 168
59 94 169
58 93 169
58 92 167
59 93 169
58 93 168
58 93 168
58 93 167
58 92 167
59 93 169
58 93 167
57 91 165
59 93 168
59 93 169
59 94 169
59 93 168
58 93 167
58 92 167
58 92 167
59 93 168
58 93 167
58 93 168
58 93 167
58 93 168
58 93 169
58 93 169
59 93 170
58 93 168
58 93 169
58 93 169
58 92 168
58 93 168
58 93 168
102 127 187
170 191 229
205 225 254
207 227 255
207 228 255
207 228 255
207 228 255
207 228 255
207 228 255
207 228 255
207 228 255
207 228 255
207 228 255
207 228 255
207 228 255
207 228 255
207 228 255
207 228 255
207 228 255
207 228 255
207 228 255
207 228 255
207 228 255
207 228 255
207 228 255
207 228 255
207 228 255
208 228 255
208 228 255
208 228 255
208 228 255
208 228 255
208 228 255
208 228 255
208 228 255
208 228 255
208 228 255
208 228 255
208 228 255
208 228 255
208 228 255
208 228 255
208 228 255
208 228 255
208 228 255
208 228 255
208 228 255
208 228 255
208 228 255
208 228 255
209 228 255
209 228 255
209 229 255
209 229 255
209 229 255
209 229 255
209 229 255
209 229 255
209 229 255
209 229 255
208 228 254
174 185 192
133 130 93
131 127 83
135 131 86
136 133 87
137 133 87
137 134 88
142 139 91
141 138 92
143 140 93
143 140 92
144 141 93
144 141 93
145 143 95
146 143 95
147 145 97
148 145 96
147 145 96
149 146 97
150 148 99
150 148 98
149 147 98
150 148 98
151 149 100
151 149 99
152 150 100
152 150 100
150 148 98
153 151 101
152 150 100
151 149 99
154 152 102
153 152 101
153 151 100
153 152 101
153 152 101
153 151 101
154 153 102
156 154 103
154 151 100
154 152 101
156 153 102
155 153 102
154 152 101
155 153 102
156 154 102
155 153 102
157 154 102
157 154 102
154 152 101
156 153 101
155 152 101
158 155 103
154 151 100
156 153 101
158 155 103
154 151 100
155 153 102
156 154 102
157 154 102
158 155 102
157 153 101
155 152 101
157 153 101
157 154 102
155 151 99
158 153 101
154 150 99
157 153 101
155 151 99
157 153 101
156 152 100
157 153 100
157 152 100
156 152 100
157 153 101
159 154 101
156 151 99
155 150 99
158 153 100
157 153 101
154 150 99
158 153 100
155 150 99
157 152 99
157 152 99
156 151 99
155 150 98
156 151 99
158 152 99
157 151 98
154 148 96
155 149 97
156 151 98
157 151 98
156 150 98
156 151 98
154 148 97
156 150 97
153 148 96
156 150 98
151 145 94
157 151 98
153 147 95
153 147 95
148 142 92
151 145 94
151 146 94
151 145 94
151 145 94
150 145 93
151 144 92
147 141 91
149 142 91
150 144 93
148 142 91
147 140 90
146 140 90
146 140 89
180 201 228
180 201 228
179 200 228
179 200 228
178 200 228
178 200 228
178 200 228
177 199 228
177 199 228
177 199 228
177 199 228
176 199 228
176 199 228
176 199 228
176 199 228
175 198 228
175 198 228
175 198 228
175 198 228
174 198 228
174 198 228
174 198 228
174 197 228
173 197 228
173 197 228
173 197 228
173 197 228
173 197 228
172 197 228
172 196 228
172 196 228
172 196 228
171 196 228
171 196 228
171 196 228
170 196 228
170 196 228
170 195 228
170 195 228
170 195 228
169 195 228
169 195 228
169 195 228
169 195 228
169 195 228
168 195 228
168 194 228
168 194 228
168 194 228
167 194 228
167 194 228
167 194 228
167 194 228
166 194 228
166 194 228
166 193 228
166 193 228
166 193 228
166 193 228
165 193 228
165 193 228
165 193 228
165 193 228
165 193 228
164 193 228
164 193 228
164 192 228
164 192 228
164 192 228
164 192 228
163 192 228
163 192 228
163 192 228
163 192 228
163 192 228
163 192 228
163 192 228
163 192 228
163 192 228
163 192 228
162 192 228
162 192 228
162 191 228
162 191 228
162 191 228
162 191 228
162 191 228
162 191 228
162 191 228
162 191 228
162 191 228
162 191 228
162 191 228
162 191 228
162 191 228
162 192 228
162 192 228
163 192 228
163 192 228
163 192 228
163 192 228
163 192 228
164 192 228
164 192 228
164 192 228
165 193 228
165 193 228
165 193 228
166 193 228
167 194 228
167 194 228
168 194 228
169 195 228
170 195 228
171 196 228
172 197 228
174 197 228
175 198 228
171 192 220
168 187 212
197 216 242
209 229 255
209 229 255
209 229 255
209 229 255
209 229 255
209 229 255
209 229 255
209 229 255
209 229 255
209 229 255
209 229 255
209 229 255
209 228 255
209 228 255
208 228 255
208 228 255
208 228 255
208 228 255
208 228 255
208 228 255
208 228 255
208 228 255
208 228 255
208 228 255
208 228 255
208 228 255
208 228 255
208 228 255
208 228 255
208 228 255
208 228 255
208 228 255
208 228 255
208 228 255
208 228 255
208 228 255
208 228 255
208 228 255
208 228 255
207 228 255
207 228 255
207 228 255
207 228 255
207 228 255
207 228 255
207 228 255
207 228 255
207 228 255
207 228 255
207 228 255
207 228 255
207 228 255
207 228 255
207 228 255
205 225 254
164 186 226
92 119 183
58 93 170
58 93 169
59 94 169
58 92 168
59 93 169
58 92 167
59 93 168
59 94 169
58 92 167
59 94 170
59 93 168
58 93 165
58 93 166
58 92 167
58 93 167
58 92 166
59 93 167
58 93 167
59 94 167
59 93 167
58 92 167
58 93 168
58 93 166
58 93 167
58 92 167
59 94 168
58 93 167
58 93 167
59 93 166
58 92 166
59 94 169
59 93 167
59 93 167
59 93 169
59 93 169
59 93 169
59 93 168
58 92 166
58 93 168
58 92 167
58 92 167
58 93 168
58 92 166
58 92 167
88 115 179
166 187 226
206 227 255
207 228 255
207 228 255
207 228 255
207 228 255
207 228 255
207 228 255
207 228 255
207 228 255
207 228 255
207 228 255
207 228 255
207 228 255
207 228 255
207 228 255
207 228 255
208 228 255
208 228 255
208 228 255
208 228 255
208 228 255
208 228 255
208 228 255
208 228 255
208 228 255
208 228 255
208 228 255
208 228 255
208 228 255
208 228 255
208 228 255
208 228 255
208 228 255
208 228 255
208 228 255
208 228 255
208 228 255
208 228 255
208 228 255
208 228 255
208 228 255
209 228 255
209 229 255
209 229 255
209 229 255
209 229 255
209 229 255
209 229 255
209 229 255
209 229 255
209 229 255
209 229 255
209 229 255
209 229 255
209 229 255
194 209 227
144 146 128
133 129 84
136 131 86
139 135 89
137 133 87
139 135 88
140 137 90
142 139 92
144 141 94
145 142 94
145 143 94
144 141 93
146 144 95
144 141 94
147 145 97
147 145 96
149 147 98
147 145 97
149 147 97
150 147 98
151 149 99
150 148 98
151 149 100
151 149 99
152 151 100
153 150 100
151 150 100
154 152 101
154 152 101
153 151 101
154 152 102
156 154 103
154 152 102
156 154 103
153 151 100
157 155 103
155 153 102
155 153 102
155 153 102
156 154 102
154 152 101
155 152 101
157 155 103
156 154 102
155 153 102
156 154 102
156 153 101
157 155 103
157 155 103
157 154 102
156 153 101
159 156 104
156 153 102
154 151 100
157 154 102
157 154 102
157 155 102
157 154 101
157 154 101
157 153 100
157 154 101
157 154 101
159 155 102
158 154 101
159 155 102
158 155 102
155 151 99
156 152 100
158 154 101
156 152 100
157 152 100
155 150 98
159 155 102
158 153 100
158 153 100
158 153 100
159 154 101
157 152 99
158 153 100
157 153 101
158 153 100
157 151 99
159 154 101
158 152 99
158 153 100
156 151 98
158 153 100
158 154 100
157 152 99
156 151 98
152 147 96
156 150 98
158 153 100
156 151 98
156 151 98
154 148 96
156 150 98
157 151 98
156 150 97
154 148 96
153 147 95
156 150 97
154 148 96
152 147 95
154 148 96
152 145 94
154 149 97
154 148 95
154 148 96
150 145 93
153 147 95
153 147 95
150 145 94
146 141 90
150 144 92
152 146 93
149 143 92
150 143 92
152 146 93
149 142 91
180 201 228
179 200 228
179 200 228
179 200 228
179 200 228
178 200 228
178 200 228
178 199 228
177 199 228
177 199 228
177 199 228
176 199 228
176 199 228
176 199 228
176 199 228
176 198 228
175 198 228
175 198 228
175 198 228
174 198 228
174 198 228
174 198 228
174 198 228
174 198 228
173 197 228
173 197 228
173 197 228
172 197 228
172 197 228
172 197 228
172 196 228
172 196 228
172 196 228
171 196 228
171 196 228
171 196 228
170 196 228
170 196 228
170 195 228
170 195 228
169 195 228
169 195 228
169 195 228
169 195 228
169 195 228
169 195 228
168 195 228
168 195 228
168 194 228
168 194 228
167 194 228
167 194 228
167 194 228
167 194 228
167 194 228
166 194 228
166 194 228
166 193 228
166 193 228
166 193 228
165 193 228
165 193 228
165 193 228
165 193 228
165 193 228
165 193 228
164 193 228
164 193 228
164 192 228
164 192 228
164 192 228
164 192 228
164 192 228
163 192 228
163 192 228
163 192 228
163 192 228
163 192 228
163 192 228
163 192 228
163 192 228
162 192 228
162 192 228
162 192 228
162 192 228
162 191 228
162 191 228
162 191 228
162 191 228
162 191 228
162 191 228
162 191 228
162 191 228
162 191 228
162 191 228
162 191 228
162 192 228
162 192 228
163 192 228
163 192 228
163 192 228
163 192 228
163 192 228
164 192 228
164 192 228
164 192 228
165 193 228
165 193 228
165 193 228
166 193 228
166 194 228
167 194 228
168 194 228
169 195 228
169 195 228
170 196 228
172 196 228
173 197 228
174 198 228
173 195 225
166 186 212
181 199 224
208 227 254
209 229 255
209 229 255
209 229 255
209 229 255
209 229 255
209 229 255
209 229 255
209 229 255
209 229 255
209 229 255
209 229 255
209 229 255
209 229 255
209 229 255
209 229 255
209 229 255
209 228 255
209 228 255
208 228 255
208 228 255
208 228 255
208 228 255
208 228 255
208 228 255
208 228 255
208 228 255
208 228 255
208 228 255
208 228 255
208 228 255
208 228 255
208 228 255
208 228 255
208 228 255
208 228 255
208 228 255
208 228 255
208 228 255
208 228 255
208 228 255
208 228 255
208 228 255
208 228 255
208 228 255
208 228 255
208 228 255
207 228 255
207 228 255
207 228 255
207 228 255
207 228 255
175 196 232
100 126 187
57 92 167
58 92 168
57 92 167
58 93 168
59 93 169
58 93 168
58 93 168
59 93 168
58 93 167
58 92 165
59 94 168
58 92 164
58 92 166
59 94 167
59 93 167
59 93 167
58 93 165
59 93 166
58 93 166
59 94 167
59 93 167
58 92 164
58 92 166
58 92 165
59 93 167
59 93 166
59 93 167
58 92 165
59 93 166
58 93 165
59 93 167
58 92 165
58 93 165
58 93 164
59 93 168
59 93 167
58 93 167
59 94 167
59 93 167
58 92 164
59 93 166
59 93 168
59 93 168
58 92 166
57 91 166
59 93 168
58 92 166
58 92 166
97 123 183
174 195 231
207 228 255
207 228 255
207 228 255
207 228 255
207 228 255
207 228 255
208 228 255
208 228 255
208 228 255
208 228 255
208 228 255
208 228 255
208 228 255
208 228 255
208 228 255
208 228 255
208 228 255
208 228 255
208 228 255
208 228 255
208 228 255
208 228 255
208 228 255
208 228 255
208 228 255
208 228 255
208 228 255
208 228 255
208 228 255
208 228 255
208 228 255
208 228 255
208 228 255
209 228 255
209 228 255
209 229 255
209 229 255
209 229 255
209 229 255
209 229 255
209 229 255
209 229 255
209 229 255
209 229 255
209 229 255
209 229 255
209 229 255
209 229 255
209 229 255
209 229 255
209 229 255
207 226 252
173 183 187
132 128 87
134 130 85
139 136 89
138 134 87
137 134 88
142 138 91
142 139 91
142 139 92
145 142 94
144 141 93
147 145 96
147 144 96
146 143 95
147 145 96
149 146 97
150 147 97
150 147 98
147 144 96
148 146 97
152 149 99
151 150 100
152 151 101
151 149 99
153 151 101
152 150 100
153 151 101
153 151 101
153 150 100
153 151 101
154 153 102
154 152 102
155 154 103
154 152 101
155 154 103
156 154 103
157 155 103
154 151 100
155 153 102
155 153 101
158 155 103
158 156 104
155 153 102
157 155 103
156 154 102
157 155 103
158 155 103
157 154 102
157 154 102
157 155 103
158 156 103
157 154 102
157 155 103
160 157 104
159 156 103
156 153 101
157 154 102
157 153 101
157 154 101
159 155 102
158 154 102
159 155 102
159 155 102
159 156 103
159 155 101
159 155 102
158 154 102
158 154 101
158 153 100
160 156 103
160 155 102
157 153 100
157 153 100
158 154 101
159 155 101
159 155 102
157 152 100
158 153 100
160 156 102
160 155 101
158 153 99
159 154 100
158 153 100
159 154 100
159 153 100
159 154 101
161 156 102
159 153 100
157 152 99
160 154 100
160 154 100
153 148 96
158 153 99
156 150 97
157 152 99
157 151 99
155 149 97
156 150 98
155 149 96
155 150 97
154 149 97
156 150 97
157 150 97
156 149 97
156 149 96
156 150 97
153 148 96
157 151 98
153 148 95
152 146 94
152 146 94
155 149 96
153 146 94
154 148 95
153 146 94
151 145 93
149 142 91
153 146 94
152 145 93
150 144 92
149 143 91
150 144 91
180 201 228
179 200 228
179 200 228
179 200 228
178 200 228
178 200 228
178 200 228
178 200 228
178 200 228
177 199 228
177 199 228
177 199 228
177 199 228
176 199 228
176 199 228
176 198 228
175 198 228
175 198 228
175 198 228
175 198 228
174 198 228
174 198 228
174 198 228
174 197 228
173 197 228
173 197 228
173 197 228
173 197 228
173 197 228
172 197 228
172 197 228
172 196 228
172 196 228
171 196 228
171 196 228
171 196 228
171 196 228
170 196 228
170 196 228
170 196 228
170 195 228
170 195 228
169 195 228
169 195 228
169 195 228
169 195 228
169 195 228
168 195 228
168 194 228
168 194 228
168 194 228
168 194 228
167 194 228
167 194 228
167 194 228
167 194 228
166 194 228
166 194 228
166 193 228
166 193 228
166 193 228
166 193 228
165 193 228
165 193 228
165 193 228
165 193 228
165 193 228
165 193 228
165 193 228
164 193 228
164 192 228
164 192 228
164 192 228
164 192 228
164 192 228
163 192 228
163 192 228
163 192 228
163 192 228
163 192 228
163 192 228
163 192 228
163 192 228
163 192 228
162 192 228
162 192 228
162 192 228
162 192 228
162 192 228
162 191 228
162 191 228
162 191 228
162 191 228
162 191 228
162 192 228
162 192 228
162 192 228
162 192 228
163 192 228
163 192 228
163 192 228
163 192 228
163 192 228
163 192 228
164 192 228
164 192 228
164 192 228
165 193 228
165 193 228
165 193 228
166 193 228
166 193 228
167 194 228
168 194 228
168 195 228
169 195 228
170 195 228
171 196 228
172 197 228
174 198 228
176 198 228
170 191 219
170 189 214
201 220 245
209 229 255
209 229 255
209 229 255
209 229 255
209 229 255
209 229 255
209 229 255
209 229 255
209 229 255
209 229 255
209 229 255
209 229 255
209 229 255
209 229 255
209 229 255
209 229 255
209 229 255
209 229 255
209 229 255
209 229 255
209 229 255
209 229 255
209 228 255
208 228 255
208 228 255
208 228 255
208 228 255
208 228 255
208 228 255
208 228 255
208 228 255
208 228 255
208 228 255
208 228 255
208 228 255
208 228 255
208 228 255
208 228 255
208 228 255
208 228 255
208 228 255
208 228 255
208 228 255
208 228 255
208 228 255
208 228 255
208 228 255
208 228 255
194 214 245
114 138 194
58 92 167
58 93 169
59 93 169
58 92 167
58 92 166
59 94 168
58 92 166
59 93 165
59 94 168
58 93 167
59 93 166
58 92 165
59 94 168
59 93 165
58 92 165
58 93 166
58 92 164
59 94 167
59 94 167
58 93 166
58 93 165
58 92 165
59 94 168
59 93 166
58 93 165
59 93 167
59 93 166
58 92 165
59 94 167
59 93 167
58 92 164
59 93 166
59 93 165
58 92 165
58 92 165
59 94 167
59 94 168
58 93 165
58 93 165
59 93 166
59 93 166
59 93 166
58 93 166
58 92 165
58 93 166
58 92 166
58 93 166
58 92 166
58 93 167
58 92 166
58 92 165
58 92 166
115 139 193
192 213 244
208 228 255
208 228 255
208 228 255
208 228 255
208 228 255
208 228 255
208 228 255
208 228 255
208 228 255
208 228 255
208 228 255
208 228 255
208 228 255
208 228 255
208 228 255
208 228 255
208 228 255
208 228 255
208 228 255
208 228 255
208 228 255
208 228 255
208 228 255
208 228 255
208 228 255
209 228 255
209 229 255
209 229 255
209 229 255
209 229 255
209 229 255
209 229 255
209 229 255
209 229 255
209 229 255
209 229 255
209 229 255
209 229 255
209 229 255
209 229 255
209 229 255
209 229 255
209 229 255
209 229 255
209 229 255
209 229 255
209 229 255
209 229 255
198 215 235
147 149 131
133 128 84
135 131 85
139 135 88
140 136 89
138 135 89
140 137 90
139 135 89
143 140 92
144 142 94
143 141 93
147 144 95
145 142 94
147 144 95
149 146 97
149 146 97
149 146 97
151 149 99
151 149 99
155 153 101
154 152 101
152 150 100
152 149 99
153 150 100
152 150 100
152 150 100
153 151 100
153 152 101
151 150 100
154 152 101
155 153 102
154 152 101
156 154 103
156 154 103
154 152 101
155 153 101
158 156 104
155 153 102
154 152 101
157 155 103
156 154 102
155 153 102
157 154 102
158 156 103
156 153 102
160 157 104
157 154 102
159 156 104
159 157 104
159 156 104
158 155 103
159 157 104
158 156 103
158 155 103
158 155 102
159 156 104
158 154 102
159 156 103
158 155 102
158 154 102
157 154 102
160 156 103
159 155 102
158 154 102
160 156 103
160 156 103
159 155 102
157 153 101
160 156 102
158 154 101
158 154 101
158 153 101
160 156 103
159 155 102
159 154 101
158 153 100
160 155 102
159 155 102
159 154 101
161 156 102
156 151 98
161 156 102
160 155 101
157 152 99
158 153 100
159 154 100
161 156 102
159 153 100
161 155 101
158 152 99
160 155 101
160 154 101
159 153 100
157 151 98
158 152 98
157 151 99
158 152 98
159 153 99
159 153 99
158 152 99
158 151 98
159 152 98
158 153 99
155 149 96
155 149 97
154 148 95
158 152 98
156 150 97
155 149 97
155 149 96
154 148 96
159 152 98
153 147 94
153 147 95
155 148 95
153 147 94
153 147 95
152 146 94
150 144 93
151 144 92
149 142 91
150 144 92
152 146 93
180 201 228
180 201 228
179 200 228
179 200 228
178 200 228
179 200 228
178 200 228
178 200 228
178 199 228
177 199 228
177 199 228
177 199 228
177 199 228
176 199 228
176 199 228
176 199 228
176 198 228
176 198 228
175 198 228
175 198 228
175 198 228
174 198 228
174 198 228
174 198 228
174 197 228
174 197 228
173 197 228
173 197 228
173 197 228
172 197 228
172 197 228
172 197 228
172 197 228
172 196 228
171 196 228
171 196 228
171 196 228
171 196 228
170 196 228
170 196 228
170 196 228
170 195 228
170 195 228
170 195 228
169 195 228
169 195 228
169 195 228
169 195 228
168 195 228
168 195 228
168 195 228
168 194 228
168 194 228
168 194 228
167 194 228
167 194 228
167 194 228
167 194 228
167 194 228
166 194 228
166 194 228
166 193 228
166 193 228
166 193 228
165 193 228
165 193 228
165 193 228
165 193 228
165 193 228
165 193 228
164 193 228
164 193 228
164 193 228
164 192 228
164 192 228
164 192 228
164 192 228
163 192 228
163 192 228
163 192 228
163 192 228
163 192 228
163 192 228
163 192 228
163 192 228
163 192 228
163 192 228
163 192 228
162 192 228
162 192 228
162 192 228
162 192 228
162 192 228
162 192 228
162 192 228
162 192 228
162 192 228
163 192 228
163 192 228
163 192 228
163 192 228
163 192 228
163 192 228
163 192 228
163 192 228
164 192 228
164 192 228
164 193 228
165 193 228
165 193 228
165 193 228
166 193 228
166 194 228
167 194 228
167 194 228
168 195 228
169 195 228
170 196 228
171 196 228
172 197 228
174 197 228
175 198 228
174 196 225
166 185 211
189 207 232
210 229 255
210 229 255
210 229 255
210 229 255
210 229 255
209 229 255
209 229 255
209 229 255
209 229 255
209 229 255
209 229 255
209 229 255
209 229 255
209 229 255
209 229 255
209 229 255
209 229 255
209 229 255
209 229 255
209 229 255
209 229 255
209 229 255
209 229 255
209 229 255
209 229 255
209 229 255
209 229 255
209 228 255
209 228 255
208 228 255
208 228 255
208 228 255
208 228 255
208 228 255
208 228 255
208 228 255
208 228 255
208 228 255
208 228 255
208 228 255
208 228 255
208 228 255
208 228 255
208 228 255
208 228 255
207 227 254
153 175 217
66 98 170
58 93 168
58 93 167
58 93 166
58 92 165
58 92 167
58 93 166
58 93 167
58 92 164
58 93 166
58 92 165
58 92 165
59 93 166
59 93 167
58 92 165
58 93 165
59 93 166
58 92 164
59 93 166
58 93 165
59 93 165
59 93 165
58 92 163
59 94 167
58 93 165
59 93 165
59 93 166
59 93 165
58 93 164
58 92 165
58 92 164
59 94 166
58 93 164
58 93 165
59 94 166
58 92 165
58 93 166
58 92 164
59 94 166
59 93 166
59 94 167
59 93 165
58 92 165
59 93 167
58 92 163
59 94 167
58 92 165
59 94 166
58 92 164
58 92 165
59 93 166
58 91 163
58 92 165
58 91 164
57 91 163
69 99 168
155 176 217
207 227 255
208 228 255
208 228 255
208 228 255
208 228 255
208 228 255
208 228 255
208 228 255
208 228 255
208 228 255
208 228 255
208 228 255
208 228 255
208 228 255
208 228 255
208 228 255
208 228 255
209 228 255
209 228 255
209 229 255
209 229 255
209 229 255
209 229 255
209 229 255
209 229 255
209 229 255
209 229 255
209 229 255
209 229 255
209 229 255
209 229 255
209 229 255
209 229 255
209 229 255
209 229 255
209 229 255
209 229 255
209 229 255
209 229 255
209 229 255
209 229 255
210 229 255
210 229 255
210 229 255
210 229 255
210 229 255
183 195 205
134 131 96
132 127 83
136 132 87
138 134 87
139 134 88
143 139 92
144 140 92
144 140 93
143 140 92
145 141 93
148 146 97
147 144 95
147 144 95
150 147 97
149 147 97
150 147 98
150 147 98
152 149 99
150 147 98
152 150 100
153 150 100
151 149 99
152 150 100
152 150 100
153 151 100
156 154 103
157 155 103
155 152 102
155 153 102
156 154 103
157 155 103
157 155 103
155 152 101
154 152 101
157 155 104
157 155 103
156 154 103
156 153 102
158 156 103
158 155 103
159 157 104
159 157 104
157 155 103
156 153 102
160 157 105
158 156 103
159 157 104
159 157 104
159 156 104
160 157 105
158 156 103
160 157 103
159 156 104
160 158 105
158 155 102
160 157 104
158 155 102
161 157 104
161 157 104
159 156 103
160 156 103
159 155 102
160 157 103
161 157 104
162 158 104
161 157 103
160 156 103
161 156 103
160 156 103
160 156 102
162 158 104
161 157 103
162 158 104
162 157 102
161 157 103
160 155 101
162 157 102
160 155 101
158 153 100
163 158 104
159 154 101
162 156 101
160 154 100
159 154 100
160 155 101
161 155 101
161 156 101
160 155 101
163 157 103
160 154 100
160 155 101
160 153 99
160 154 100
159 153 99
160 154 100
157 152 99
158 153 100
158 151 98
159 153 99
160 154 100
160 153 99
157 151 98
158 152 98
157 151 98
157 150 97
156 150 96
159 153 98
154 148 95
155 149 96
157 151 97
154 148 96
156 149 96
156 150 96
155 149 96
154 148 96
156 150 96
154 148 94
154 148 95
151 145 93
151 145 93
152 145 92
153 146 93
151 144 92
151 145 93
180 201 228
180 201 228
179 200 228
179 200 228
179 200 228
178 200 228
178 200 228
178 200 228
178 200 228
178 200 228
177 199 228
177 199 228
177 199 228
176 199 228
176 199 228
176 199 228
176 199 228
176 198 228
175 198 228
175 198 228
175 198 228
175 198 228
174 198 228
174 198 228
174 198 228
174 197 228
174 197 228
173 197 228
173 197 228
173 197 228
173 197 228
172 197 228
172 197 228
172 197 228
172 196 228
172 196 228
171 196 228
171 196 228
171 196 228
171 196 228
170 196 228
170 196 228
170 196 228
170 195 228
170 195 228
170 195 228
169 195 228
169 195 228
169 195 228
169 195 228
169 195 228
168 195 228
168 195 228
168 194 228
168 194 228
167 194 228
167 194 228
167 194 228
167 194 228
167 194 228
167 194 228
167 194 228
166 194 228
166 194 228
166 193 228
166 193 228
165 193 228
165 193 228
165 193 228
165 193 228
165 193 228
165 193 228
165 193 228
164 193 228
164 193 228
164 192 228
164 192 228
164 192 228
164 192 228
164 192 228
164 192 228
163 192 228
163 192 228
163 192 228
163 192 228
163 192 228
163 192 228
163 192 228
163 192 228
163 192 228
163 192 228
163 192 228
163 192 228
163 192 228
163 192 228
163 192 228
163 192 228
163 192 228
163 192 228
163 192 228
163 192 228
163 192 228
163 192 228
163 192 228
163 192 228
164 192 228
164 192 228
164 192 228
165 193 228
165 193 228
165 193 228
165 193 228
166 193 228
167 194 228
167 194 228
168 194 228
168 195 228
169 195 228
170 195 228
171 196 228
172 197 228
173 197 228
175 198 228
176 199 228
167 187 214
177 195 220
207 227 253
210 229 255
210 229 255
210 229 255
210 229 255
210 229 255
210 229 255
210 229 255
210 229 255
210 229 255
209 229 255
209 229 255
209 229 255
209 229 255
209 229 255
209 229 255
209 229 255
209 229 255
209 229 255
209 229 255
209 229 255
209 229 255
209 229 255
209 229 255
209 229 255
209 229 255
209 229 255
209 229 255
209 229 255
209 229 255
209 229 255
209 229 255
209 229 255
209 229 255
209 228 255
209 228 255
208 228 255
208 228 255
208 228 255
208 228 255
208 228 255
208 228 255
208 228 255
195 215 245
111 135 191
58 92 167
57 92 165
58 93 167
58 93 166
58 92 165
58 93 166
58 93 164
58 93 165
58 93 164
59 93 164
59 93 165
58 92 164
58 92 164
58 92 163
58 93 164
58 92 162
59 93 164
58 93 164
59 94 164
58 92 163
58 92 164
59 93 166
58 93 165
59 93 164
58 93 164
58 93 164
59 93 165
58 92 162
59 93 165
59 93 164
58 93 164
58 92 164
58 92 162
58 92 164
58 92 163
59 93 163
59 94 166
59 93 165
59 93 165
59 93 165
59 93 165
58 93 164
58 92 163
58 92 163
58 93 165
59 93 165
58 93 165
59 93 164
58 93 163
58 92 164
58 92 164
59 94 166
58 92 164
58 92 163
58 92 162
57 91 163
58 92 165
57 91 163
110 134 188
194 214 245
208 228 255
208 228 255
208 228 255
208 228 255
208 228 255
208 228 255
209 228 255
209 228 255
209 228 255
209 229 255
209 229 255
209 229 255
209 229 255
209 229 255
209 229 255
209 229 255
209 229 255
209 229 255
209 229 255
209 229 255
209 229 255
209 229 255
209 229 255
209 229 255
209 229 255
209 229 255
209 229 255
209 229 255
209 229 255
209 229 255
209 229 255
209 229 255
209 229 255
210 229 255
210 229 255
210 229 255
210 229 255
210 229 255
210 229 255
210 229 255
210 229 255
210 229 255
207 226 251
164 171 168
128 123 80
137 132 86
137 133 86
140 136 89
144 139 91
141 137 90
144 140 92
145 142 94
146 142 94
146 143 95
148 145 95
147 144 95
151 148 98
150 147 97
151 147 97
154 151 100
151 148 98
150 148 99
153 150 99
152 149 99
152 150 99
153 151 100
155 152 101
154 152 101
154 152 101
156 154 103
156 153 102
155 152 101
156 154 102
155 153 102
157 154 102
158 155 103
158 156 104
158 156 104
159 156 103
158 156 104
158 156 104
160 158 106
157 155 103
158 155 103
158 155 103
158 155 103
159 156 103
159 156 104
161 158 105
160 157 104
162 159 105
162 159 105
159 157 104
160 158 105
159 156 103
163 160 106
160 157 104
160 157 104
161 157 104
160 157 104
161 158 104
160 156 103
161 157 103
163 158 104
162 158 104
160 156 103
161 157 104
162 158 104
163 159 105
161 157 103
161 157 103
163 159 105
161 156 103
163 158 104
162 157 103
163 159 104
161 156 102
160 155 101
162 157 103
165 160 105
161 156 102
160 155 101
161 156 102
162 157 103
162 157 103
160 155 101
163 157 102
163 157 102
162 156 101
159 154 100
162 156 102
162 157 102
159 154 100
162 156 101
161 155 100
160 154 101
161 155 100
159 153 99
161 155 101
163 157 102
161 154 100
160 154 99
160 154 100
159 153 99
160 154 99
159 154 100
157 151 98
160 153 100
159 152 98
158 152 98
159 152 98
158 152 98
156 150 97
158 151 97
160 153 99
156 149 96
156 150 96
158 151 97
158 152 96
153 147 94
156 149 96
156 149 95
154 147 94
155 148 94
153 147 94
153 147 94
154 148 95
151 145 92
152 145 92
180 201 228
180 201 228
179 200 228
179 200 228
179 200 228
179 200 228
178 200 228
178 200 228
178 200 228
178 200 228
177 199 228
177 199 228
177 199 228
177 199 228
177 199 228
176 199 228
176 199 228
176 199 228
176 198 228
176 198 228
175 198 228
175 198 228
175 198 228
174 198 228
174 198 228
174 198 228
174 197 228
174 197 228
174 197 228
173 197 228
173 197 228
173 197 228
172 197 228
173 197 228
172 197 228
172 196 228
172 196 228
172 196 228
171 196 228
171 196 228
171 196 228
171 196 228
171 196 228
170 196 228
170 196 228
170 195 228
170 195 228
169 195 228
169 195 228
169 195 228
169 195 228
169 195 228
169 195 228
168 195 228
168 195 228
168 194 228
168 194 228
167 194 228
167 194 228
167 194 228
167 194 228
167 194 228
167 194 228
167 194 228
166 194 228
166 194 228
166 193 228
166 193 228
166 193 228
165 193 228
165 193 228
165 193 228
165 193 228
165 193 228
165 193 228
165 193 228
164 193 228
164 193 228
164 192 228
164 192 228
164 192 228
164 192 228
164 192 228
164 192 228
164 192 228
163 192 228
163 192 228
163 192 228
163 192 228
163 192 228
163 192 228
163 192 228
163 192 228
163 192 228
163 192 228
163 192 228
163 192 228
163 192 228
163 192 228
163 192 228
163 192 228
163 192 228
163 192 228
163 192 228
164 192 228
164 192 228
164 192 228
164 192 228
164 193 228
165 193 228
165 193 228
165 193 228
166 193 228
166 193 228
166 194 228
167 194 228
168 194 228
168 195 228
169 195 228
170 195 228
171 196 228
172 196 228
173 197 228
175 198 228
176 199 228
172 192 219
169 187 212
203 221 247
210 229 255
210 229 255
210 229 255
210 229 255
210 229 255
210 229 255
210 229 255
210 229 255
210 229 255
210 229 255
210 229 255
210 229 255
210 229 255
210 229 255
209 229 255
209 229 255
209 229 255
209 229 255
209 229 255
209 229 255
209 229 255
209 229 255
209 229 255
209 229 255
209 229 255
209 229 255
209 229 255
209 229 255
209 229 255
209 229 255
209 229 255
209 229 255
209 229 255
209 229 255
209 229 255
209 229 255
209 229 255
209 229 255
209 229 255
209 229 255
172 193 230
77 106 174
57 91 165
58 92 166
58 93 167
58 92 165
58 92 164
58 92 165
58 92 165
58 93 165
59 93 165
59 93 165
59 93 164
58 92 163
59 93 164
59 93 165
58 92 163
58 92 162
58 92 162
59 94 165
59 93 164
59 94 165
58 92 162
59 93 164
59 93 164
58 92 163
59 93 163
59 93 164
59 93 165
59 94 165
58 92 160
58 92 163
59 93 164
58 92 162
59 93 162
58 93 163
59 94 164
58 93 162
59 93 164
59 93 164
58 92 161
58 92 161
59 93 163
58 92 162
58 92 162
59 93 164
58 92 162
58 93 163
58 92 162
58 93 162
59 93 164
58 92 163
59 93 164
58 92 163
58 92 164
57 91 161
58 91 161
58 92 163
58 91 161
58 92 163
57 91 162
58 91 163
73 102 167
174 195 230
209 229 255
209 229 255
209 229 255
209 229 255
209 229 255
209 229 255
209 229 255
209 229 255
209 229 255
209 229 255
209 229 255
209 229 255
209 229 255
209 229 255
209 229 255
209 229 255
209 229 255
209 229 255
209 229 255
209 229 255
209 229 255
209 229 255
209 229 255
209 229 255
209 229 255
209 229 255
210 229 255
210 229 255
210 229 255
210 229 255
210 229 255
210 229 255
210 229 255
210 229 255
210 229 255
210 229 255
210 229 255
210 229 255
210 229 255
210 229 255
202 219 241
150 152 136
130 126 82
135 131 85
137 133 87
139 135 89
141 138 91
143 139 92
148 144 95
146 142 93
147 143 94
147 144 95
148 144 95
151 148 98
150 147 98
148 146 96
150 147 98
152 149 99
152 149 99
151 148 98
153 151 100
155 152 101
155 153 101
154 151 100
155 152 101
156 154 102
157 154 102
156 153 102
156 153 101
155 153 101
157 154 102
157 154 102
158 156 103
157 155 103
158 156 104
158 155 103
158 155 103
158 155 103
160 158 105
161 158 105
161 158 105
158 155 103
159 156 104
160 157 104
161 158 104
160 157 104
160 156 103
162 159 106
161 158 105
161 158 105
161 158 105
160 157 103
162 159 106
161 158 104
160 156 103
161 157 104
161 157 104
162 159 105
159 155 102
163 159 105
161 158 104
162 158 104
161 156 103
162 158 104
161 157 103
162 157 103
162 157 103
163 158 104
163 158 104
163 158 104
161 156 102
163 158 103
163 159 104
163 159 105
163 158 104
164 159 104
162 157 102
162 156 102
163 158 103
162 157 103
162 157 103
162 156 102
163 157 102
163 157 103
162 157 102
162 157 102
163 157 102
165 158 102
164 158 103
162 156 102
162 157 103
164 157 102
161 155 101
160 154 100
162 156 102
160 154 99
161 155 101
161 155 100
162 155 101
162 156 101
161 155 100
161 154 100
159 153 99
161 155 100
160 154 100
161 154 100
158 151 97
159 153 99
164 157 101
160 153 98
159 152 98
158 151 97
156 149 95
157 150 96
158 151 97
158 151 96
157 151 97
157 151 97
157 150 95
155 148 95
155 148 94
155 149 95
156 149 95
153 147 94
153 147 93
151 144 92
153 147 93
151 144 92
180 201 228
180 201 228
180 201 228
179 200 228
179 200 228
179 200 228
179 200 228
178 200 228
178 200 228
178 200 228
178 200 228
177 199 228
177 199 228
177 199 228
177 199 228
176 199 228
176 199 228
176 199 228
176 199 228
176 199 228
175 198 228
175 198 228
175 198 228
175 198 228
174 198 228
175 198 228
174 198 228
174 198 228
174 198 228
173 197 228
173 197 228
173 197 228
173 197 228
173 197 228
173 197 228
172 197 228
172 197 228
172 197 228
172 196 228
172 196 228
171 196 228
171 196 228
171 196 228
171 196 228
171 196 228
170 196 228
170 196 228
170 196 228
170 195 228
170 195 228
169 195 228
169 195 228
169 195 228
169 195 228
169 195 228
168 195 228
168 195 228
168 194 228
168 194 228
168 194 228
167 194 228
167 194 228
167 194 228
167 194 228
167 194 228
167 194 228
166 194 228
166 193 228
166 194 228
166 193 228
166 193 228
166 193 228
166 193 228
165 193 228
165 193 228
165 193 228
165 193 228
165 193 228
165 193 228
164 193 228
164 193 228
164 193 228
164 192 228
164 192 228
164 192 228
164 192 228
164 192 228
164 192 228
164 192 228
164 192 228
163 192 228
163 192 228
163 192 228
163 192 228
163 192 228
163 192 228
163 192 228
163 192 228
163 192 228
163 192 228
163 192 228
164 192 228
163 192 228
164 192 228
164 192 228
164 192 228
164 192 228
164 192 228
164 193 228
165 193 228
165 193 228
165 193 228
165 193 228
166 193 228
166 194 228
167 194 228
167 194 228
168 194 228
168 195 228
169 195 228
170 195 228
171 196 228
172 197 228
173 197 228
175 198 228
176 199 228
175 196 224
169 188 212
198 217 242
210 229 255
210 229 255
210 229 255
210 229 255
210 229 255
210 229 255
210 229 255
210 229 255
210 229 255
210 229 255
210 229 255
210 229 255
210 229 255
210 229 255
210 229 255
210 229 255
210 229 255
210 229 255
210 229 255
210 229 255
209 229 255
209 229 255
209 229 255
209 229 255
209 229 255
209 229 255
209 229 255
209 229 255
209 229 255
209 229 255
209 229 255
209 229 255
209 229 255
209 229 255
209 229 255
209 229 255
209 229 255
208 228 255
148 169 212
59 93 168
58 93 167
58 93 166
58 92 166
58 92 164
58 92 165
58 92 164
58 93 165
59 93 164
58 92 162
58 92 163
58 92 164
58 93 164
58 92 161
58 92 163
58 92 162
59 93 164
58 92 161
58 93 163
58 93 162
58 93 162
59 93 162
59 93 162
59 94 164
58 93 161
58 93 162
59 93 163
58 93 162
58 92 160
59 93 163
59 93 164
59 93 164
58 92 161
59 93 162
58 92 160
58 93 160
58 93 162
59 93 161
59 93 163
59 94 163
58 92 161
58 93 161
59 93 163
59 93 162
59 93 162
59 94 163
59 93 163
58 92 163
58 92 162
58 92 160
59 93 164
58 93 163
58 92 162
58 92 162
58 92 161
58 92 162
58 92 162
57 90 159
57 91 160
58 91 163
57 91 161
57 91 160
57 91 163
58 91 162
145 166 208
208 228 255
209 229 255
209 229 255
209 229 255
209 229 255
209 229 255
209 229 255
209 229 255
209 229 255
209 229 255
209 229 255
209 229 255
209 229 255
209 229 255
209 229 255
209 229 255
209 229 255
209 229 255
210 229 255
210 229 255
210 229 255
210 229 255
210 229 255
210 229 255
210 229 255
210 229 255
210 229 255
210 229 255
210 229 255
210 229 255
210 229 255
210 229 255
210 229 255
210 229 255
210 229 255
210 229 255
210 229 255
210 229 255
193 208 225
138 136 105
136 131 85
139 134 88
139 135 89
139 135 88
145 141 93
142 139 91
146 142 93
146 143 94
146 143 94
149 145 96
148 144 95
148 145 96
151 148 98
151 149 99
151 148 98
153 150 100
154 151 99
151 148 98
155 152 101
155 152 101
155 152 101
154 151 100
155 152 100
155 152 101
158 155 103
157 155 103
155 152 100
158 155 103
158 155 103
158 156 103
158 155 103
159 156 104
158 155 103
159 157 104
159 156 104
160 157 104
159 157 104
161 158 105
160 157 105
162 159 106
161 158 105
162 159 106
162 159 106
162 159 105
160 157 104
161 158 104
160 157 104
161 157 104
160 157 104
160 156 103
163 159 105
162 158 104
162 159 105
163 159 105
162 158 104
162 158 105
163 159 105
161 157 103
163 158 104
165 161 106
162 158 104
162 157 103
163 159 105
163 159 105
162 158 103
165 160 105
163 159 104
163 159 104
163 158 104
165 160 105
163 158 103
162 157 102
164 159 104
164 159 104
163 158 103
163 158 104
164 158 103
164 158 103
162 157 102
163 157 102
163 157 102
164 158 103
164 159 104
163 158 103
161 156 101
163 157 103
164 158 103
162 156 102
163 157 102
164 158 103
164 158 103
162 156 101
162 156 101
162 156 101
161 155 101
162 155 100
161 155 101
161 155 101
162 156 101
161 154 100
162 156 101
163 157 102
162 155 100
162 155 100
161 155 100
161 154 99
162 156 100
161 154 100
159 152 98
159 153 98
159 152 97
159 152 98
154 147 94
158 151 96
157 151 97
159 152 97
158 152 97
159 152 97
158 152 97
157 150 96
155 149 95
155 149 95
153 146 92
153 147 94
153 146 92
154 147 93
153 146 93
180 201 228
180 201 228
180 201 228
180 201 228
179 200 228
179 200 228
179 200 228
179 200 228
179 200 228
178 200 228
178 200 228
178 200 228
178 199 228
177 199 228
177 199 228
177 199 228
177 199 228
176 199 228
176 199 228
176 199 228
176 199 228
176 198 228
176 198 228
175 198 228
175 198 228
175 198 228
175 198 228
174 198 228
174 198 228
174 198 228
174 197 228
174 197 228
173 197 228
173 197 228
173 197 228
173 197 228
173 197 228
172 197 228
172 197 228
172 197 228
172 196 228
172 196 228
171 196 228
171 196 228
171 196 228
171 196 228
170 196 228
170 196 228
170 196 228
170 195 228
170 195 228
170 195 228
169 195 228
169 195 228
169 195 228
169 195 228
169 195 228
169 195 228
168 195 228
168 195 228
168 194 228
168 194 228
168 194 228
168 194 228
167 194 228
167 194 228
167 194 228
167 194 228
167 194 228
166 194 228
166 194 228
166 193 228
166 193 228
166 193 228
166 193 228
166 193 228
165 193 228
165 193 228
165 193 228
165 193 228
165 193 228
165 193 228
165 193 228
165 193 228
164 193 228
164 193 228
164 193 228
164 192 228
164 192 228
164 192 228
164 192 228
164 192 228
164 192 228
164 192 228
164 192 228
164 192 228
164 192 228
164 192 228
164 192 228
164 192 228
164 192 228
164 192 228
164 192 228
164 192 228
164 192 228
164 192 228
164 193 228
164 193 228
165 193 228
165 193 228
165 193 228
165 193 228
166 193 228
166 193 228
166 193 228
167 194 228
167 194 228
168 194 228
168 194 228
169 195 228
169 195 228
170 196 228
171 196 228
172 197 228
173 197 228
175 198 228
176 199 228
177 198 227
166 184 209
193 211 236
210 230 255
210 230 255
210 230 255
210 229 255
210 229 255
210 229 255
210 229 255
210 229 255
210 229 255
210 229 255
210 229 255
210 229 255
210 229 255
210 229 255
210 229 255
210 229 255
210 229 255
210 229 255
210 229 255
210 229 255
210 229 255
210 229 255
210 229 255
210 229 255
210 229 255
210 229 255
210 229 255
209 229 255
209 229 255
209 229 255
209 229 255
209 229 255
209 229 255
209 229 255
209 229 255
205 224 252
122 145 195
57 91 164
59 93 167
57 91 163
58 92 164
58 92 164
58 92 163
58 93 164
58 92 162
58 92 163
58 92 162
58 92 162
58 92 162
58 93 163
58 92 163
58 92 162
58 93 161
58 92 160
58 91 159
58 93 161
58 92 160
59 93 161
59 93 162
59 93 160
58 93 162
58 92 162
58 93 161
58 92 160
59 93 161
58 93 161
59 94 163
58 92 159
59 93 163
58 92 161
58 92 162
59 93 161
58 92 161
58 92 159
58 92 160
59 94 162
59 93 161
58 91 159
58 93 160
58 93 162
58 92 161
57 91 157
59 93 162
59 93 161
58 92 160
59 93 162
59 93 162
58 92 162
58 91 160
58 92 160
58 92 160
58 91 159
58 92 162
58 91 159
59 93 162
58 91 159
58 91 160
58 91 161
57 91 160
58 92 162
57 90 158
57 91 160
56 89 159
120 143 190
205 225 252
209 229 255
209 229 255
209 229 255
209 229 255
209 229 255
209 229 255
209 229 255
209 229 255
210 229 255
210 229 255
210 229 255
210 229 255
210 229 255
210 229 255
210 229 255
210 229 255
210 229 255
210 229 255
210 229 255
210 229 255
210 229 255
210 229 255
210 229 255
210 229 255
210 229 255
210 229 255
210 229 255
210 229 255
210 229 255
210 229 255
210 229 255
210 229 255
210 230 255
210 230 255
210 230 255
184 197 210
135 131 92
135 130 84
140 135 88
140 135 88
144 140 92
143 140 92
144 140 92
147 144 95
143 140 93
148 145 96
148 145 96
149 146 96
150 147 97
152 148 97
152 148 98
152 149 99
154 151 100
151 148 97
155 152 100
155 151 100
154 151 100
155 152 100
156 152 100
158 155 103
158 155 102
157 154 102
158 155 103
160 157 104
158 155 103
158 155 103
158 156 103
159 156 103
160 157 104
159 156 103
160 157 104
159 156 104
160 157 104
161 159 105
161 158 105
161 158 105
162 158 104
160 156 103
162 159 105
161 158 105
162 159 105
162 159 105
163 159 105
162 158 105
162 159 105
162 158 104
160 157 104
164 161 107
163 159 105
163 159 105
164 160 105
163 159 105
162 158 104
163 159 105
163 159 105
162 158 104
164 159 105
163 159 104
164 160 105
165 161 106
163 158 104
164 159 104
164 159 104
165 160 105
164 159 104
165 160 105
163 158 104
165 160 105
164 159 104
163 159 104
164 159 104
164 159 104
163 157 102
165 159 104
166 160 105
164 158 103
165 160 104
162 157 102
165 159 104
163 157 102
162 156 101
165 159 104
164 158 103
163 157 102
163 157 102
164 158 103
165 159 103
164 158 102
165 159 104
163 156 102
165 159 103
163 157 102
164 157 102
162 155 100
163 157 102
163 156 100
163 157 101
163 156 101
163 156 101
159 153 99
161 155 100
162 155 100
162 155 100
162 155 99
161 155 99
159 153 98
158 151 97
161 154 99
160 153 98
161 154 99
158 151 96
158 152 97
161 154 98
158 151 96
160 153 97
158 151 96
157 149 95
157 150 95
155 149 94
156 149 96
156 149 94
156 149 95
157 150 95
154 147 92
156 149 94
181 201 228
180 201 228
180 201 228
180 201 228
179 201 228
179 200 228
179 200 228
179 200 228
179 200 228
179 200 228
178 200 228
178 200 228
178 200 228
178 200 228
177 199 228
177 199 228
177 199 228
177 199 228
177 199 228
176 199 228
176 199 228
176 199 228
176 199 228
176 198 228
175 198 228
175 198 228
175 198 228
175 198 228
175 198 228
174 198 228
174 198 228
174 198 228
174 198 228
173 197 228
173 197 228
173 197 228
173 197 228
173 197 228
173 197 228
172 197 228
172 197 228
172 197 228
172 196 228
172 196 228
171 196 228
171 196 228
171 196 228
171 196 228
171 196 228
170 196 228
170 196 228
170 196 228
170 195 228
170 195 228
170 195 228
169 195 228
169 195 228
169 195 228
169 195 228
169 195 228
168 195 228
168 195 228
168 195 228
168 194 228
168 194 228
168 194 228
167 194 228
167 194 228
167 194 228
167 194 228
167 194 228
167 194 228
167 194 228
166 194 228
166 194 228
166 193 228
166 193 228
166 193 228
166 193 228
165 193 228
165 193 228
165 193 228
165 193 228
165 193 228
165 193 228
165 193 228
165 193 228
165 193 228
165 193 228
164 193 228
164 193 228
164 193 228
164 193 228
164 192 228
164 192 228
164 192 228
164 192 228
164 192 228
164 192 228
164 192 228
164 192 228
164 192 228
164 193 228
164 193 228
164 193 228
165 193 228
164 193 228
165 193 228
165 193 228
165 193 228
165 193 228
165 193 228
166 193 228
166 193 228
166 194 228
166 194 228
167 194 228
167 194 228
168 194 228
168 195 228
169 195 228
170 195 228
170 196 228
171 196 228
172 197 228
173 197 228
175 198 228
176 199 228
178 199 228
169 188 213
188 206 231
211 230 255
211 230 255
211 230 255
211 230 255
211 230 255
211 230 255
210 230 255
210 230 255
210 230 255
210 229 255
210 229 255
210 229 255
210 229 255
210 229 255
210 229 255
210 229 255
210 229 255
210 229 255
210 229 255
210 229 255
210 229 255
210 229 255
210 229 255
210 229 255
210 229 255
210 229 255
210 229 255
210 229 255
210 229 255
210 229 255
210 229 255
210 229 255
210 229 255
202 222 250
104 129 185
58 92 165
57 91 164
58 92 164
58 92 163
58 93 164
58 92 163
58 92 162
58 92 162
59 93 163
58 91 160
58 92 160
58 93 163
58 93 162
59 94 164
59 93 162
58 92 159
58 92 159
58 92 160
58 93 160
59 93 162
58 93 161
59 93 162
58 92 159
59 93 162
59 93 160
58 92 159
58 92 160
58 92 159
58 92 159
59 93 162
58 92 159
58 92 159
58 92 160
58 93 160
58 93 159
57 91 157
58 92 158
58 92 159
58 92 159
59 93 161
58 92 158
58 93 161
58 92 159
58 93 161
58 93 160
58 92 159
58 92 158
58 92 159
58 92 159
58 92 160
58 92 159
58 92 160
57 91 156
58 92 160
58 92 160
57 90 156
58 92 161
57 91 157
58 92 159
58 91 159
57 91 158
57 90 157
58 92 160
57 90 157
57 89 156
58 91 160
57 91 160
57 89 158
109 133 186
203 222 250
210 229 255
210 229 255
210 229 255
210 229 255
210 229 255
210 229 255
210 229 255
210 229 255
210 229 255
210 229 255
210 229 255
210 229 255
210 229 255
210 229 255
210 229 255
210 229 255
210 229 255
210 229 255
210 229 255
210 229 255
210 229 255
210 229 255
210 229 255
210 229 255
210 230 255
210 230 255
210 230 255
211 230 255
211 230 255
211 230 255
211 230 255
211 230 255
211 230 255
178 189 196
132 127 83
137 131 85
137 132 86
143 139 91
141 136 88
144 140 92
144 140 92
146 142 93
147 143 94
145 141 93
151 147 97
146 143 95
149 146 97
153 150 99
151 148 97
151 148 98
152 149 99
151 148 98
154 151 100
156 153 101
153 149 99
156 153 102
158 155 103
157 154 102
156 153 101
158 155 103
159 156 103
158 154 102
161 158 104
159 157 104
161 158 104
161 158 105
160 157 104
161 158 105
161 158 105
161 158 105
159 156 103
163 159 106
162 158 105
160 157 104
162 159 106
162 158 104
162 159 105
161 158 104
164 160 105
163 159 105
164 160 106
163 160 105
163 159 105
163 159 105
163 159 105
163 159 105
164 159 105
163 159 105
164 161 106
164 160 105
163 159 105
165 161 106
164 160 106
165 161 106
164 158 103
166 161 106
164 159 105
165 161 106
164 160 105
165 160 105
165 161 105
164 159 104
165 160 104
165 160 105
164 159 104
166 161 105
164 159 104
166 161 105
164 158 103
164 159 104
165 160 105
165 158 103
166 160 105
165 160 104
165 159 104
165 159 104
166 160 105
165 159 104
165 159 103
166 160 104
166 160 104
163 156 101
165 158 102
165 159 103
165 158 102
166 160 104
164 157 102
164 158 102
164 158 102
164 157 101
164 157 101
164 157 102
164 158 102
163 157 102
165 158 102
164 157 102
163 156 101
163 155 100
164 157 101
163 156 101
163 155 100
161 154 99
163 156 100
160 153 98
163 156 100
162 155 99
160 154 98
161 154 98
161 154 98
161 154 98
160 153 97
158 151 97
158 151 96
159 152 97
159 152 97
157 150 95
159 152 96
158 151 95
157 150 95
155 149 94
157 150 96
156 149 95
156 149 94
155 148 93
181 201 228
181 201 228
180 201 228
180 201 228
180 201 228
180 201 228
180 201 228
179 200 228
179 200 228
179 200 228
179 200 228
178 200 228
178 200 228
178 200 228
178 200 228
177 199 228
177 199 228
177 199 228
177 199 228
177 199 228
177 199 228
176 199 228
176 199 228
176 199 228
176 199 228
175 198 228
175 198 228
175 198 228
175 198 228
175 198 228
175 198 228
174 198 228
174 198 228
174 198 228
174 198 228
174 197 228
173 197 228
173 197 228
173 197 228
173 197 228
173 197 228
172 197 228
172 197 228
172 197 228
172 197 228
172 196 228
172 196 228
171 196 228
171 196 228
171 196 228
171 196 228
171 196 228
170 196 228
170 196 228
170 196 228
170 195 228
170 195 228
170 195 228
169 195 228
169 195 228
169 195 228
169 195 228
169 195 228
169 195 228
169 195 228
168 194 228
168 194 228
168 194 228
168 194 228
168 194 228
167 194 228
167 194 228
167 194 228
167 194 228
167 194 228
167 194 228
166 194 228
166 194 228
166 194 228
166 193 228
166 193 228
166 193 228
166 193 228
166 193 228
165 193 228
165 193 228
165 193 228
165 193 228
165 193 228
165 193 228
165 193 228
165 193 228
165 193 228
165 193 228
165 193 228
165 193 228
165 193 228
165 193 228
165 193 228
165 193 228
165 193 228
165 193 228
165 193 228
165 193 228
165 193 228
165 193 228
165 193 228
165 193 228
165 193 228
165 193 228
165 193 228
166 193 228
166 193 228
166 194 228
166 194 228
167 194 228
167 194 228
167 194 228
168 194 228
168 195 228
169 195 228
169 195 228
170 196 228
171 196 228
172 196 228
173 197 228
174 197 228
175 198 228
176 199 228
178 200 228
171 190 216
183 201 225
211 230 255
211 230 255
211 230 255
211 230 255
211 230 255
211 230 255
211 230 255
211 230 255
211 230 255
211 230 255
211 230 255
211 230 255
210 230 255
210 230 255
210 230 255
210 229 255
210 229 255
210 229 255
210 229 255
210 229 255
210 229 255
210 229 255
210 229 255
210 229 255
210 229 255
210 229 255
210 229 255
210 229 255
210 229 255
210 229 255
210 229 255
201 221 249
103 128 186
58 92 165
57 91 163
58 92 163
58 92 163
57 91 160
57 91 161
58 92 162
58 92 161
58 92 162
57 91 161
58 93 163
58 92 159
58 92 160
58 92 160
58 92 161
58 92 160
58 92 160
58 92 158
58 92 160
58 92 159
59 93 161
59 93 160
58 92 159
58 92 158
59 93 160
59 93 160
58 92 156
58 92 159
58 92 158
58 92 157
58 92 159
58 92 159
58 92 159
59 93 160
58 92 158
58 92 159
58 92 158
58 93 159
58 92 157
59 93 159
58 92 158
58 92 159
58 92 157
58 91 157
58 92 158
58 92 158
58 92 159
58 91 157
59 93 161
58 92 158
58 92 160
58 92 160
57 91 157
58 92 158
58 91 157
58 91 158
58 91 157
58 91 158
58 92 158
57 91 156
58 91 158
57 90 158
58 91 158
58 92 161
57 90 157
57 90 158
57 91 158
57 90 158
57 90 157
57 89 156
102 125 178
202 221 249
210 229 255
210 229 255
210 229 255
210 229 255
210 229 255
210 229 255
210 229 255
210 229 255
210 229 255
210 229 255
210 229 255
210 229 255
210 229 255
210 229 255
210 229 255
210 229 255
210 230 255
210 230 255
210 230 255
211 230 255
211 230 255
211 230 255
211 230 255
211 230 255
211 230 255
211 230 255
211 230 255
211 230 255
211 230 255
211 230 255
211 230 255
173 181 184
129 124 80
141 136 89
137 132 86
144 139 91
142 138 91
144 140 92
142 139 92
146 142 94
143 140 93
147 144 96
147 144 96
149 145 96
149 146 96
149 146 96
150 147 97
149 146 96
149 146 97
152 149 99
151 148 98
154 151 100
155 152 100
154 151 100
157 154 102
156 153 101
158 155 102
157 155 103
159 155 102
161 158 104
160 156 103
159 154 101
162 158 105
162 159 105
163 159 106
160 157 104
160 157 104
161 157 104
163 159 105
163 160 106
162 159 105
163 160 106
162 158 105
162 159 105
161 158 104
164 160 106
163 159 105
164 160 106
165 161 107
164 161 106
164 160 106
164 160 105
166 162 107
165 161 106
165 161 106
165 161 106
164 160 105
165 161 106
165 161 105
166 162 107
165 161 106
165 160 105
165 160 106
166 161 106
166 161 105
166 161 106
166 161 105
166 161 106
165 159 103
166 161 105
166 161 105
166 161 105
167 161 104
166 161 105
165 160 105
165 159 104
166 160 105
165 159 103
167 162 106
166 161 105
166 160 105
167 161 105
166 160 104
165 159 103
167 160 104
167 161 104
166 160 104
165 159 103
166 159 104
165 159 103
167 160 104
167 161 104
166 159 103
167 160 104
165 158 103
164 158 102
165 159 103
165 158 102
165 158 102
165 159 102
164 157 101
163 157 101
165 158 102
165 158 102
165 158 102
166 159 103
162 156 100
163 156 100
163 156 100
163 156 101
164 157 100
164 156 100
162 154 99
161 154 98
162 155 99
162 154 98
162 155 99
161 153 98
163 156 99
160 152 97
162 155 99
160 154 98
160 153 97
158 151 96
161 153 98
158 151 96
156 149 94
157 150 94
156 148 93
153 146 92
156 149 94
155 148 93
157 149 94
181 201 228
181 201 228
181 201 228
180 201 228
180 201 228
180 201 228
180 201 228
179 201 228
180 201 228
179 200 228
179 200 228
179 200 228
179 200 228
178 200 228
178 200 228
178 200 228
178 200 228
177 199 228
177 199 228
177 199 228
177 199 228
177 199 228
176 199 228
176 199 228
176 199 228
176 199 228
176 199 228
176 198 228
175 198 228
175 198 228
175 198 228
175 198 228
175 198 228
175 198 228
174 198 228
174 198 228
174 198 228
174 197 228
174 197 228
173 197 228
173 197 228
173 197 228
173 197 228
173 197 228
173 197 228
172 197 228
172 197 228
172 196 228
172 196 228
172 196 228
172 196 228
171 196 228
171 196 228
171 196 228
171 196 228
171 196 228
170 196 228
170 196 228
170 195 228
170 195 228
169 195 228
170 195 228
169 195 228
169 195 228
169 195 228
169 195 228
169 195 228
169 195 228
168 195 228
168 195 228
168 195 228
168 194 228
168 194 228
168 194 228
167 194 228
167 194 228
167 194 228
167 194 228
167 194 228
167 194 228
167 194 228
167 194 228
166 194 228
166 194 228
166 193 228
166 193 228
166 193 228
166 193 228
166 193 228
166 193 228
166 193 228
165 193 228
165 193 228
165 193 228
165 193 228
165 193 228
165 193 228
165 193 228
165 193 228
165 193 228
165 193 228
165 193 228
165 193 228
165 193 228
165 193 228
165 193 228
165 193 228
165 193 228
166 193 228
166 193 228
166 193 228
166 193 228
166 193 228
166 194 228
167 194 228
167 194 228
167 194 228
167 194 228
168 194 228
168 195 228
169 195 228
169 195 228
170 195 228
170 196 228
171 196 228
172 196 228
173 197 228
174 198 228
175 198 228
177 199 228
179 200 228
172 192 217
180 198 221
211 230 255
211 230 255
211 230 255
211 230 255
211 230 255
211 230 255
211 230 255
211 230 255
211 230 255
211 230 255
211 230 255
211 230 255
211 230 255
211 230 255
211 230 255
211 230 255
211 230 255
211 230 255
211 230 255
210 230 255
210 230 255
210 230 255
210 230 255
210 229 255
210 229 255
210 229 255
210 229 255
210 229 255
210 229 255
202 221 249
102 127 184
57 90 163
57 91 162
58 93 164
58 92 163
57 91 160
58 92 161
58 92 159
58 92 160
58 92 161
58 92 161
58 92 159
58 92 159
58 92 160
57 90 157
59 93 160
58 92 158
58 92 158
58 92 158
58 92 158
58 92 158
58 92 155
58 92 158
58 93 158
58 92 158
58 92 157
58 92 158
59 93 158
58 91 156
57 91 156
58 92 157
59 93 159
59 93 159
58 92 157
59 93 158
59 93 159
58 92 157
58 91 156
58 92 158
58 92 157
59 93 160
58 92 157
58 92 157
58 92 157
58 92 158
57 91 157
58 92 158
59 93 158
57 91 156
58 93 159
58 92 158
57 91 156
58 92 158
57 91 158
58 92 157
57 91 156
58 92 158
57 91 156
57 90 155
58 91 157
58 91 158
58 92 158
57 91 154
58 91 157
57 91 156
57 90 157
58 91 158
57 90 156
57 90 157
56 89 155
57 90 156
57 90 157
57 89 156
102 125 177
202 221 249
210 229 255
210 229 255
210 229 255
210 229 255
210 229 255
210 229 255
210 230 255
210 230 255
210 230 255
210 230 255
211 230 255
211 230 255
211 230 255
211 230 255
211 230 255
211 230 255
211 230 255
211 230 255
211 230 255
211 230 255
211 230 255
211 230 255
211 230 255
211 230 255
211 230 255
211 230 255
211 230 255
211 230 255
211 230 255
170 178 177
132 127 82
140 135 87
139 135 88
138 134 88
142 138 91
139 136 90
143 140 92
143 139 92
141 138 92
146 142 94
146 143 95
147 144 96
147 143 95
147 143 95
148 145 96
150 147 98
152 149 99
151 148 98
153 150 100
153 150 99
155 152 101
156 153 102
157 154 102
156 153 101
157 154 102
158 155 102
159 155 102
158 155 103
161 158 104
161 158 104
161 157 103
162 158 104
163 159 105
161 158 104
162 159 105
162 159 105
163 159 105
162 159 105
163 160 106
164 160 106
165 161 106
163 159 105
164 161 106
164 160 105
166 162 107
164 159 105
166 162 107
165 162 107
164 160 105
165 160 105
165 161 106
166 161 106
165 160 105
167 163 107
166 161 105
166 162 106
166 161 106
166 161 106
165 160 105
167 162 106
168 164 108
167 163 107
168 163 106
166 161 106
167 162 106
167 162 106
166 161 106
167 162 106
167 162 106
166 161 106
167 161 105
167 161 105
166 160 105
167 162 105
168 162 106
166 160 104
167 162 105
166 159 103
166 160 104
166 160 104
166 160 104
167 160 104
167 161 104
166 159 103
168 161 105
167 161 104
168 162 105
165 158 103
164 158 103
168 161 105
168 162 105
167 160 104
168 161 105
167 160 103
167 159 102
167 160 104
166 159 103
165 158 101
163 156 101
165 158 102
166 159 102
165 158 102
166 159 103
166 159 102
164 157 100
166 159 102
164 156 100
164 157 101
165 158 101
164 157 101
162 155 99
160 152 97
162 155 99
163 155 99
160 153 98
162 154 98
160 152 97
160 153 97
160 153 97
161 154 97
160 152 97
159 151 96
160 153 97
158 151 96
159 152 96
160 152 96
156 149 94
160 152 95
155 149 94
157 151 95
158 150 94
157 149 94
181 201 228
181 201 228
181 201 228
181 201 228
180 201 228
180 201 228
180 201 228
180 201 228
180 201 228
179 200 228
179 200 228
179 200 228
179 200 228
179 200 228
179 200 228
178 200 228
178 200 228
178 200 228
178 200 228
178 199 228
177 199 228
177 199 228
177 199 228
177 199 228
177 199 228
177 199 228
176 199 228
176 199 228
176 199 228
176 199 228
175 198 228
175 198 228
175 198 228
175 198 228
175 198 228
175 198 228
174 198 228
174 198 228
174 198 228
174 198 228
174 197 228
173 197 228
173 197 228
173 197 228
173 197 228
173 197 228
173 197 228
172 197 228
172 197 228
172 197 228
172 197 228
172 196 228
172 196 228
171 196 228
171 196 228
171 196 228
171 196 228
171 196 228
171 196 228
170 196 228
170 196 228
170 196 228
170 195 228
170 195 228
170 195 228
169 195 228
169 195 228
169 195 228
169 195 228
169 195 228
169 195 228
168 195 228
168 195 228
168 195 228
168 194 228
168 194 228
168 194 228
168 194 228
167 194 228
167 194 228
167 194 228
167 194 228
167 194 228
167 194 228
167 194 228
167 194 228
166 194 228
166 194 228
166 194 228
166 194 228
166 193 228
166 193 228
166 193 228
166 193 228
166 193 228
166 193 228
166 193 228
166 193 228
166 193 228
166 193 228
166 193 228
166 193 228
166 193 228
166 193 228
166 193 228
166 193 228
166 193 228
166 193 228
166 193 228
166 193 228
166 194 228
166 194 228
166 194 228
166 194 228
167 194 228
167 194 228
167 194 228
168 194 228
168 194 228
168 195 228
169 195 228
169 195 228
170 195 228
170 196 228
171 196 228
172 196 228
172 197 228
173 197 228
174 198 228
176 199 228
177 199 228
179 200 228
173 193 219
182 199 222
211 230 255
211 230 255
211 230 255
211 230 255
211 230 255
211 230 255
211 230 255
211 230 255
211 230 255
211 230 255
211 230 255
211 230 255
211 230 255
211 230 255
211 230 255
211 230 255
211 230 255
211 230 255
211 230 255
211 230 255
211 230 255
211 230 255
211 230 255
211 230 255
211 230 255
211 230 255
211 230 255
205 224 251
107 131 186
58 92 164
57 91 162
57 92 162
58 92 163
57 91 159
57 91 159
58 92 160
58 93 162
57 91 159
58 91 159
57 91 157
58 92 158
58 92 158
58 92 159
58 92 159
58 92 158
58 92 157
58 91 155
59 93 160
58 91 155
58 92 159
58 91 157
58 91 155
57 91 155
58 92 156
58 91 157
58 92 157
58 92 156
58 92 156
58 92 157
58 93 159
58 91 154
58 92 156
58 91 154
59 93 158
58 92 156
58 92 157
58 92 155
58 92 156
59 93 158
58 91 154
59 93 158
58 92 156
58 92 158
58 92 157
58 92 155
58 92 157
59 93 157
58 92 159
58 92 157
58 92 157
59 93 158
58 91 156
59 93 159
58 92 156
57 91 156
58 92 157
57 90 154
58 92 157
58 92 158
58 91 157
57 90 156
58 91 158
57 90 154
57 90 156
57 90 155
58 91 158
58 91 156
57 90 156
57 90 154
58 91 158
56 89 154
56 89 154
56 88 153
103 126 176
205 224 251
211 230 255
211 230 255
211 230 255
211 230 255
211 230 255
211 230 255
211 230 255
211 230 255
211 230 255
211 230 255
211 230 255
211 230 255
211 230 255
211 230 255
211 230 255
211 230 255
211 230 255
211 230 255
211 230 255
211 230 255
211 230 255
211 230 255
211 230 255
211 230 255
211 230 255
211 230 255
211 230 255
167 174 173
136 131 84
139 134 87
139 135 88
140 136 89
139 136 90
140 136 90
141 138 91
143 140 93
143 139 92
146 143 95
144 141 94
146 143 95
144 141 94
146 143 95
150 147 98
150 147 98
151 148 99
152 149 98
151 148 98
154 150 99
154 151 100
154 151 100
157 154 102
155 152 101
156 152 101
157 154 102
159 155 103
161 157 104
161 157 104
162 158 104
161 157 104
161 157 104
163 159 105
163 159 105
162 158 104
164 160 106
164 160 106
164 160 105
164 160 106
165 160 105
164 160 105
162 158 104
165 160 105
164 160 106
165 161 106
166 161 106
166 162 107
165 161 105
166 162 106
166 161 106
166 162 107
166 161 105
165 160 104
166 161 106
167 162 106
166 162 106
165 160 105
167 162 106
166 161 105
167 162 106
167 162 106
165 160 104
167 162 106
167 161 106
167 162 106
166 161 105
167 162 106
167 162 105
167 161 105
167 162 106
168 163 106
168 162 105
167 161 105
168 162 105
168 162 106
168 162 105
167 161 105
167 162 106
167 161 106
168 161 105
167 161 105
167 161 105
167 160 104
168 162 105
167 161 104
168 161 104
166 160 104
167 161 104
168 161 104
168 161 104
168 161 104
167 160 103
168 161 103
166 159 103
166 159 102
167 160 103
167 160 103
167 160 103
167 160 103
166 159 103
166 158 102
165 158 102
166 159 102
164 157 101
164 157 101
165 158 101
164 157 101
165 158 101
164 158 102
165 157 100
165 157 100
167 159 102
163 156 98
162 154 98
161 154 98
164 156 99
162 155 98
162 155 98
163 155 98
160 153 97
160 153 97
161 153 97
160 152 96
161 153 97
162 154 98
157 151 95
159 151 94
159 152 95
160 152 96
158 151 94
156 149 93
155 148 93
156 149 94
181 202 228
181 202 228
181 201 228
181 201 228
181 201 228
180 201 228
181 201 228
180 201 228
180 201 228
180 201 228
180 201 228
180 201 228
179 200 228
179 200 228
179 200 228
179 200 228
179 200 228
178 200 228
178 200 228
178 200 228
178 200 228
178 200 228
177 199 228
177 199 228
177 199 228
177 199 228
177 199 228
176 199 228
176 199 228
176 199 228
176 199 228
176 199 228
176 199 228
176 198 228
175 198 228
175 198 228
175 198 228
175 198 228
175 198 228
175 198 228
174 198 228
174 198 228
174 198 228
174 197 228
174 197 228
174 197 228
173 197 228
173 197 228
173 197 228
173 197 228
173 197 228
172 197 228
172 197 228
172 197 228
172 196 228
172 196 228
172 196 228
171 196 228
171 196 228
171 196 228
171 196 228
171 196 228
170 196 228
170 196 228
170 196 228
170 195 228
170 195 228
170 195 228
170 195 228
169 195 228
169 195 228
169 195 228
169 195 228
169 195 228
169 195 228
169 195 228
168 195 228
168 195 228
168 195 228
168 194 228
168 194 228
168 194 228
168 194 228
167 194 228
167 194 228
167 194 228
167 194 228
167 194 228
167 194 228
167 194 228
167 194 228
167 194 228
167 194 228
167 194 228
166 194 228
166 194 228
166 194 228
166 194 228
166 194 228
166 194 228
166 193 228
166 194 228
166 194 228
166 194 228
166 194 228
166 194 228
166 194 228
166 194 228
166 194 228
166 194 228
167 194 228
167 194 228
167 194 228
167 194 228
167 194 228
167 194 228
168 194 228
168 194 228
168 195 228
169 195 228
169 195 228
169 195 228
170 195 228
170 196 228
171 196 228
171 196 228
172 197 228
173 197 228
174 197 228
175 198 228
176 199 228
178 199 228
179 200 228
174 193 218
187 204 228
212 230 255
212 230 255
212 230 255
212 230 255
211 230 255
211 230 255
211 230 255
211 230 255
211 230 255
211 230 255
211 230 255
211 230 255
211 230 255
211 230 255
211 230 255
211 230 255
211 230 255
211 230 255
211 230 255
211 230 255
211 230 255
211 230 255
211 230 255
211 230 255
211 230 255
209 228 254
120 143 194
57 90 161
57 91 160
57 91 163
57 91 160
57 91 158
58 91 159
57 91 159
57 91 158
57 91 159
58 91 159
58 92 159
58 92 158
58 92 160
58 91 157
57 91 157
58 92 159
57 91 153
57 91 156
58 92 157
58 92 158
58 92 158
57 91 152
58 93 158
59 93 158
58 92 156
58 92 157
58 93 157
58 92 157
58 91 156
58 92 156
58 92 156
58 92 156
58 91 154
58 93 155
58 91 154
58 91 157
58 92 158
58 92 155
58 92 156
58 92 157
58 93 156
58 92 156
58 92 155
58 92 156
58 92 156
58 92 154
57 91 155
58 92 156
58 91 153
57 91 154
58 93 157
58 92 157
59 93 157
58 91 153
58 91 151
58 92 155
58 92 155
58 92 156
58 92 157
58 92 157
57 91 156
58 91 155
57 91 155
57 91 154
57 91 156
57 91 154
58 91 155
57 90 154
58 91 157
58 91 154
57 90 155
57 89 152
56 88 152
57 89 153
57 89 153
57 89 154
120 141 187
209 228 254
211 230 255
211 230 255
211 230 255
211 230 255
211 230 255
211 230 255
211 230 255
211 230 255
211 230 255
211 230 255
211 230 255
211 230 255
211 230 255
211 230 255
211 230 255
211 230 255
211 230 255
211 230 255
211 230 255
211 230 255
211 230 255
212 230 255
212 230 255
212 230 255
212 230 255
174 182 185
135 129 82
134 129 83
138 133 87
138 134 88
139 135 89
140 137 90
141 138 91
138 135 90
142 139 93
143 140 92
143 140 93
145 142 94
146 143 95
147 144 95
148 146 97
148 145 97
148 145 96
150 148 98
150 147 98
152 149 99
152 149 99
152 149 100
154 151 100
156 153 101
157 154 102
160 157 104
158 154 102
160 156 103
160 156 103
161 157 103
162 159 105
162 158 104
161 158 104
164 160 105
164 160 105
165 161 106
165 160 105
164 160 106
165 160 105
165 161 106
165 161 106
166 161 106
166 162 107
166 161 106
165 160 105
166 162 106
165 160 104
167 162 106
166 161 106
168 163 107
165 161 106
166 161 105
166 161 105
168 162 106
165 161 105
168 163 107
168 163 107
165 160 105
167 161 106
167 162 105
166 161 105
167 162 106
168 162 106
168 163 106
168 162 106
168 162 105
167 162 106
167 161 105
167 161 105
167 161 105
168 162 105
168 162 105
171 165 108
168 162 105
167 161 105
169 163 106
167 162 105
168 161 104
169 163 106
167 161 104
168 161 105
169 161 104
169 163 106
167 161 104
168 161 105
169 163 106
168 161 104
168 161 104
166 160 104
167 160 104
170 163 105
166 159 103
169 162 105
167 160 103
169 162 104
168 160 103
169 162 105
168 161 104
167 160 103
167 160 103
167 159 102
167 160 102
167 159 102
166 159 102
166 158 102
167 159 101
166 158 101
165 158 101
165 157 100
165 157 100
165 157 101
165 158 100
165 157 100
163 155 98
167 159 101
163 155 98
164 156 99
164 156 99
162 154 97
165 157 99
162 154 97
162 155 97
160 153 97
160 153 97
160 152 96
160 153 96
160 152 95
159 151 95
161 153 95
158 150 94
161 153 96
158 150 94
159 151 94
156 149 94
182 202 228
182 202 228
182 202 228
182 202 228
181 201 228
181 201 228
181 201 228
181 201 228
181 201 228
180 201 228
180 201 228
180 201 228
180 201 228
180 201 228
179 200 228
179 200 228
179 200 228
179 200 228
179 200 228
179 200 228
179 200 228
178 200 228
178 200 228
178 200 228
178 200 228
177 199 228
177 199 228
177 199 228
177 199 228
177 199 228
177 199 228
176 199 228
176 199 228
176 199 228
176 199 228
176 198 228
175 198 228
175 198 228
175 198 228
175 198 228
175 198 228
175 198 228
175 198 228
174 198 228
174 198 228
174 198 228
174 197 228
174 197 228
174 197 228
173 197 228
173 197 228
173 197 228
173 197 228
173 197 228
172 197 228
172 197 228
172 197 228
172 197 228
172 196 228
172 196 228
172 196 228
171 196 228
171 196 228
171 196 228
171 196 228
171 196 228
170 196 228
170 196 228
170 196 228
170 196 228
170 195 228
170 195 228
170 195 228
170 195 228
169 195 228
169 195 228
169 195 228
169 195 228
169 195 228
169 195 228
169 195 228
168 195 228
168 195 228
168 194 228
168 194 228
168 194 228
168 194 228
168 194 228
168 194 228
167 194 228
167 194 228
167 194 228
167 194 228
167 194 228
167 194 228
167 194 228
167 194 228
167 194 228
167 194 228
167 194 228
167 194 228
167 194 228
167 194 228
167 194 228
167 194 228
167 194 228
167 194 228
167 194 228
167 194 228
167 194 228
167 194 228
167 194 228
167 194 228
167 194 228
168 194 228
168 194 228
168 194 228
168 195 228
168 195 228
169 195 228
169 195 228
170 195 228
170 195 228
170 196 228
171 196 228
171 196 228
172 196 228
173 197 228
173 197 228
174 198 228
175 198 228
177 199 228
178 200 228
180 200 228
173 191 216
189 206 230
212 230 255
212 230 255
212 230 255
212 230 255
212 230 255
212 230 255
212 230 255
212 230 255
212 230 255
212 230 255
212 230 255
211 230 255
211 230 255
211 230 255
211 230 255
211 230 255
211 230 255
211 230 255
211 230 255
211 230 255
211 230 255
211 230 255
211 230 255
211 230 255
143 164 208
57 91 162
56 90 159
57 91 161
58 92 161
57 91 159
58 92 160
58 92 159
57 91 158
58 91 159
58 92 158
58 92 158
57 91 156
57 91 156
58 92 159
58 92 157
58 92 158
58 91 156
58 91 157
58 92 155
57 91 156
58 92 155
58 91 153
58 92 157
57 91 152
58 91 154
58 92 156
58 92 156
58 92 156
58 91 154
58 92 154
58 92 154
58 91 153
58 92 155
59 93 157
58 92 154
59 93 157
58 92 155
57 91 153
58 92 156
58 92 153
58 92 156
58 92 154
59 93 156
58 92 156
58 91 154
58 92 155
58 92 156
58 92 155
58 91 153
58 92 153
58 91 154
58 92 155
58 91 154
58 92 154
58 92 155
58 92 155
57 91 153
57 90 154
57 91 153
58 92 155
57 91 155
58 91 154
57 90 153
57 90 153
57 89 151
57 90 153
58 91 155
57 89 154
57 90 154
57 90 151
56 89 153
57 90 156
56 89 152
57 90 155
57 89 153
56 89 153
57 89 154
56 88 152
139 160 200
211 230 255
211 230 255
211 230 255
211 230 255
211 230 255
211 230 255
211 230 255
211 230 255
211 230 255
211 230 255
211 230 255
211 230 255
211 230 255
212 230 255
212 230 255
212 230 255
212 230 255
212 230 255
212 230 255
212 230 255
212 230 255
212 230 255
212 230 255
212 230 255
178 188 195
134 129 82
136 132 85
138 134 87
134 130 85
137 133 88
141 137 91
138 135 90
140 136 90
144 141 94
139 136 91
142 139 92
145 142 95
144 141 94
147 144 96
147 144 96
148 146 97
149 146 98
149 146 97
152 148 99
152 148 98
151 148 98
154 150 100
152 149 99
156 153 102
155 152 102
157 154 103
157 154 102
160 156 103
159 155 103
160 156 103
160 156 103
163 159 105
162 158 104
164 160 105
163 158 104
164 160 105
165 161 106
165 161 106
165 160 105
167 162 107
165 161 105
166 161 105
165 161 106
166 162 106
166 161 106
166 161 105
166 161 105
167 162 106
167 162 106
167 162 106
168 163 107
167 162 107
167 161 105
166 161 105
166 161 106
167 161 105
168 162 106
167 162 106
168 162 106
167 162 106
168 162 106
169 163 107
169 163 107
167 161 105
166 161 105
168 162 106
168 162 106
167 161 105
169 163 106
169 163 106
169 163 106
168 163 106
168 162 106
169 162 106
167 160 104
168 161 105
169 163 106
168 162 105
170 163 106
169 162 105
169 162 105
170 163 106
168 161 105
170 163 105
169 162 105
169 162 105
170 163 106
170 163 105
169 162 105
168 162 105
171 164 106
169 162 105
170 163 105
170 163 105
169 162 104
168 161 103
169 162 104
169 161 103
168 161 103
168 161 103
168 160 102
168 161 103
169 161 104
166 158 101
167 159 101
164 156 100
167 160 102
166 158 100
165 157 100
166 158 100
166 159 102
167 159 101
165 157 100
164 156 99
164 156 98
164 156 99
165 157 99
164 157 100
164 157 99
163 155 98
162 155 98
162 154 97
162 154 96
160 153 96
164 156 98
162 154 96
161 154 96
159 152 96
158 151 95
158 150 93
160 152 95
156 148 92
159 152 94
159 151 93
155 148 92
182 202 228
182 202 228
182 202 228
182 202 228
182 202 228
181 201 228
181 201 228
181 201 228
181 201 228
181 201 228
181 201 228
180 201 228
180 201 228
180 201 228
180 201 228
180 201 228
179 200 228
179 200 228
179 200 228
179 200 228
179 200 228
179 200 228
178 200 228
178 200 228
178 200 228
178 200 228
178 200 228
178 199 228
177 199 228
177 199 228
177 199 228
177 199 228
177 199 228
177 199 228
176 199 228
176 199 228
176 199 228
176 199 228
176 199 228
176 198 228
175 198 228
175 198 228
175 198 228
175 198 228
175 198 228
174 198 228
174 198 228
174 198 228
174 198 228
174 198 228
174 197 228
174 197 228
174 197 228
173 197 228
173 197 228
173 197 228
173 197 228
173 197 228
172 197 228
172 197 228
172 197 228
172 196 228
172 196 228
172 196 228
171 196 228
172 196 228
171 196 228
171 196 228
171 196 228
171 196 228
171 196 228
170 196 228
170 196 228
170 196 228
170 195 228
170 195 228
170 195 228
170 195 228
169 195 228
169 195 228
169 195 228
169 195 228
169 195 228
169 195 228
169 195 228
169 195 228
169 195 228
168 195 228
168 195 228
168 195 228
168 194 228
168 194 228
168 194 228
168 194 228
168 194 228
168 194 228
168 194 228
168 194 228
168 194 228
167 194 228
168 194 228
168 194 228
167 194 228
167 194 228
168 194 228
168 194 228
168 194 228
167 194 228
168 194 228
168 194 228
168 194 228
168 194 228
168 194 228
168 195 228
168 194 228
168 195 228
168 195 228
169 195 228
169 195 228
169 195 228
170 195 228
170 195 228
170 196 228
171 196 228
171 196 228
171 196 228
172 197 228
172 197 228
173 197 228
174 198 228
175 198 228
176 199 228
177 199 228
179 200 228
180 201 228
171 189 213
194 212 235
212 230 255
212 230 255
212 230 255
212 230 255
212 230 255
212 230 255
212 230 255
212 230 255
212 230 255
212 230 255
212 230 255
212 230 255
212 230 255
212 230 255
212 230 255
212 230 255
212 230 255
212 230 255
212 230 255
212 230 255
211 230 255
211 230 255
163 183 220
58 92 164
57 91 160
57 90 159
57 91 159
57 92 159
57 90 157
57 90 157
56 90 155
58 91 156
57 91 158
57 91 156
57 91 155
58 92 159
58 91 154
57 91 155
58 92 155
58 91 155
58 92 155
58 91 155
58 91 154
58 92 156
58 91 154
58 92 155
57 90 150
58 92 155
58 92 154
58 92 153
57 91 152
58 92 156
58 92 155
59 93 157
58 92 155
59 93 157
57 91 153
58 92 154
58 92 156
58 92 152
58 92 154
58 92 154
59 93 155
58 92 155
58 92 153
58 91 152
58 91 154
59 93 157
58 92 155
57 91 151
58 92 154
58 92 154
58 92 153
57 91 153
58 91 153
58 92 154
58 92 155
58 92 153
58 91 153
58 92 154
58 92 152
58 91 152
57 91 153
58 91 154
57 91 154
58 91 153
57 90 152
57 90 149
58 91 154
56 89 152
58 91 155
57 91 154
57 91 154
58 91 154
57 90 152
57 90 153
56 88 149
57 90 153
57 90 154
56 88 151
56 89 152
56 88 149
57 89 154
161 180 215
211 230 255
211 230 255
212 230 255
212 230 255
212 230 255
212 230 255
212 230 255
212 230 255
212 230 255
212 230 255
212 230 255
212 230 255
212 230 255
212 230 255
212 230 255
212 230 255
212 230 255
212 230 255
212 230 255
212 230 255
212 230 255
212 230 255
188 200 211
133 127 82
141 135 87
138 133 87
139 135 89
140 136 90
143 140 93
141 138 91
140 138 92
139 137 91
139 136 91
143 141 94
146 143 96
140 137 92
143 141 95
142 139 93
146 143 95
147 144 96
149 146 98
151 148 99
150 147 98
150 147 98
151 148 98
153 150 100
155 153 102
157 154 102
157 154 103
156 153 101
158 154 102
159 156 103
159 155 102
160 156 104
163 159 105
163 159 105
162 158 104
165 161 106
166 161 105
166 161 106
166 162 106
167 162 106
166 161 106
166 162 106
166 161 105
168 163 106
168 163 107
167 162 106
167 162 106
166 161 105
166 161 106
167 162 106
166 161 105
166 161 106
168 163 107
167 162 106
169 163 107
168 163 106
167 162 106
169 164 107
168 162 106
168 163 106
168 163 106
167 161 105
168 162 105
169 163 106
167 161 105
169 162 105
169 163 106
169 162 105
167 161 105
169 163 106
168 162 106
168 162 105
169 163 106
169 162 105
170 163 106
167 161 104
168 161 105
170 163 106
169 162 105
169 162 105
170 163 105
170 163 106
169 162 105
170 163 106
171 164 106
169 161 104
170 163 105
171 165 107
170 162 104
169 162 104
170 162 105
168 161 104
170 163 105
170 162 105
169 162 104
169 162 104
169 161 103
169 161 103
168 161 103
169 161 104
168 160 103
168 161 102
169 162 104
169 161 103
170 163 104
168 160 102
166 158 100
166 159 101
169 161 103
168 161 102
167 160 102
166 158 101
169 161 103
167 160 101
167 159 100
165 157 99
165 157 99
167 159 101
165 157 99
164 156 98
163 156 99
164 157 98
163 155 97
162 154 96
162 154 97
159 152 94
161 154 96
162 154 96
162 154 96
162 155 97
160 153 95
160 152 95
162 154 96
159 151 94
158 151 93
158 150 93
159 152 95
183 202 228
182 202 228
183 202 228
182 202 228
182 202 228
182 202 228
182 202 228
181 202 228
181 201 228
181 201 228
181 201 228
181 201 228
181 201 228
181 201 228
180 201 228
180 201 228
180 201 228
180 201 228
180 201 228
179 200 228
179 200 228
179 200 228
179 200 228
179 200 228
179 200 228
179 200 228
178 200 228
178 200 228
178 200 228
178 200 228
178 200 228
177 199 228
177 199 228
177 199 228
177 199 228
177 199 228
177 199 228
177 199 228
176 199 228
176 199 228
176 199 228
176 199 228
176 198 228
175 198 228
175 198 228
175 198 228
175 198 228
175 198 228
175 198 228
175 198 228
174 198 228
174 198 228
174 198 228
174 198 228
174 197 228
174 197 228
173 197 228
173 197 228
173 197 228
173 197 228
173 197 228
173 197 228
173 197 228
172 197 228
172 197 228
172 197 228
172 196 228
172 196 228
172 196 228
172 196 228
171 196 228
171 196 228
171 196 228
171 196 228
171 196 228
170 196 228
171 196 228
170 196 228
170 196 228
170 196 228
170 195 228
170 195 228
170 195 228
170 195 228
169 195 228
169 195 228
169 195 228
169 195 228
169 195 228
169 195 228
169 195 228
169 195 228
169 195 228
169 195 228
169 195 228
169 195 228
168 195 228
168 195 228
168 195 228
168 195 228
168 195 228
168 195 228
168 194 228
168 195 228
168 194 228
168 194 228
168 195 228
168 195 228
168 195 228
168 195 228
168 195 228
168 195 228
168 195 228
169 195 228
169 195 228
169 195 228
169 195 228
169 195 228
169 195 228
170 195 228
170 195 228
170 196 228
170 196 228
171 196 228
171 196 228
172 196 228
172 197 228
173 197 228
173 197 228
174 198 228
175 198 228
176 198 228
176 199 228
178 200 228
180 201 228
181 201 228
171 189 212
202 219 243
212 231 255
212 231 255
212 231 255
212 231 255
212 231 255
212 230 255
212 230 255
212 230 255
212 230 255
212 230 255
212 230 255
212 230 255
212 230 255
212 230 255
212 230 255
212 230 255
212 230 255
212 230 255
212 230 255
212 230 255
190 209 239
64 95 162
57 91 161
58 91 160
57 91 158
57 90 157
57 90 157
57 90 155
57 91 157
57 90 153
58 92 158
57 91 155
58 92 156
57 90 153
58 91 153
57 91 154
57 90 153
58 92 154
58 92 155
57 90 152
57 91 154
58 92 154
58 92 155
58 92 154
58 91 153
58 92 153
58 93 154
58 92 154
58 92 154
58 92 154
58 92 154
57 91 153
57 91 150
58 92 155
58 92 153
58 91 153
58 92 152
57 91 153
58 92 153
58 91 152
57 91 150
58 92 154
58 91 151
57 91 151
58 92 154
58 92 153
58 91 151
58 93 154
58 92 152
58 92 153
58 93 154
58 92 154
57 91 152
58 92 153
59 93 155
58 91 153
58 92 154
58 92 153
58 91 152
58 91 152
57 91 152
57 91 153
58 91 153
58 91 152
58 92 155
57 91 152
57 91 152
57 90 152
57 90 151
57 90 152
57 89 149
57 91 152
57 90 152
57 89 151
57 90 151
56 88 150
56 89 150
56 89 151
57 89 151
57 89 149
56 88 150
56 88 150
64 93 153
187 206 235
212 230 255
212 230 255
212 230 255
212 230 255
212 230 255
212 230 255
212 230 255
212 230 255
212 230 255
212 230 255
212 230 255
212 230 255
212 230 255
212 230 255
212 230 255
212 231 255
212 231 255
212 231 255
212 231 255
212 231 255
197 212 230
134 130 91
136 131 84
135 130 84
138 133 87
136 132 87
135 132 89
132 129 86
137 134 89
134 132 89
138 135 91
138 136 91
142 139 93
142 140 94
143 140 94
144 141 95
145 143 96
143 140 94
145 142 95
148 146 97
149 147 98
149 147 98
153 150 100
150 147 98
153 149 100
155 151 100
157 153 101
157 154 102
158 154 103
159 156 103
157 153 101
161 157 104
160 156 103
162 157 103
164 160 105
163 158 105
164 160 105
165 161 105
167 162 107
165 160 105
167 162 107
167 161 106
168 162 106
167 162 106
168 163 107
167 162 106
167 162 106
168 162 106
168 162 106
167 161 105
167 161 105
168 163 106
169 163 106
168 163 106
167 161 105
168 162 105
167 161 105
167 161 105
169 163 106
169 163 107
169 162 105
168 162 105
169 162 105
169 163 106
169 163 106
169 163 106
170 164 107
168 162 105
169 163 106
169 163 106
168 162 105
168 162 105
168 162 105
171 164 107
169 162 105
168 161 104
170 163 105
170 164 106
169 162 105
169 162 105
170 163 105
169 162 104
170 164 106
170 163 105
170 163 105
170 163 105
172 165 107
170 163 105
169 162 104
170 162 105
171 164 105
169 162 104
169 162 105
170 163 105
169 162 104
170 163 104
171 163 104
172 164 105
172 164 105
170 162 103
168 161 103
169 161 103
169 162 103
171 163 104
170 162 103
169 160 102
168 161 102
168 160 102
169 161 102
169 161 102
167 159 101
168 160 101
167 159 101
167 159 100
167 159 100
167 159 100
166 159 100
166 159 101
166 158 99
166 158 99
166 158 99
165 157 98
164 156 99
164 156 98
163 155 97
163 156 98
162 155 96
164 156 97
163 155 96
162 154 96
161 153 95
159 151 94
161 153 95
160 152 94
158 151 94
158 151 94
160 152 94
160 152 94
183 202 228
183 202 228
183 202 228
183 202 228
182 202 228
182 202 228
182 202 228
182 202 228
182 202 228
182 202 228
181 201 228
181 202 228
181 201 228
181 201 228
181 201 228
180 201 228
181 201 228
180 201 228
180 201 228
180 201 228
180 201 228
180 201 228
179 200 228
179 200 228
179 200 228
179 200 228
179 200 228
179 200 228
179 200 228
178 200 228
178 200 228
178 200 228
178 200 228
178 200 228
178 199 228
177 199 228
177 199 228
177 199 228
177 199 228
177 199 228
177 199 228
176 199 228
176 199 228
176 199 228
176 199 228
176 199 228
176 199 228
175 198 228
175 198 228
175 198 228
175 198 228
175 198 228
175 198 228
175 198 228
174 198 228
174 198 228
174 198 228
174 198 228
174 197 228
174 197 228
174 197 228
173 197 228
173 197 228
173 197 228
173 197 228
173 197 228
173 197 228
173 197 228
172 197 228
172 197 228
172 197 228
172 196 228
172 196 228
172 196 228
172 196 228
171 196 228
171 196 228
171 196 228
171 196 228
171 196 228
171 196 228
171 196 228
171 196 228
170 196 228
170 196 228
170 196 228
170 196 228
170 195 228
170 195 228
170 195 228
170 195 228
170 195 228
170 195 228
169 195 228
169 195 228
169 195 228
169 195 228
169 195 228
169 195 228
169 195 228
169 195 228
169 195 228
169 195 228
169 195 228
169 195 228
169 195 228
169 195 228
169 195 228
169 195 228
169 195 228
169 195 228
169 195 228
169 195 228
169 195 228
169 195 228
169 195 228
170 195 228
170 195 228
170 195 228
170 196 228
170 196 228
171 196 228
171 196 228
171 196 228
172 196 228
172 196 228
172 197 228
173 197 228
173 197 228
174 198 228
175 198 228
175 198 228
176 199 228
177 199 228
179 200 228
180 201 228
181 201 227
172 189 211
208 226 250
213 231 255
213 231 255
213 231 255
212 231 255
212 231 255
212 231 255
212 231 255
212 231 255
212 231 255
212 231 255
212 231 255
212 231 255
212 231 255
212 231 255
212 230 255
212 230 255
212 230 255
212 230 255
205 224 250
90 115 174
56 89 158
57 91 158
57 91 158
57 91 156
57 90 157
57 90 155
57 91 156
57 91 156
57 91 155
57 91 155
57 91 153
57 91 155
57 90 153
57 90 153
57 90 152
58 92 153
58 92 152
57 91 149
57 91 152
58 91 151
58 92 153
58 92 153
57 91 153
58 91 153
57 91 151
59 93 153
58 92 153
59 93 153
58 91 150
58 91 153
57 91 150
58 91 152
57 91 150
58 92 154
57 91 149
58 92 152
57 91 150
58 92 151
58 92 152
58 91 148
58 92 154
58 92 151
58 92 150
58 91 151
58 92 152
57 91 150
58 91 150
58 92 151
58 92 153
58 92 153
57 91 149
58 91 152
57 91 150
58 91 152
57 91 149
58 92 153
57 91 151
57 90 150
58 92 151
57 90 150
58 91 151
57 91 149
57 90 151
57 90 148
58 91 153
57 90 148
57 91 150
57 90 152
56 89 146
57 91 154
58 91 153
57 89 149
57 90 150
57 89 151
57 89 150
57 89 149
57 89 151
57 89 152
57 89 149
56 88 150
56 88 150
56 87 149
93 116 165
205 224 250
212 230 255
212 230 255
212 230 255
212 230 255
212 230 255
212 231 255
212 231 255
212 231 255
212 231 255
212 231 255
212 231 255
212 231 255
212 231 255
212 231 255
212 231 255
213 231 255
213 231 255
213 231 255
207 224 246
148 146 117
136 131 84
136 131 86
137 133 87
137 133 89
135 132 88
136 133 89
133 131 88
136 133 89
135 133 90
135 134 91
137 136 92
139 136 92
142 140 94
141 138 92
143 140 93
144 142 96
147 144 96
145 142 95
148 146 98
149 146 98
153 150 100
149 147 99
152 149 99
150 148 98
155 152 101
156 152 101
155 152 101
156 153 101
157 153 101
160 156 103
160 157 104
161 156 103
161 157 103
163 159 105
161 156 102
163 158 103
164 160 105
165 160 105
165 160 105
166 161 105
165 160 105
168 163 107
168 163 106
169 164 107
169 164 107
167 161 105
167 161 105
169 163 106
168 162 105
168 162 105
169 163 106
168 161 104
169 163 106
169 163 106
167 161 105
167 161 105
169 163 106
169 163 106
170 163 106
169 163 105
169 163 106
168 162 105
169 163 106
168 162 105
170 164 107
169 162 105
170 163 106
170 164 107
170 164 107
169 162 104
171 164 106
170 163 105
169 162 105
169 162 105
170 163 105
170 164 106
171 164 107
171 164 106
170 162 105
170 163 105
170 163 105
169 162 105
170 162 104
171 164 106
171 163 105
171 164 105
170 162 104
170 163 104
171 163 105
170 163 105
169 162 104
170 163 104
171 163 104
171 163 105
170 162 103
172 164 105
170 163 104
171 163 105
170 162 104
168 160 102
170 162 103
169 160 101
171 162 103
168 160 102
168 160 102
168 160 102
169 161 102
169 161 101
168 160 101
170 161 101
167 159 100
166 157 98
167 159 100
167 159 100
167 160 100
167 159 100
166 158 99
166 157 99
167 159 100
167 159 99
166 159 99
164 156 97
164 156 98
163 155 97
160 152 94
164 157 98
164 156 97
163 155 96
163 155 96
163 155 96
161 153 95
164 156 97
162 154 95
161 154 96
161 153 94
158 150 93
160 153 94
183 203 228
183 202 228
183 203 228
183 202 228
183 202 228
183 202 228
182 202 228
182 202 228
182 202 228
182 202 228
182 202 228
182 202 228
182 202 228
181 202 228
181 201 228
181 201 228
181 201 228
181 201 228
181 201 228
181 201 228
180 201 228
180 201 228
180 201 228
180 201 228
180 201 228
179 201 228
179 201 228
179 200 228
179 200 228
179 200 228
179 200 228
179 200 228
178 200 228
178 200 228
178 200 228
178 200 228
178 200 228
178 200 228
177 199 228
177 199 228
177 199 228
177 199 228
177 199 228
177 199 228
177 199 228
176 199 228
176 199 228
176 199 228
176 199 228
176 199 228
176 199 228
176 198 228
176 198 228
175 198 228
175 198 228
175 198 228
175 198 228
175 198 228
175 198 228
174 198 228
174 198 228
174 198 228
174 197 228
174 198 228
174 197 228
174 197 228
173 197 228
173 197 228
173 197 228
173 197 228
173 197 228
173 197 228
173 197 228
172 197 228
172 197 228
172 197 228
172 197 228
172 197 228
172 196 228
172 196 228
172 196 228
171 196 228
171 196 228
171 196 228
171 196 228
171 196 228
171 196 228
171 196 228
171 196 228
171 196 228
170 196 228
170 196 228
170 196 228
170 196 228
170 195 228
170 196 228
170 195 228
170 195 228
170 195 228
170 195 228
170 195 228
170 195 228
170 195 228
170 195 228
170 195 228
170 195 228
170 195 228
170 195 228
170 195 228
170 195 228
170 195 228
170 195 228
170 195 228
170 195 228
170 195 228
170 195 228
170 196 228
170 196 228
170 196 228
171 196 228
171 196 228
171 196 228
171 196 228
172 196 228
172 197 228
172 197 228
173 197 228
173 197 228
174 197 228
174 198 228
175 198 228
176 198 228
176 199 228
177 199 228
178 200 228
179 200 228
181 201 228
179 198 224
177 193 216
212 230 254
213 231 255
213 231 255
213 231 255
213 231 255
213 231 255
213 231 255
213 231 255
213 231 255
213 231 255
213 231 255
213 231 255
213 231 255
212 231 255
212 231 255
212 231 255
212 231 255
212 231 255
133 153 198
56 90 158
57 91 158
57 90 157
57 90 155
57 90 153
57 91 155
57 90 154
57 90 153
57 91 154
57 90 152
57 90 152
56 89 152
57 91 153
58 91 153
57 91 151
57 90 152
57 91 151
57 91 152
57 91 152
58 92 152
58 91 152
58 91 150
57 90 149
58 91 152
57 91 150
58 91 151
57 91 151
57 90 150
58 92 150
57 91 148
58 92 150
58 92 152
58 93 153
57 90 149
58 92 151
57 91 148
58 92 151
57 91 149
58 91 148
58 92 152
58 92 152
57 91 149
58 91 149
58 92 151
58 92 151
58 92 151
58 92 153
58 92 150
58 92 152
57 90 149
58 92 150
58 92 152
58 92 152
58 91 150
57 91 152
58 91 149
58 91 151
58 91 149
57 91 151
58 92 150
57 90 149
58 91 150
57 91 152
57 90 151
57 90 148
57 90 149
57 90 149
57 90 152
57 90 150
56 89 146
57 89 149
57 91 149
56 88 148
56 88 146
57 90 148
56 89 148
56 89 147
56 89 149
56 88 149
56 88 149
56 88 147
56 87 148
55 87 144
55 86 146
136 156 194
212 231 255
212 231 255
212 231 255
212 231 255
212 231 255
213 231 255
213 231 255
213 231 255
213 231 255
213 231 255
213 231 255
213 231 255
213 231 255
213 231 255
213 231 255
213 231 255
213 231 255
212 230 254
154 158 147
134 129 82
135 130 84
138 134 89
132 129 85
132 129 86
130 128 87
134 132 89
135 133 90
134 132 89
136 134 90
135 133 90
137 135 91
139 137 92
141 139 93
140 137 92
142 139 94
145 142 95
143 141 95
145 143 96
146 143 96
147 144 97
151 147 98
151 148 99
152 148 99
155 152 101
156 152 101
155 151 100
157 153 101
156 152 101
160 155 102
160 156 103
161 156 102
160 155 102
163 158 104
163 159 104
164 158 103
164 159 104
166 161 106
165 159 104
166 161 106
168 162 106
167 162 106
167 161 105
167 161 105
167 161 105
169 163 106
168 162 106
168 162 106
170 163 106
169 163 105
169 163 106
169 163 106
168 161 104
168 161 105
169 163 106
171 164 107
170 163 106
170 164 106
170 163 106
170 164 106
170 163 106
168 162 105
171 164 106
171 164 107
170 164 106
171 164 106
169 162 105
170 163 106
170 163 106
169 162 105
171 164 107
171 163 106
169 162 105
170 163 105
170 164 106
170 163 105
170 163 105
170 163 106
172 164 106
170 162 104
169 162 104
170 163 105
172 164 105
171 164 105
170 162 104
170 162 104
172 164 106
171 163 104
171 163 105
171 163 105
171 163 105
172 164 104
171 163 104
171 163 104
170 162 103
171 163 104
171 163 103
171 163 104
170 162 103
170 162 103
172 164 104
171 163 104
171 162 103
170 162 103
170 162 103
170 161 102
170 162 103
168 160 101
168 159 99
170 161 101
169 160 101
169 160 101
168 159 100
168 160 101
169 161 101
168 160 99
167 159 99
167 158 98
165 157 98
168 160 100
166 159 100
167 159 99
164 156 98
165 157 98
165 157 98
163 154 95
164 156 96
164 156 96
162 155 95
163 154 95
159 151 93
160 152 94
161 153 95
161 153 95
161 153 94
159 151 92
158 150 92
157 149 91
184 203 228
184 203 228
183 203 228
183 203 228
183 203 228
183 202 228
183 202 228
183 202 228
183 202 228
182 202 228
182 202 228
182 202 228
182 202 228
182 202 228
182 202 228
182 202 228
181 202 228
181 201 228
181 201 228
181 201 228
181 201 228
181 201 228
181 201 228
180 201 228
180 201 228
180 201 228
180 201 228
180 201 228
180 201 228
180 201 228
179 200 228
179 200 228
179 200 228
179 200 228
179 200 228
179 200 228
178 200 228
178 200 228
178 200 228
178 200 228
178 200 228
178 200 228
178 199 228
177 199 228
177 199 228
177 199 228
177 199 228
177 199 228
177 199 228
177 199 228
176 199 228
176 199 228
176 199 228
176 199 228
176 199 228
176 198 228
176 198 228
176 198 228
175 198 228
175 198 228
175 198 228
175 198 228
175 198 228
174 198 228
174 198 228
174 198 228
174 198 228
174 198 228
174 198 228
174 197 228
173 197 228
173 197 228
173 197 228
173 197 228
173 197 228
173 197 228
173 197 228
173 197 228
173 197 228
172 197 228
172 197 228
172 197 228
172 197 228
172 196 228
172 197 228
172 196 228
172 196 228
172 196 228
172 196 228
171 196 228
171 196 228
171 196 228
171 196 228
171 196 228
171 196 228
171 196 228
171 196 228
171 196 228
171 196 228
171 196 228
171 196 228
171 196 228
171 196 228
170 196 228
170 196 228
170 196 228
170 196 228
170 196 228
170 196 228
170 196 228
170 196 228
170 196 228
171 196 228
171 196 228
171 196 228
171 196 228
171 196 228
171 196 228
171 196 228
171 196 228
172 196 228
172 196 228
172 196 228
172 197 228
172 197 228
173 197 228
173 197 228
173 197 228
174 197 228
174 198 228
175 198 228
176 198 228
176 199 228
177 199 228
178 200 228
179 200 228
180 201 228
182 202 228
177 195 220
187 203 226
213 231 255
213 231 255
213 231 255
213 231 255
213 231 255
213 231 255
213 231 255
213 231 255
213 231 255
213 231 255
213 231 255
213 231 255
213 231 255
213 231 255
213 231 255
213 231 255
182 200 232
57 90 158
56 90 156
57 91 157
56 90 155
56 89 152
57 90 154
57 90 155
57 91 156
58 91 154
56 89 151
57 91 153
57 90 152
57 91 152
57 91 151
57 91 151
57 91 150
57 91 152
57 91 150
58 91 150
57 90 148
57 91 150
58 92 150
58 92 151
57 91 149
57 91 150
57 90 148
58 91 151
58 91 150
58 92 151
58 91 149
57 91 147
58 92 151
58 91 149
58 92 149
57 91 148
57 91 150
58 92 149
58 91 151
58 91 149
58 92 151
56 89 144
58 92 148
58 92 151
57 90 149
57 91 149
58 92 150
57 91 149
57 91 147
58 92 152
57 91 148
58 92 150
57 91 149
57 91 149
58 92 149
57 91 149
57 91 148
58 91 150
57 91 149
58 92 151
58 92 151
58 92 150
56 90 147
57 90 148
58 91 149
57 91 150
57 90 148
57 91 149
57 90 145
56 89 146
57 90 149
57 90 146
57 89 149
57 90 147
57 90 148
56 89 146
57 89 148
56 89 148
56 88 147
56 88 145
56 88 146
57 89 148
55 87 143
56 87 145
55 86 145
55 86 145
54 85 144
178 196 226
213 231 255
213 231 255
213 231 255
213 231 255
213 231 255
213 231 255
213 231 255
213 231 255
213 231 255
213 231 255
213 231 255
213 231 255
213 231 255
213 231 255
213 231 255
213 231 255
175 184 189
132 127 80
135 130 84
131 128 84
132 129 86
130 128 85
132 129 87
130 128 86
132 130 88
131 129 88
133 131 88
134 133 90
135 133 90
137 135 91
139 137 93
142 140 94
139 137 92
142 140 93
143 141 95
145 141 95
145 142 95
147 144 96
148 146 98
151 147 98
151 148 99
150 147 98
154 151 101
155 151 100
156 152 101
157 153 102
159 155 103
158 154 102
159 155 103
161 156 103
161 156 103
162 157 104
163 158 104
163 158 104
163 158 104
165 160 105
163 158 103
165 160 104
167 161 105
167 162 105
167 161 105
169 163 106
169 163 105
169 162 105
169 163 106
169 163 106
170 164 106
169 162 105
170 163 106
171 164 106
170 163 106
169 162 104
171 165 107
171 164 106
169 163 105
170 164 107
171 164 106
171 164 106
171 164 106
170 163 106
171 164 107
171 164 107
169 162 105
170 163 105
169 162 105
170 163 105
169 162 105
171 163 105
172 165 106
171 164 106
171 164 105
169 162 105
170 163 105
171 164 105
170 163 105
172 165 106
171 163 105
171 163 105
171 163 105
171 163 104
172 164 105
170 162 104
171 164 105
173 165 105
171 164 105
171 163 104
172 164 105
172 165 105
172 164 104
172 164 105
171 163 104
173 165 105
172 164 105
171 163 103
171 163 103
172 164 104
172 164 104
170 162 103
171 163 104
171 162 103
170 162 102
170 161 101
171 162 102
171 163 103
170 161 101
168 160 101
171 163 102
169 161 101
171 162 102
169 161 101
168 160 99
169 161 100
168 159 99
169 161 100
167 159 99
166 158 99
165 157 98
166 158 98
167 158 98
165 157 98
166 158 97
164 156 97
163 155 95
166 158 97
163 155 95
165 157 97
163 155 95
162 155 94
161 153 94
161 153 94
158 151 92
162 154 95
158 150 92
161 153 94
157 150 91
162 154 95
184 203 228
184 203 228
184 203 228
184 203 228
184 203 228
183 203 228
183 203 228
183 202 228
183 202 228
183 202 228
183 202 228
183 202 228
183 202 228
182 202 228
182 202 228
182 202 228
182 202 228
182 202 228
182 202 228
181 201 228
181 201 228
181 201 228
181 201 228
181 201 228
181 201 228
181 201 228
180 201 228
180 201 228
180 201 228
180 201 228
180 201 228
180 201 228
179 201 228
180 201 228
179 201 228
179 200 228
179 200 228
179 200 228
179 200 228
179 200 228
179 200 228
179 200 228
178 200 228
178 200 228
178 200 228
178 200 228
178 200 228
177 199 228
177 199 228
177 199 228
177 199 228
177 199 228
177 199 228
177 199 228
177 199 228
176 199 228
176 199 228
176 199 228
176 199 228
176 199 228
176 198 228
176 198 228
176 198 228
175 198 228
175 198 228
175 198 228
175 198 228
175 198 228
175 198 228
174 198 228
175 198 228
174 198 228
174 198 228
174 198 228
174 197 228
174 197 228
174 197 228
173 197 228
173 197 228
173 197 228
173 197 228
173 197 228
173 197 228
173 197 228
173 197 228
173 197 228
172 197 228
172 197 228
172 197 228
172 197 228
172 197 228
172 197 228
172 196 228
172 196 228
172 196 228
172 196 228
172 196 228
172 196 228
172 196 228
171 196 228
171 196 228
171 196 228
171 196 228
171 196 228
171 196 228
171 196 228
171 196 228
171 196 228
171 196 228
171 196 228
171 196 228
171 196 228
171 196 228
171 196 228
171 196 228
172 196 228
171 196 228
172 196 228
172 196 228
172 196 228
172 197 228
172 197 228
172 197 228
173 197 228
173 197 228
173 197 228
173 197 228
174 198 228
174 198 228
175 198 228
175 198 228
176 199 228
176 199 228
177 199 228
178 200 228
179 200 228
180 201 228
181 202 228
183 202 228
172 189 213
199 216 239
213 231 255
213 231 255
213 231 255
213 231 255
213 231 255
213 231 255
213 231 255
213 231 255
213 231 255
213 231 255
213 231 255
213 231 255
213 231 255
213 231 255
208 226 252
86 112 171
56 90 158
57 90 156
57 90 156
57 91 154
57 90 155
57 91 154
57 91 153
57 91 153
57 90 150
56 90 150
57 90 151
58 92 152
57 91 152
58 92 154
58 92 152
57 91 149
57 91 150
57 91 149
57 91 150
58 93 153
58 92 154
57 91 149
57 91 150
58 91 151
57 91 148
57 91 150
57 91 146
56 89 146
57 90 147
58 92 150
57 91 150
57 91 149
57 91 150
58 91 149
58 91 150
57 90 145
57 91 149
57 91 147
58 91 149
58 92 148
57 91 148
57 91 146
58 92 151
58 92 151
57 91 149
57 91 148
58 91 148
57 91 147
57 90 148
58 91 148
58 92 149
58 92 148
57 91 146
58 91 147
58 91 148
58 92 151
57 90 148
58 92 150
58 91 150
57 90 146
57 91 148
57 90 146
57 90 147
57 90 149
57 90 148
57 90 146
57 90 146
57 91 149
57 90 148
57 91 148
57 90 147
57 89 147
57 90 148
56 88 144
56 89 147
56 89 147
58 90 149
57 90 146
57 89 150
56 88 147
55 87 143
56 88 147
56 87 146
55 87 143
55 87 146
56 87 148
87 110 159
208 226 252
213 231 255
213 231 255
213 231 255
213 231 255
213 231 255
213 231 255
213 231 255
213 231 255
213 231 255
213 231 255
213 231 255
213 231 255
213 231 255
213 231 255
194 208 224
127 122 79
133 128 83
134 129 85
129 125 83
129 126 85
130 127 85
129 127 86
132 130 88
128 127 86
134 132 90
131 129 88
133 131 90
134 132 90
135 134 91
139 137 93
137 135 91
142 140 95
139 137 92
144 142 95
143 141 94
147 143 96
146 144 97
147 144 96
150 147 98
152 148 98
149 145 96
156 152 101
155 151 100
155 152 101
155 151 100
159 155 102
157 153 101
158 153 101
161 156 103
161 156 103
161 156 102
161 156 103
162 157 103
165 160 105
162 157 102
167 161 106
166 160 104
167 162 106
167 161 105
168 161 105
168 161 105
170 164 106
170 163 106
170 163 106
171 164 107
169 162 105
169 163 105
170 163 105
169 162 105
169 163 105
171 164 106
171 164 106
170 163 106
170 163 106
171 164 105
171 164 106
171 164 106
172 164 106
170 163 106
169 162 105
171 163 105
169 162 104
172 165 107
172 165 106
170 163 105
171 164 106
171 164 106
172 165 106
171 163 105
170 163 105
171 163 105
170 163 105
171 163 105
171 163 105
171 163 105
171 164 105
172 164 105
171 164 105
172 164 105
171 163 104
170 163 104
171 164 105
171 162 103
172 164 105
171 163 104
171 164 105
172 164 104
173 165 105
170 163 104
170 162 103
172 164 105
170 162 102
172 164 104
172 163 103
172 164 104
172 164 104
172 164 104
173 164 103
172 163 103
172 164 104
171 163 103
172 163 102
171 163 102
170 161 101
172 164 104
170 162 102
170 161 100
169 161 100
170 161 100
166 158 98
168 160 99
169 160 99
168 160 99
169 160 100
167 158 98
168 160 100
168 160 99
167 159 98
167 158 97
165 157 97
166 158 97
164 156 96
164 156 96
165 157 96
163 155 96
165 156 96
162 154 94
161 154 94
162 154 94
163 155 95
162 153 93
160 153 93
159 152 92
161 153 93
159 151 92
185 203 228
185 203 228
184 203 228
184 203 228
184 203 228
184 203 228
184 203 228
184 203 228
184 203 228
184 203 228
183 203 228
183 202 228
183 202 228
183 202 228
183 202 228
183 202 228
183 202 228
182 202 228
182 202 228
182 202 228
182 202 228
182 202 228
182 202 228
182 202 228
181 201 228
181 201 228
181 201 228
181 201 228
181 201 228
180 201 228
181 201 228
180 201 228
180 201 228
180 201 228
180 201 228
180 201 228
180 201 228
180 201 228
179 201 228
179 200 228
179 200 228
179 200 228
179 200 228
179 200 228
178 200 228
179 200 228
178 200 228
178 200 228
178 200 228
178 200 228
178 200 228
177 199 228
178 200 228
177 199 228
177 199 228
177 199 228
177 199 228
177 199 228
177 199 228
177 199 228
177 199 228
176 199 228
176 199 228
176 199 228
176 199 228
176 199 228
176 198 228
175 198 228
175 198 228
175 198 228
175 198 228
175 198 228
175 198 228
175 198 228
175 198 228
174 198 228
174 198 228
174 198 228
174 198 228
174 198 228
174 198 228
174 198 228
174 197 228
174 197 228
173 197 228
173 197 228
173 197 228
173 197 228
173 197 228
173 197 228
173 197 228
173 197 228
173 197 228
173 197 228
172 197 228
173 197 228
173 197 228
172 197 228
172 197 228
172 197 228
172 197 228
172 197 228
172 197 228
172 197 228
172 197 228
172 197 228
172 197 228
172 197 228
172 197 228
172 196 228
172 197 228
172 197 228
172 197 228
172 197 228
172 197 228
172 197 228
172 197 228
172 197 228
173 197 228
173 197 228
173 197 228
173 197 228
173 197 228
173 197 228
174 197 228
174 198 228
174 198 228
175 198 228
175 198 228
175 198 228
175 198 228
176 199 228
176 199 228
177 199 228
178 200 228
179 200 228
180 201 228
181 201 228
182 202 228
183 202 227
173 189 211
210 228 252
214 231 255
214 231 255
214 231 255
214 231 255
214 231 255
213 231 255
213 231 255
213 231 255
213 231 255
213 231 255
213 231 255
213 231 255
213 231 255
150 169 208
55 88 155
56 90 156
56 89 152
57 90 151
57 91 154
56 89 152
57 90 151
57 90 148
57 90 151
57 91 151
57 91 151
57 91 149
57 91 151
56 90 147
57 90 148
57 91 150
58 92 152
58 91 152
58 91 151
57 90 147
57 90 148
58 91 149
57 90 149
58 91 150
58 92 151
57 91 148
58 92 150
56 90 146
58 91 149
57 90 148
58 92 152
57 91 148
58 91 148
57 90 147
57 91 147
58 91 148
57 91 148
57 91 148
57 91 147
57 91 148
58 92 149
57 91 149
58 92 150
58 92 149
58 91 147
58 91 150
57 91 148
57 91 148
57 90 145
57 91 148
58 91 148
57 91 146
57 91 149
58 92 150
58 91 148
58 93 151
58 91 149
58 92 150
58 91 149
57 91 146
57 90 145
57 91 150
57 91 147
57 90 148
57 90 144
58 91 147
57 90 148
57 90 146
57 90 146
56 89 145
57 90 149
57 90 149
57 91 149
56 89 146
56 88 145
56 89 147
57 89 147
56 88 144
57 90 147
57 89 144
56 88 144
56 88 144
56 88 144
55 87 142
55 86 143
55 86 143
55 87 145
54 85 143
153 172 205
213 231 255
213 231 255
213 231 255
213 231 255
213 231 255
213 231 255
213 231 255
213 231 255
214 231 255
214 231 255
214 231 255
214 231 255
214 231 255
211 228 251
143 141 115
131 126 81
128 124 80
127 124 82
130 127 85
126 124 84
127 125 85
128 127 86
128 126 85
128 127 86
131 130 88
135 133 90
134 133 91
134 133 90
135 133 90
137 135 92
138 137 93
138 136 92
141 139 94
142 139 93
144 141 95
144 141 95
146 143 95
148 145 97
150 146 98
149 146 98
152 148 99
154 150 100
156 152 100
158 153 101
156 152 101
157 153 102
158 153 101
158 153 101
159 154 102
162 157 103
159 154 101
162 157 103
163 157 103
164 158 104
165 159 104
167 161 105
166 160 104
167 160 104
169 162 105
169 163 105
169 162 104
169 163 106
171 164 107
170 163 106
170 163 105
170 163 105
170 163 105
171 164 107
170 163 106
171 164 106
170 163 105
171 163 104
170 163 105
170 163 105
171 163 105
171 163 105
172 164 106
171 164 105
170 162 104
171 164 105
172 164 106
171 163 104
171 163 104
170 163 106
172 165 106
171 164 106
172 164 106
170 163 105
172 164 105
172 164 105
172 164 105
170 163 104
173 165 106
171 163 105
171 163 104
171 163 104
170 162 103
172 164 105
172 164 105
171 164 105
171 163 104
171 162 103
170 162 103
171 163 104
172 164 104
171 163 104
172 163 103
170 162 102
173 165 104
171 163 103
174 165 105
172 164 103
173 165 104
170 162 101
173 164 103
172 163 103
173 165 103
173 165 104
172 163 103
170 162 101
172 163 103
172 163 103
171 163 102
171 162 102
169 161 100
171 163 103
171 162 101
171 162 102
169 160 101
169 160 99
168 160 99
170 161 101
166 158 97
168 159 98
169 160 100
168 159 98
168 160 98
168 159 98
166 157 96
167 159 97
165 156 95
166 158 98
165 156 96
164 156 95
162 154 93
162 153 92
164 156 95
162 154 93
162 154 93
163 155 94
162 153 93
159 151 92
162 153 92
161 153 92
160 152 91
185 204 228
185 204 228
185 203 228
185 203 228
184 203 228
184 203 228
184 203 228
184 203 228
184 203 228
184 203 228
184 203 228
184 203 228
184 203 228
183 203 228
183 203 228
183 203 228
183 202 228
183 202 228
183 202 228
183 202 228
183 202 228
182 202 228
182 202 228
182 202 228
182 202 228
182 202 228
182 202 228
181 202 228
181 202 228
181 201 228
181 201 228
181 201 228
181 201 228
181 201 228
181 201 228
180 201 228
181 201 228
180 201 228
180 201 228
180 201 228
180 201 228
180 201 228
180 201 228
179 201 228
179 200 228
179 200 228
179 200 228
179 200 228
179 200 228
179 200 228
179 200 228
178 200 228
178 200 228
178 200 228
178 200 228
178 200 228
178 200 228
178 200 228
178 199 228
177 199 228
177 199 228
177 199 228
177 199 228
177 199 228
177 199 228
176 199 228
176 199 228
176 199 228
176 199 228
176 199 228
176 199 228
176 199 228
176 199 228
175 198 228
175 198 228
175 198 228
175 198 228
175 198 228
175 198 228
175 198 228
175 198 228
175 198 228
174 198 228
174 198 228
174 198 228
174 198 228
174 198 228
174 198 228
174 198 228
174 198 228
174 198 228
174 197 228
174 197 228
174 197 228
174 197 228
173 197 228
173 197 228
173 197 228
173 197 228
173 197 228
173 197 228
173 197 228
173 197 228
173 197 228
173 197 228
173 197 228
173 197 228
173 197 228
173 197 228
173 197 228
173 197 228
173 197 228
173 197 228
173 197 228
173 197 228
173 197 228
173 197 228
173 197 228
173 197 228
173 197 228
173 197 228
174 197 228
174 197 228
174 198 228
174 198 228
174 197 228
173 197 227
173 196 227
173 196 227
174 197 227
175 197 227
175 197 227
177 199 228
177 199 228
178 200 228
179 200 228
180 201 228
180 201 228
182 202 228
183 202 228
180 198 222
187 203 225
214 231 255
214 231 255
214 231 255
214 231 255
214 231 255
214 231 255
214 231 255
214 231 255
214 231 255
214 231 255
214 231 255
214 231 255
201 219 245
66 96 158
56 89 154
56 89 153
58 92 159
57 90 154
56 89 150
57 90 150
57 91 151
57 90 150
56 90 150
56 90 148
56 89 146
57 90 149
57 91 149
57 90 149
57 90 147
57 91 150
57 90 147
57 90 147
58 91 149
57 90 148
57 91 147
57 90 148
57 90 147
56 90 144
57 91 147
58 91 149
58 91 146
57 90 148
58 91 149
58 92 149
57 91 146
57 91 148
57 91 146
57 91 146
57 91 146
57 91 147
58 92 149
57 91 146
57 90 145
57 91 147
58 91 149
57 90 146
58 91 148
57 91 146
57 91 145
57 91 147
57 91 146
57 91 145
58 92 148
58 92 150
57 91 147
58 92 149
58 91 143
58 91 147
57 90 146
57 91 146
58 92 148
57 91 146
58 91 148
57 91 147
57 90 146
57 91 147
57 91 148
58 91 148
57 90 146
57 90 143
57 91 148
57 91 148
57 90 146
57 90 147
57 91 147
57 90 146
57 89 144
56 89 144
56 88 142
57 89 145
57 89 147
56 89 143
57 90 147
57 90 149
57 89 146
55 87 140
56 88 145
55 87 142
56 88 147
56 87 144
54 85 141
54 83 137
66 93 145
199 217 243
214 231 255
214 231 255
214 231 255
214 231 255
214 231 255
214 231 255
214 231 255
214 231 255
214 231 255
214 231 255
214 231 255
214 231 255
167 174 174
130 125 79
126 122 80
127 124 82
123 121 81
128 126 84
123 121 82
126 124 84
125 124 85
131 129 88
126 125 86
129 128 88
131 130 88
129 128 88
130 129 88
134 133 90
134 132 90
138 136 92
139 137 92
139 137 93
142 139 94
143 140 94
144 141 94
148 145 97
148 145 97
149 146 97
149 145 97
154 150 99
153 148 98
153 149 99
155 151 100
158 154 102
159 154 102
157 152 101
158 153 101
158 153 101
162 157 103
163 158 103
162 156 102
162 156 102
164 158 103
164 158 103
164 158 102
166 159 103
167 161 105
169 162 105
170 163 106
168 161 104
169 162 105
171 164 106
170 163 105
169 162 105
172 165 107
169 162 105
171 164 106
171 164 105
171 163 105
172 165 106
171 164 105
171 163 104
172 165 106
173 165 106
171 163 105
173 165 105
171 164 105
171 164 105
170 163 105
171 164 105
171 163 104
172 164 105
172 164 105
172 164 105
172 164 104
171 163 104
172 164 104
171 164 105
172 163 104
173 165 105
170 162 103
172 163 104
172 164 104
172 164 104
173 165 106
171 163 104
171 164 104
174 166 106
170 162 103
172 164 104
171 163 104
172 164 104
173 164 104
172 164 103
171 163 103
171 162 102
172 163 103
171 163 102
172 164 104
172 163 102
171 163 102
173 164 104
172 163 102
172 163 102
171 162 101
171 163 102
171 162 101
173 164 102
172 164 103
171 163 101
171 162 101
173 164 102
171 163 101
171 163 101
171 161 100
171 162 101
169 160 98
169 160 99
170 161 100
169 160 98
170 161 100
170 162 100
169 160 98
167 159 98
168 160 98
168 160 98
168 160 98
169 160 98
167 159 96
165 157 96
165 156 95
165 157 95
163 155 94
164 156 94
164 156 95
162 154 92
163 155 93
163 155 93
162 154 93
162 155 93
163 155 93
161 153 92
161 153 92
160 151 91
185 204 228
186 204 228
185 204 228
185 204 228
185 204 228
185 203 228
185 203 228
185 203 228
184 203 228
184 203 228
184 203 228
184 203 228
184 203 228
184 203 228
184 203 228
184 203 228
184 203 228
183 203 228
183 203 228
183 202 228
183 202 228
183 202 228
183 202 228
183 202 228
182 202 228
182 202 228
182 202 228
182 202 228
182 202 228
182 202 228
182 202 228
182 202 228
181 202 228
181 202 228
181 202 228
181 201 228
181 201 228
181 201 228
180 201 228
181 201 228
181 201 228
180 201 228
180 201 228
180 201 228
180 201 228
180 201 228
180 201 228
180 201 228
179 200 228
179 201 228
179 200 228
179 200 228
179 200 228
179 200 228
179 200 228
179 200 228
179 200 228
178 200 228
178 200 228
178 200 228
178 200 228
178 200 228
178 200 228
178 200 228
177 199 228
177 199 228
177 199 228
177 199 228
177 199 228
177 199 228
177 199 228
177 199 228
176 199 228
176 199 228
176 199 228
176 199 228
176 199 228
176 199 228
176 199 228
176 199 228
175 198 228
176 198 228
175 198 228
175 198 228
175 198 228
175 198 228
175 198 228
175 198 228
175 198 228
175 198 228
175 198 228
175 198 228
175 198 228
174 198 228
174 198 228
174 198 228
174 198 228
174 198 228
174 198 228
174 198 228
174 197 228
174 197 228
174 198 228
174 198 228
174 197 228
174 197 228
174 198 228
174 197 228
174 197 228
174 197 228
174 197 228
174 197 228
174 197 228
174 198 228
174 197 228
174 197 228
174 197 228
174 198 228
174 198 228
174 198 228
174 198 228
174 198 228
174 198 228
173 197 227
171 194 225
169 192 224
167 190 222
165 188 220
165 188 221
166 189 221
166 189 221
166 188 220
169 191 222
173 195 225
177 198 227
179 200 228
180 201 228
181 201 228
182 202 228
183 202 228
184 203 228
176 193 216
203 220 243
214 232 255
214 232 255
214 232 255
214 232 255
214 232 255
214 232 255
214 232 255
214 231 255
214 231 255
214 231 255
214 231 255
139 158 199
55 88 155
55 88 152
56 89 153
56 90 153
56 89 151
56 89 149
56 89 150
56 89 149
57 90 148
57 90 150
57 90 149
57 91 150
57 90 147
57 90 149
57 90 148
56 89 147
57 90 150
57 91 148
57 91 147
57 90 148
57 91 146
58 91 146
57 90 144
57 91 146
58 92 147
58 91 148
58 92 150
57 90 146
57 91 146
57 91 146
58 91 147
57 90 147
58 92 150
58 91 145
58 91 148
57 91 145
57 90 144
58 92 150
58 92 148
58 91 146
58 91 147
58 92 148
57 91 144
58 91 149
58 92 147
57 91 146
58 92 147
57 91 146
57 91 147
57 91 146
57 91 147
58 91 144
58 91 147
57 91 146
57 91 146
56 89 145
58 91 148
58 92 151
57 90 143
58 92 148
57 90 146
57 90 145
57 90 146
57 90 144
57 90 144
56 89 143
57 90 143
56 89 143
57 90 147
57 90 145
57 90 145
57 91 146
57 90 146
56 89 144
56 89 143
56 89 143
56 89 144
56 89 144
56 89 145
56 87 140
56 88 144
56 88 143
56 88 144
56 87 142
55 87 141
55 87 140
55 87 140
56 86 141
55 86 142
53 82 135
136 154 189
214 231 255
214 231 255
214 231 255
214 231 255
214 232 255
214 232 255
214 232 255
214 232 255
214 232 255
214 232 255
214 232 255
198 212 229
126 121 78
126 121 78
124 120 79
123 121 81
121 120 82
124 123 83
122 121 82
119 119 82
120 119 82
124 124 85
124 123 84
126 125 85
128 127 87
132 130 89
129 128 88
136 134 91
138 136 93
137 135 92
137 136 92
141 138 92
142 139 93
144 142 95
147 144 96
146 143 96
149 145 97
148 145 97
152 148 99
153 148 98
153 149 99
154 150 100
154 150 100
156 151 100
157 152 99
159 154 102
158 153 101
161 156 102
161 155 101
162 156 102
164 158 104
163 158 103
165 159 104
166 160 104
165 159 103
169 162 105
167 159 103
166 160 103
168 162 105
169 162 105
171 164 106
170 163 105
170 163 105
172 165 106
172 165 106
170 163 105
172 164 105
171 164 106
171 164 105
172 164 105
171 164 105
171 163 105
171 163 104
172 164 106
171 164 105
172 164 104
172 164 105
173 165 106
171 164 104
172 164 105
171 163 104
171 164 105
174 166 106
173 165 105
171 164 105
171 164 105
172 164 105
171 163 104
172 164 104
171 163 103
172 164 104
172 163 104
173 164 104
170 162 103
171 163 103
171 163 103
172 163 103
173 165 104
173 164 104
171 162 102
171 163 103
172 164 103
171 163 103
173 164 103
172 164 104
171 163 102
171 163 102
172 163 102
172 164 102
171 163 102
173 164 104
172 164 103
172 163 102
173 164 102
173 164 103
171 163 102
173 165 103
172 163 102
170 162 100
171 163 101
171 162 101
171 163 101
170 162 99
170 161 99
170 161 99
171 162 100
170 161 99
168 160 98
171 162 100
167 159 96
170 161 98
168 159 97
169 160 98
169 160 98
169 160 98
167 159 97
167 159 96
164 156 94
166 158 95
168 160 97
164 155 93
167 159 96
165 156 95
164 155 93
165 157 95
164 155 93
163 155 93
162 153 92
162 154 93
161 153 90
161 153 92
161 154 92
162 154 92
161 153 91
186 204 228
186 204 228
186 204 228
186 204 228
185 204 228
186 204 228
185 204 228
185 204 228
185 203 228
185 203 228
185 203 228
185 203 228
185 203 228
184 203 228
184 203 228
184 203 228
184 203 228
184 203 228
184 203 228
184 203 228
184 203 228
183 203 228
183 203 228
183 203 228
183 202 228
183 202 228
183 202 228
183 202 228
183 202 228
182 202 228
182 202 228
182 202 228
182 202 228
182 202 228
182 202 228
182 202 228
182 202 228
181 201 228
181 202 228
181 201 228
181 201 228
181 201 228
181 201 228
181 201 228
181 201 228
181 201 228
180 201 228
180 201 228
180 201 228
180 201 228
180 201 228
180 201 228
180 201 228
180 201 228
179 200 228
179 200 228
179 200 228
179 200 228
179 200 228
179 200 228
179 200 228
179 200 228
179 200 228
179 200 228
178 200 228
178 200 228
178 200 228
178 200 228
178 200 228
178 199 228
178 200 228
178 199 228
177 199 228
177 199 228
177 199 228
177 199 228
177 199 228
177 199 228
177 199 228
177 199 228
176 199 228
176 199 228
176 199 228
176 199 228
176 199 228
176 199 228
176 199 228
176 199 228
176 198 228
176 198 228
176 198 228
175 198 228
175 198 228
175 198 228
175 198 228
175 198 228
175 198 228
175 198 228
175 198 228
175 198 228
175 198 228
175 198 228
175 198 228
175 198 228
175 198 228
175 198 228
175 198 228
174 198 228
175 198 228
175 198 228
174 198 228
174 198 228
175 198 228
175 198 228
175 198 228
175 198 228
175 198 228
175 198 228
175 198 228
175 198 228
175 198 228
173 196 227
170 193 224
167 190 222
163 186 219
160 183 217
160 183 217
156 179 214
156 179 213
155 178 213
156 179 213
157 179 213
158 181 214
161 183 216
166 187 219
172 194 223
179 200 228
181 201 228
182 202 228
183 202 228
184 203 228
184 202 226
175 191 212
214 231 255
214 232 255
214 232 255
214 232 255
214 232 255
214 232 255
214 232 255
214 232 255
214 232 255
214 232 255
199 217 244
59 91 154
55 87 151
55 88 150
56 89 149
56 89 149
55 88 146
56 90 149
57 90 150
56 90 146
57 91 150
57 90 147
56 89 144
57 90 149
57 90 145
57 91 150
57 90 145
58 91 148
56 89 145
57 91 147
57 90 143
57 90 146
57 91 146
57 90 146
57 91 148
58 91 144
57 90 145
57 91 145
58 91 148
58 91 147
58 91 147
57 91 144
57 90 141
57 90 145
57 90 143
57 91 146
58 91 147
57 90 146
57 90 143
58 92 146
57 91 144
58 91 147
57 91 147
57 91 146
58 91 145
58 91 147
57 91 145
57 90 144
57 91 147
58 91 145
57 91 147
58 92 147
58 91 147
57 90 146
57 91 146
57 90 144
57 91 146
57 91 146
58 92 147
57 91 147
57 90 144
57 91 146
57 91 146
58 91 146
57 90 144
57 91 147
57 90 144
57 91 145
57 91 146
57 90 146
57 91 145
57 90 144
57 90 146
57 90 144
57 90 146
56 88 140
57 89 142
56 88 140
56 89 147
57 89 145
56 88 142
55 86 138
56 88 143
56 88 143
55 86 139
56 88 143
56 87 142
56 88 142
56 87 140
55 86 139
55 85 139
55 85 139
56 85 138
199 216 241
214 232 255
214 232 255
214 232 255
214 232 255
214 232 255
214 232 255
214 232 255
214 232 255
214 232 255
214 231 255
153 155 139
125 120 77
123 120 79
120 117 78
121 119 81
123 121 83
119 118 81
119 118 81
122 121 83
121 121 83
124 122 84
123 122 84
122 121 83
129 128 87
128 127 87
130 129 88
135 133 90
134 132 89
136 135 91
138 136 92
140 138 92
141 138 93
144 142 95
145 142 95
146 143 96
148 144 96
149 145 97
148 144 96
149 146 96
154 149 99
155 150 99
155 150 99
156 151 100
156 152 100
157 152 100
158 153 101
158 153 100
159 154 101
163 157 103
162 156 102
164 158 103
164 158 102
165 158 102
164 158 102
167 161 104
166 159 103
168 162 105
169 162 105
168 161 103
170 162 104
170 163 105
171 164 105
172 164 105
171 163 104
172 163 104
170 163 104
171 163 104
172 164 105
170 162 103
170 163 104
172 164 105
173 164 104
171 162 104
173 165 105
172 164 104
173 165 105
172 164 104
171 163 104
172 163 103
172 164 104
171 162 102
171 163 103
172 164 104
173 164 104
172 163 103
172 164 104
173 165 105
172 163 103
172 164 103
171 163 104
171 163 103
172 164 104
173 165 105
173 165 104
173 164 104
172 163 102
172 163 103
171 163 102
172 163 102
172 163 103
172 163 102
171 162 102
171 162 102
172 163 102
172 163 102
171 162 101
171 162 100
172 163 102
173 164 102
170 162 100
172 163 101
173 164 103
172 163 101
173 164 101
171 162 100
171 163 101
172 163 101
173 164 102
171 162 99
173 164 101
171 163 100
171 162 99
170 161 99
169 161 99
171 163 100
170 162 99
172 164 101
169 160 98
171 162 100
169 160 98
169 160 98
168 159 98
168 160 98
168 160 98
167 159 97
168 159 95
168 159 95
167 159 96
167 158 94
167 159 95
168 159 96
166 157 95
164 156 93
165 157 95
164 156 93
163 155 92
161 153 91
163 155 91
161 153 91
162 154 91
160 152 90
160 151 91
158 150 89
187 204 228
186 204 228
186 204 228
186 204 228
186 204 228
186 204 228
186 204 228
186 204 228
186 204 228
185 204 228
186 204 228
185 204 228
185 204 228
185 203 228
185 203 228
185 203 228
185 203 228
185 203 228
184 203 228
184 203 228
184 203 228
184 203 228
184 203 228
184 203 228
184 203 228
184 203 228
183 203 228
183 203 228
183 203 228
183 202 228
183 202 228
183 202 228
183 202 228
183 202 228
183 202 228
182 202 228
182 202 228
182 202 228
182 202 228
182 202 228
182 202 228
182 202 228
182 202 228
181 201 228
182 202 228
181 201 228
181 201 228
181 201 228
181 201 228
181 201 228
181 201 228
181 201 228
180 201 228
180 201 228
180 201 228
180 201 228
180 201 228
180 201 228
180 201 228
180 201 228
179 201 228
179 200 228
179 200 228
179 200 228
179 200 228
179 200 228
179 200 228
179 200 228
179 200 228
179 200 228
178 200 228
178 200 228
178 200 228
178 200 228
178 200 228
178 200 228
178 200 228
178 200 228
178 199 228
177 199 228
178 200 228
177 199 228
177 199 228
177 199 228
177 199 228
177 199 228
177 199 228
177 199 228
177 199 228
176 199 228
176 199 228
176 199 228
176 199 228
176 199 228
176 199 228
176 199 228
176 199 228
176 199 228
176 199 228
176 198 228
176 199 228
176 198 228
176 199 228
176 198 228
176 198 228
176 198 228
175 198 228
175 198 228
176 198 228
176 198 228
176 198 228
175 198 228
175 198 228
176 198 228
175 198 228
176 198 228
176 198 228
176 198 228
176 199 228
175 198 228
171 193 225
167 190 222
164 187 219
158 181 215
155 178 213
156 179 213
148 171 207
148 171 207
145 168 205
144 166 204
146 168 205
144 166 203
147 169 205
149 171 207
155 176 210
159 180 213
166 187 218
176 197 225
181 201 228
183 202 228
184 203 228
185 204 228
178 195 218
198 214 236
215 232 255
215 232 255
215 232 255
215 232 255
215 232 255
215 232 255
215 232 255
215 232 255
215 232 255
137 157 197
54 87 151
56 89 152
55 88 150
56 89 149
56 89 150
56 89 148
56 89 147
56 89 147
56 89 146
56 89 145
57 90 145
57 90 146
57 90 146
57 90 147
56 89 146
57 91 149
58 91 148
57 91 148
57 90 146
57 90 146
57 91 145
56 89 143
57 90 144
58 91 147
57 90 143
57 91 144
57 90 144
56 90 141
56 89 143
58 92 147
57 90 144
57 90 142
57 91 145
57 91 147
57 90 142
57 91 145
57 90 145
57 91 143
58 92 145
57 91 145
57 91 143
58 92 145
58 91 147
56 90 143
57 90 144
57 90 144
57 91 146
58 92 146
57 91 143
57 90 143
57 91 147
57 90 142
58 91 145
57 91 143
57 91 143
57 90 143
57 90 143
57 91 145
57 90 144
58 91 145
57 90 146
57 91 145
56 90 141
57 91 146
57 90 142
57 90 146
57 90 142
56 89 139
57 90 143
58 91 146
57 90 144
57 90 145
57 89 141
57 90 146
57 90 144
56 89 143
57 89 144
56 89 143
56 88 141
56 88 142
56 89 141
56 88 141
56 88 142
55 87 138
56 87 139
57 89 143
54 85 137
55 85 138
55 86 139
55 85 139
54 85 139
53 83 134
138 156 187
215 232 255
215 232 255
215 232 255
215 232 255
215 232 255
215 232 255
215 232 255
215 232 255
215 232 255
189 200 211
123 118 74
125 121 78
124 121 80
120 117 79
119 117 80
117 116 80
116 116 79
118 118 81
118 118 82
118 118 82
118 118 82
124 124 86
123 123 85
124 123 85
125 125 86
125 124 85
131 130 88
134 133 90
133 132 90
137 135 91
138 135 92
142 138 92
143 140 94
147 144 95
144 140 94
148 144 96
149 145 97
148 143 95
150 146 97
154 150 99
153 148 98
156 152 100
154 150 99
157 152 100
156 151 98
161 155 101
160 154 100
160 154 100
163 158 103
162 157 102
162 157 102
164 158 102
164 157 101
165 158 102
166 158 102
168 160 103
167 159 102
169 162 104
169 162 104
170 162 104
169 161 103
171 164 105
171 163 104
173 165 105
172 164 105
171 163 104
172 164 104
171 163 103
172 164 104
172 164 104
172 165 105
172 164 105
172 164 105
173 165 104
173 164 104
172 164 104
174 165 105
172 164 103
172 164 105
172 163 103
173 165 105
173 165 105
173 165 104
172 164 104
170 162 101
172 164 103
173 165 104
172 164 103
172 163 103
172 164 103
173 164 103
171 163 102
173 164 104
172 163 103
172 163 101
172 163 102
172 164 103
171 163 102
171 163 102
171 163 101
172 163 101
173 164 102
172 164 103
173 164 102
171 163 100
172 163 101
171 163 101
174 165 102
171 162 100
172 164 102
172 163 101
172 163 101
172 164 102
172 163 101
171 162 100
171 163 99
172 163 100
172 163 98
173 164 102
170 162 99
171 162 99
171 163 100
170 161 98
172 163 99
170 161 97
172 164 100
171 163 99
169 159 97
170 162 98
170 161 98
169 161 96
169 160 96
168 159 95
168 159 95
168 159 95
166 158 95
167 158 95
166 158 95
165 157 95
167 158 95
163 155 92
166 158 95
165 157 94
164 155 92
163 155 93
165 156 94
162 154 92
162 154 91
162 155 90
162 154 91
162 154 92
160 152 89
161 152 91
187 205 228
187 204 228
187 204 228
187 204 228
187 204 228
187 204 228
186 204 228
186 204 228
186 204 228
186 204 228
186 204 228
186 204 228
186 204 228
186 204 228
185 204 228
185 204 228
185 204 228
185 203 228
185 204 228
185 204 228
185 203 228
185 203 228
184 203 228
184 203 228
184 203 228
184 203 228
184 203 228
184 203 228
184 203 228
184 203 228
184 203 228
184 203 228
184 203 228
183 203 228
183 202 228
183 202 228
183 202 228
183 202 228
183 202 228
183 202 228
182 202 228
183 202 228
182 202 228
182 202 228
182 202 228
182 202 228
182 202 228
182 202 228
182 202 228
182 202 228
181 202 228
181 202 228
181 201 228
181 201 228
181 201 228
181 201 228
181 201 228
181 201 228
181 201 228
180 201 228
180 201 228
180 201 228
180 201 228
180 201 228
180 201 228
180 201 228
180 201 228
180 201 228
179 200 228
179 200 228
179 200 228
179 200 228
179 200 228
179 200 228
179 200 228
179 200 228
179 200 228
179 200 228
179 200 228
179 200 228
178 200 228
178 200 228
178 200 228
178 200 228
178 200 228
178 200 228
178 200 228
178 200 228
178 199 228
178 200 228
177 199 228
177 199 228
177 199 228
177 199 228
177 199 228
177 199 228
177 199 228
177 199 228
177 199 228
177 199 228
177 199 228
177 199 228
177 199 228
177 199 228
176 199 228
177 199 228
177 199 228
176 199 228
176 199 228
177 199 228
176 199 228
176 199 228
177 199 228
177 199 228
177 199 228
176 199 228
177 199 228
177 199 228
176 198 228
171 193 224
167 190 221
164 186 219
158 181 214
154 177 211
148 171 207
145 167 204
142 165 202
137 160 199
133 155 195
131 154 194
131 153 194
129 151 191
131 153 193
135 157 196
140 161 199
147 168 204
154 175 208
161 182 214
174 194 223
182 201 228
184 203 228
185 203 228
186 203 227
176 192 213
214 231 254
215 232 255
215 232 255
215 232 255
215 232 255
215 232 255
215 232 255
215 232 255
203 220 246
64 94 157
55 87 150
56 89 150
56 88 149
56 89 150
57 90 148
56 89 146
57 90 147
57 90 147
56 89 144
57 90 147
57 90 142
57 91 146
57 90 147
57 91 148
56 89 143
56 90 146
56 89 140
58 91 145
57 90 144
57 90 145
57 91 144
57 91 147
57 91 145
57 90 144
57 91 145
57 90 144
57 91 144
57 90 145
57 90 142
57 90 143
58 91 145
58 91 147
57 91 143
57 90 142
57 91 143
57 90 142
57 90 144
58 92 146
57 90 143
58 92 146
58 91 147
58 91 144
57 90 144
58 91 146
58 91 145
57 91 142
58 91 146
57 91 145
57 90 143
58 92 148
57 91 144
57 90 144
57 90 143
57 91 144
58 92 145
57 90 144
57 91 143
58 92 147
57 91 144
57 90 143
58 91 145
57 90 143
57 90 140
57 90 142
56 89 140
57 90 140
57 90 139
58 91 145
57 90 145
57 90 143
56 89 142
56 89 141
56 89 142
56 89 141
57 89 144
57 89 143
56 87 140
56 88 141
56 87 140
56 88 139
56 88 140
56 89 141
56 87 140
56 88 139
55 86 139
55 86 138
55 86 138
55 86 138
55 85 138
54 84 135
55 85 137
54 83 133
60 86 136
203 220 245
215 232 255
215 232 255
215 232 255
215 232 255
215 232 255
215 232 255
215 232 255
214 230 253
139 139 114
124 120 76
117 113 74
119 117 79
114 112 76
117 117 80
115 115 79
108 109 76
117 117 81
115 115 80
115 115 80
120 119 82
122 122 84
120 120 83
123 123 84
127 126 86
127 127 87
130 129 88
132 131 89
134 132 90
134 132 90
138 135 91
139 136 91
144 140 93
147 143 96
145 142 95
148 144 96
151 146 97
149 145 96
151 147 96
154 150 99
152 147 97
154 149 98
157 152 99
156 150 98
156 151 99
158 153 100
158 153 99
158 152 99
161 155 101
161 156 101
163 156 100
165 158 102
165 158 102
165 158 102
166 158 101
168 161 103
168 161 103
170 162 104
171 163 103
168 161 102
169 161 102
170 163 103
170 162 103
170 162 102
172 164 104
171 163 103
171 163 103
172 163 104
173 165 104
173 164 104
173 164 104
173 165 104
172 163 103
172 164 103
173 164 104
172 163 103
173 164 102
173 165 104
174 165 103
172 164 103
172 164 103
172 164 103
171 163 101
172 163 102
173 164 104
172 164 103
171 163 102
172 163 102
172 164 103
173 164 103
171 163 101
171 162 101
171 163 101
171 163 102
172 164 103
171 163 102
171 163 101
172 163 101
172 163 101
173 164 102
172 164 102
172 164 102
172 164 102
172 163 101
173 165 103
172 163 100
172 163 100
172 163 101
172 163 100
173 164 100
172 163 100
171 163 100
171 162 100
172 163 100
172 162 98
172 164 101
172 164 100
170 161 98
172 163 99
171 162 100
171 163 99
171 162 98
172 163 100
172 163 99
171 161 98
169 160 96
169 161 97
171 162 97
170 161 98
168 159 96
170 161 97
169 160 96
167 159 96
166 158 95
170 161 97
168 159 95
167 159 95
167 159 94
166 158 94
165 156 93
167 158 94
166 158 94
164 155 92
165 156 93
166 157 94
162 154 91
164 155 92
162 153 90
163 154 92
162 153 90
163 154 90
160 152 89
161 153 90
187 205 228
187 205 228
187 205 228
187 205 228
187 205 228
187 205 228
187 204 228
187 204 228
186 204 228
186 204 228
187 204 228
186 204 228
186 204 228
186 204 228
186 204 228
186 204 228
186 204 228
186 204 228
186 204 228
185 204 228
185 204 228
185 204 228
185 204 228
185 204 228
185 203 228
185 203 228
185 203 228
185 203 228
185 203 228
184 203 228
184 203 228
184 203 228
184 203 228
184 203 228
184 203 228
184 203 228
184 203 228
183 203 228
183 203 228
183 203 228
183 203 228
183 202 228
183 202 228
183 202 228
183 202 228
183 202 228
183 202 228
182 202 228
182 202 228
182 202 228
182 202 228
182 202 228
182 202 228
182 202 228
182 202 228
181 202 228
182 202 228
182 202 228
181 201 228
181 201 228
181 201 228
181 201 228
181 201 228
181 201 228
181 201 228
181 201 228
181 201 228
180 201 228
180 201 228
180 201 228
180 201 228
180 201 228
180 201 228
180 201 228
180 201 228
180 201 228
179 201 228
180 201 228
179 200 228
179 200 228
179 200 228
179 200 228
179 200 228
179 200 228
179 200 228
179 200 228
179 200 228
179 200 228
178 200 228
178 200 228
178 200 228
178 200 228
178 200 228
178 200 228
178 200 228
178 200 228
178 200 228
178 200 228
178 200 228
178 200 228
178 200 228
178 200 228
178 200 228
178 199 228
177 199 228
177 199 228
177 199 228
177 199 228
177 199 228
177 199 228
177 199 228
177 199 228
177 199 228
177 199 228
178 200 228
177 199 228
177 199 228
176 198 227
171 193 224
165 187 219
162 184 217
158 180 213
152 174 209
146 168 204
140 163 200
135 157 196
131 154 193
126 148 189
121 144 187
121 144 187
115 138 182
115 137 182
113 135 180
119 141 184
121 143 185
128 149 189
138 158 196
147 167 202
159 179 210
169 188 218
182 201 227
185 203 228
186 204 228
181 197 220
195 211 233
215 232 255
215 232 255
215 232 255
215 232 255
215 232 255
215 232 255
215 232 255
150 168 205
54 86 149
55 87 149
55 88 148
56 89 149
56 89 147
56 89 146
56 90 147
56 89 144
56 88 144
57 90 147
56 89 144
56 89 142
56 89 141
57 90 144
57 90 144
57 90 145
57 90 145
56 89 141
57 90 145
56 89 143
57 91 144
57 90 144
56 88 139
57 90 144
56 89 142
57 91 144
57 90 142
57 90 141
57 90 143
57 91 143
56 90 143
57 90 142
57 91 145
57 91 143
57 90 142
57 90 143
57 91 143
58 92 144
56 89 142
58 91 145
57 91 142
57 90 141
57 91 144
57 91 142
58 92 145
57 91 145
58 91 144
58 92 142
57 91 141
57 90 142
56 90 140
57 90 143
58 92 144
57 91 143
57 90 141
58 91 145
56 89 142
58 91 146
57 91 146
57 90 142
56 90 140
57 90 142
58 91 144
56 89 141
56 89 140
57 90 141
57 90 143
57 89 142
56 89 142
57 90 143
56 89 142
57 90 145
56 89 141
57 89 142
57 89 141
56 89 142
56 88 140
56 89 139
56 88 141
56 88 140
56 88 141
56 88 139
56 87 140
55 87 138
56 88 142
56 88 139
55 86 135
56 87 141
56 87 137
55 85 137
55 86 136
54 84 133
54 84 134
52 81 131
151 168 196
215 232 255
215 232 255
215 232 255
215 232 255
215 232 255
215 232 255
215 232 255
185 196 206
124 120 75
118 115 74
115 112 75
112 111 75
111 110 76
112 111 77
113 113 78
114 113 79
112 112 77
113 114 80
112 113 79
117 117 81
114 114 79
118 118 82
119 120 83
125 124 85
124 123 84
131 130 89
131 130 89
130 128 86
134 132 90
138 135 91
139 137 92
142 138 92
145 141 93
146 142 94
147 143 95
148 144 96
146 143 95
149 145 96
152 147 96
151 146 96
155 150 98
154 149 97
156 151 98
157 152 99
158 152 99
159 153 99
160 154 99
158 153 99
162 156 100
162 155 100
163 157 100
163 156 99
163 156 100
164 157 101
169 161 103
167 160 102
166 159 101
169 161 102
169 161 102
170 162 103
171 163 104
172 164 104
172 163 102
171 163 103
173 164 104
172 163 102
171 163 103
173 164 103
173 164 103
172 163 102
171 163 103
172 163 102
173 164 103
172 163 102
173 164 103
172 163 102
172 163 101
173 165 104
173 164 103
172 163 102
174 165 104
172 164 102
172 163 101
171 163 102
172 163 102
173 164 102
173 164 102
172 163 101
172 163 101
172 164 102
173 164 102
173 164 102
173 165 103
171 163 101
173 164 102
171 163 101
172 164 101
172 163 102
172 163 101
172 164 102
172 163 101
172 164 102
171 162 99
171 163 100
171 163 101
172 163 100
171 162 100
170 162 99
172 163 100
171 163 98
172 164 101
172 163 99
173 165 100
171 163 99
172 163 99
171 163 99
170 161 97
170 161 97
171 162 97
171 162 98
172 163 98
172 164 98
172 163 99
171 162 97
167 159 95
170 161 97
168 160 96
168 160 96
170 161 97
170 162 97
167 159 93
168 160 96
169 160 94
169 161 95
167 159 94
166 158 93
167 159 95
163 155 91
164 156 91
164 155 91
166 158 93
166 158 93
164 156 91
163 155 91
164 155 91
164 156 92
165 156 92
161 153 90
161 153 89
160 152 87
162 154 89
159 151 88
188 205 228
188 205 228
188 205 228
188 205 228
188 205 228
187 205 228
187 205 228
187 205 228
187 205 228
187 205 228
187 205 228
187 205 228
187 204 228
186 204 228
186 204 228
186 204 228
186 204 228
186 204 228
186 204 228
186 204 228
186 204 228
186 204 228
186 204 228
186 204 228
185 204 228
185 204 228
185 204 228
185 204 228
185 204 228
185 203 228
185 203 228
185 204 228
185 203 228
185 203 228
184 203 228
184 203 228
184 203 228
184 203 228
184 203 228
184 203 228
184 203 228
184 203 228
184 203 228
184 203 228
184 203 228
184 203 228
183 203 228
183 203 228
183 203 228
183 202 228
183 202 228
183 202 228
183 202 228
183 202 228
183 202 228
182 202 228
182 202 228
182 202 228
182 202 228
182 202 228
182 202 228
182 202 228
182 202 228
182 202 228
181 202 228
181 202 228
182 202 228
181 201 228
181 201 228
181 201 228
181 201 228
181 201 228
181 201 228
181 201 228
180 201 228
181 201 228
181 201 228
180 201 228
180 201 228
180 201 228
180 201 228
180 201 228
180 201 228
180 201 228
180 201 228
180 201 228
179 201 228
180 201 228
179 200 228
179 200 228
179 200 228
179 200 228
179 200 228
179 200 228
179 200 228
179 200 228
179 200 228
179 200 228
179 200 228
179 200 228
179 200 228
179 200 228
178 200 228
178 200 228
178 200 228
179 200 228
178 200 228
178 200 228
178 200 228
178 200 228
178 200 228
178 200 228
178 200 228
178 200 228
178 200 228
178 200 228
177 198 227
173 195 224
168 190 221
162 184 216
157 179 211
152 173 208
147 169 204
141 163 199
133 155 195
126 148 188
118 140 183
112 135 179
107 130 176
108 131 177
102 125 173
100 123 170
103 126 173
102 125 172
104 127 173
110 131 176
119 140 182
129 150 189
142 162 197
154 174 206
170 189 218
183 202 227
186 204 228
187 204 227
176 191 212
215 232 255
216 232 255
216 232 255
216 232 255
216 232 255
215 232 255
213 230 254
82 107 160
54 86 145
55 88 149
55 87 144
56 89 145
56 89 146
56 89 147
56 89 143
56 89 145
56 89 144
57 90 145
56 90 143
57 90 145
56 89 144
56 89 142
56 90 142
56 88 141
56 89 142
57 90 144
56 89 140
57 90 143
57 90 141
57 90 141
57 91 144
57 90 144
57 90 141
57 90 143
57 90 142
56 89 140
58 92 146
57 91 143
57 91 142
57 90 142
56 89 142
57 91 143
58 91 144
57 90 143
57 90 142
57 90 140
57 90 142
57 90 144
58 91 144
57 91 143
57 91 142
58 91 142
58 92 145
57 91 143
57 91 143
56 89 141
56 89 138
57 91 144
57 90 140
57 91 142
58 92 146
58 92 145
58 91 144
57 90 142
57 91 143
57 90 143
57 91 140
57 90 140
57 91 142
57 91 141
56 89 140
57 91 142
57 90 141
57 91 142
57 90 143
56 89 139
57 90 141
56 89 140
57 90 141
57 90 141
57 90 143
56 89 140
57 90 143
56 89 141
56 89 140
56 89 141
56 89 142
56 88 140
56 88 139
56 88 138
55 87 138
56 88 139
56 88 139
55 86 136
55 87 138
55 87 138
55 87 138
55 85 134
53 84 132
54 84 133
54 84 134
53 82 131
75 98 139
213 229 253
215 232 255
216 232 255
216 232 255
216 232 255
216 232 255
215 232 255
138 139 116
118 114 73
114 111 73
112 110 74
110 108 73
110 109 75
108 108 74
108 108 75
109 109 77
107 108 76
109 110 77
112 113 79
111 112 78
119 119 82
116 116 81
117 117 81
121 121 84
123 122 84
126 125 86
129 127 87
131 129 87
134 132 90
133 131 88
136 134 90
140 137 91
141 138 92
144 140 93
147 144 95
148 144 95
151 147 97
151 147 96
150 145 95
156 151 99
152 147 96
156 150 98
156 150 97
158 153 99
158 152 98
157 152 98
158 152 98
162 156 100
162 156 100
163 157 100
164 157 100
165 158 102
165 158 100
168 161 102
166 159 100
167 160 101
170 162 102
167 160 101
170 162 102
170 162 102
170 163 103
171 162 102
170 162 100
171 163 102
170 162 102
171 163 102
173 164 103
172 163 102
172 164 103
173 165 103
173 165 103
173 164 103
171 162 100
173 164 102
172 163 102
172 163 101
171 162 100
173 165 103
173 164 102
172 164 102
173 164 102
171 163 101
172 164 102
173 164 102
172 163 101
171 163 101
173 164 102
172 164 102
171 163 101
172 163 101
172 163 99
171 162 101
172 164 101
171 162 101
173 164 101
172 164 100
170 162 98
172 163 100
172 163 100
172 163 100
172 163 99
172 164 102
172 163 100
174 165 100
171 162 99
171 162 98
170 161 98
172 164 100
171 162 99
170 161 97
171 162 97
171 162 99
171 162 98
172 163 98
171 162 96
172 163 99
172 163 99
171 162 97
169 160 96
170 161 97
170 162 97
171 162 97
169 160 96
170 162 97
171 162 98
169 160 95
170 161 96
170 161 95
170 162 97
170 161 95
169 160 95
168 160 95
167 159 94
168 160 95
165 157 92
168 160 93
164 156 92
167 158 93
168 159 94
165 157 92
165 156 91
165 156 91
166 157 91
166 157 92
164 156 91
163 154 90
164 156 91
161 152 88
162 153 88
162 154 88
162 154 89
160 152 88
188 205 228
188 205 228
188 205 228
188 205 228
188 205 228
188 205 228
188 205 228
188 205 228
188 205 228
188 205 228
188 205 228
187 205 228
187 205 228
187 205 228
187 205 228
187 205 228
187 205 228
187 205 228
186 204 228
187 204 228
187 204 228
186 204 228
186 204 228
186 204 228
186 204 228
186 204 228
186 204 228
186 204 228
186 204 228
186 204 228
186 204 228
186 204 228
185 204 228
185 204 228
185 204 228
185 203 228
185 204 228
185 204 228
185 203 228
185 203 228
185 203 228
185 203 228
185 203 228
184 203 228
184 203 228
184 203 228
184 203 228
184 203 228
184 203 228
184 203 228
184 203 228
184 203 228
183 203 228
183 203 228
183 203 228
183 202 228
183 202 228
183 202 228
183 202 228
183 202 228
183 202 228
183 202 228
183 202 228
182 202 228
182 202 228
182 202 228
182 202 228
182 202 228
182 202 228
182 202 228
182 202 228
182 202 228
182 202 228
182 202 228
182 202 228
181 202 228
181 202 228
181 201 228
181 201 228
181 201 228
181 201 228
181 201 228
181 201 228
181 201 228
181 201 228
181 201 228
181 201 228
180 201 228
180 201 228
180 201 228
180 201 228
180 201 228
180 201 228
180 201 228
180 201 228
180 201 228
180 201 228
180 201 228
180 201 228
179 200 228
180 201 228
179 201 228
180 201 228
179 200 228
179 200 228
179 201 228
179 201 228
179 200 228
179 200 228
179 200 228
179 200 228
179 200 228
179 200 228
179 200 228
179 200 228
179 200 228
175 196 225
169 190 220
163 185 217
157 179 211
152 173 208
146 167 203
140 162 199
128 150 189
124 146 187
115 137 181
108 131 175
98 121 169
96 120 169
87 110 161
86 110 162
84 108 161
82 106 158
82 106 158
88 111 163
86 109 160
96 118 166
110 131 175
121 141 183
136 156 193
153 173 205
171 190 218
185 203 228
187 205 228
179 195 217
200 216 238
216 233 255
216 233 255
216 233 255
216 232 255
216 232 255
178 195 224
53 85 147
54 86 146
55 88 146
54 86 144
55 88 142
55 88 143
56 89 144
56 89 142
56 89 141
56 89 142
56 89 144
57 90 143
57 90 144
57 90 143
56 89 139
56 89 142
56 88 140
57 90 145
57 90 143
57 90 143
56 89 139
56 89 140
57 91 145
57 90 142
56 89 139
56 89 138
57 90 141
56 90 142
57 90 140
57 91 144
57 90 144
57 91 145
57 91 143
57 90 143
58 92 146
57 91 141
57 91 141
57 91 143
57 90 140
58 91 142
56 90 138
57 91 143
58 92 142
57 91 141
57 90 140
56 89 138
57 90 140
57 91 140
57 91 142
58 92 145
57 90 142
58 92 144
57 90 142
57 91 143
57 90 142
57 91 140
57 91 142
57 90 139
57 90 142
57 91 140
56 89 138
57 90 142
57 90 139
57 91 142
57 91 144
57 90 141
57 90 140
57 90 139
57 90 142
57 90 140
56 89 140
57 90 141
56 89 139
56 88 138
56 88 135
56 88 139
56 89 138
56 88 137
56 88 137
56 88 138
56 88 137
55 87 136
56 88 138
56 88 139
55 86 136
56 88 138
55 86 133
56 87 139
55 87 138
55 86 135
55 86 133
55 85 135
54 84 132
54 83 132
52 81 130
51 78 123
182 198 223
216 232 255
216 232 255
216 233 255
216 233 255
216 233 255
190 201 211
118 113 71
114 111 72
111 108 72
104 103 70
106 106 72
102 102 71
104 104 72
101 102 71
104 105 73
109 110 76
105 106 75
109 110 77
109 110 77
115 116 80
116 116 80
118 119 82
118 118 82
120 120 82
122 121 84
126 125 86
129 127 87
134 132 89
137 134 90
140 137 91
141 138 92
142 139 92
141 137 90
144 140 93
148 143 94
148 144 94
147 143 94
151 146 95
153 148 96
153 147 96
154 149 97
153 149 97
156 150 97
157 151 97
158 152 97
158 151 97
162 156 100
162 155 99
162 155 99
165 158 101
165 157 99
164 157 99
166 159 100
167 160 100
166 158 99
167 159 99
167 159 100
171 163 102
171 162 102
170 162 100
170 162 100
172 164 103
173 164 103
171 163 102
172 163 101
172 163 101
172 164 102
172 163 100
171 162 100
172 163 101
172 164 101
172 163 100
171 163 100
173 164 101
172 163 100
174 164 101
172 163 101
173 164 101
172 163 101
172 163 101
172 164 102
171 163 100
171 163 100
172 163 100
172 163 100
170 161 99
171 163 100
172 163 101
172 163 98
172 164 100
172 163 100
171 163 99
170 162 99
173 164 100
172 163 99
171 162 99
171 162 99
171 163 99
172 163 99
171 162 98
172 163 100
170 162 98
170 161 97
170 161 97
173 164 100
172 163 99
171 162 97
170 161 96
170 161 96
171 163 97
171 162 98
170 162 97
170 161 96
171 163 98
170 161 96
172 164 99
171 163 98
170 161 94
171 162 97
173 164 98
171 162 96
171 162 96
169 160 94
171 162 96
169 160 94
171 162 97
169 161 95
169 160 94
167 158 92
169 160 95
168 159 93
168 159 94
167 159 93
167 159 94
167 158 92
165 157 91
165 157 90
165 157 90
166 157 92
165 157 92
163 155 90
164 155 90
164 155 89
163 155 90
164 155 90
161 153 88
162 153 88
161 152 88
162 153 87
161 153 88
159 151 86
189 206 228
189 206 228
189 206 228
189 206 228
189 206 228
188 205 228
188 205 228
188 205 228
188 205 228
188 205 228
188 205 228
188 205 228
188 205 228
188 205 228
188 205 228
188 205 228
187 205 228
187 205 228
187 205 228
187 205 228
187 205 228
187 205 228
187 205 228
187 205 228
187 204 228
187 204 228
187 204 228
187 204 228
186 204 228
186 204 228
186 204 228
186 204 228
186 204 228
186 204 228
186 204 228
186 204 228
186 204 228
185 204 228
185 204 228
185 204 228
185 204 228
185 204 228
185 204 228
185 204 228
185 203 228
185 203 228
185 203 228
185 203 228
185 203 228
184 203 228
184 203 228
184 203 228
184 203 228
184 203 228
184 203 228
184 203 228
184 203 228
184 203 228
184 203 228
184 203 228
183 203 228
183 203 228
183 203 228
183 203 228
183 203 228
183 203 228
183 202 228
183 202 228
183 202 228
183 202 228
183 202 228
183 202 228
182 202 228
182 202 228
182 202 228
182 202 228
182 202 228
182 202 228
182 202 228
182 202 228
182 202 228
182 202 228
182 202 228
182 202 228
182 202 228
182 202 228
181 202 228
182 202 228
181 202 228
181 201 228
181 202 228
181 201 228
181 201 228
181 201 228
181 201 228
181 201 228
181 201 228
181 201 228
181 201 228
181 201 228
180 201 228
181 201 228
180 201 228
180 201 228
181 201 228
180 201 228
180 201 228
180 201 228
180 201 228
180 201 228
180 201 228
180 201 228
180 201 228
180 201 228
180 201 228
178 199 227
171 192 222
165 186 217
158 179 211
152 173 206
147 168 203
139 161 196
129 150 189
120 142 182
113 136 179
98 121 169
94 117 165
89 112 162
80 105 158
72 97 152
61 88 147
59 85 145
59 86 146
55 82 143
58 84 145
66 91 148
77 100 153
90 112 162
99 120 167
120 140 179
132 151 188
155 173 204
175 193 219
187 205 228
188 204 227
181 196 216
216 233 255
216 233 255
216 233 255
216 233 255
216 233 255
132 151 190
53 84 143
53 85 141
55 87 144
55 87 144
55 88 143
55 88 143
56 89 142
56 88 140
56 89 142
56 89 144
56 89 142
56 89 142
56 89 143
55 87 138
56 89 143
56 89 140
57 90 144
57 90 141
57 91 143
57 90 143
57 90 139
57 91 144
56 89 140
57 90 142
57 91 143
57 90 140
57 90 141
57 90 139
57 90 139
57 90 140
57 90 140
58 91 144
56 89 138
57 91 143
57 91 140
57 90 139
57 90 140
58 92 142
58 91 142
57 90 141
58 91 145
57 91 139
57 91 140
56 89 140
56 90 140
57 90 140
58 91 142
57 90 141
57 90 140
58 92 143
57 90 141
57 91 140
57 90 141
57 91 143
57 90 141
56 89 138
57 90 137
57 90 141
58 91 143
57 90 142
57 91 143
57 90 141
57 90 142
57 90 139
58 92 143
56 90 141
57 90 141
57 90 141
57 90 142
56 89 140
57 90 141
57 90 139
56 89 138
56 89 138
56 89 138
56 88 139
56 89 136
56 88 140
57 89 141
57 89 139
55 86 133
56 88 139
56 88 139
56 87 136
56 87 134
55 86 132
55 87 137
55 86 135
55 87 135
54 85 133
55 85 132
55 85 133
54 84 135
54 84 132
53 82 131
52 80 125
133 150 178
216 233 255
216 233 255
216 233 255
216 233 255
216 233 255
151 153 140
119 116 74
105 103 68
102 101 69
99 99 69
103 103 72
99 99 69
99 100 70
98 99 70
102 103 72
103 104 73
103 105 74
105 106 74
106 107 75
109 111 79
108 109 76
116 117 82
118 117 81
121 121 84
122 122 84
128 126 86
129 128 87
132 130 87
135 132 89
138 136 90
136 133 89
140 136 91
146 141 92
141 138 91
146 142 94
149 144 93
148 143 93
152 147 96
150 145 94
153 148 96
152 147 95
155 149 96
156 150 96
156 151 97
157 151 96
158 152 97
159 152 97
162 155 98
163 156 99
163 156 99
163 156 99
166 159 100
165 158 99
169 160 100
168 160 100
166 158 99
169 161 101
168 160 99
170 161 100
169 162 100
170 162 101
172 164 101
170 162 100
172 163 100
171 162 99
172 163 100
171 163 101
171 162 100
172 164 101
172 163 100
171 163 100
171 163 99
174 164 101
172 163 101
172 163 101
172 163 100
170 161 98
171 162 98
173 164 101
171 162 98
172 163 100
171 162 99
171 162 99
171 163 99
170 161 97
172 163 99
171 162 98
171 163 100
172 163 100
171 163 99
172 163 99
172 163 99
172 163 100
172 163 99
170 161 97
172 164 99
171 163 99
170 161 97
172 163 98
170 162 97
170 161 97
171 162 97
172 164 98
171 162 98
170 161 96
171 162 97
170 161 95
171 162 97
171 163 98
170 162 96
170 161 97
170 161 96
172 163 97
170 162 96
171 162 97
171 162 95
169 160 95
170 161 96
171 162 96
170 161 95
172 163 97
170 162 96
170 162 94
170 161 93
170 161 94
167 158 92
169 160 93
169 161 95
167 159 92
169 160 94
168 159 91
168 159 93
168 160 94
168 159 92
166 158 92
166 158 90
168 160 93
165 158 91
165 157 91
165 156 90
164 156 90
164 155 89
165 157 90
163 155 89
163 154 88
162 153 89
163 155 89
164 155 89
161 153 88
160 152 86
162 153 89
190 206 228
190 206 228
189 206 228
189 206 228
189 206 228
189 206 228
189 206 228
189 206 228
188 205 228
189 205 228
188 205 228
189 205 228
188 205 228
188 205 228
188 205 228
188 205 228
188 205 228
188 205 228
188 205 228
188 205 228
188 205 228
188 205 228
187 205 228
188 205 228
187 205 228
187 205 228
187 205 228
187 205 228
187 205 228
187 205 228
187 205 228
187 205 228
187 205 228
187 204 228
187 204 228
187 204 228
186 204 228
186 204 228
186 204 228
186 204 228
186 204 228
186 204 228
186 204 228
186 204 228
186 204 228
186 204 228
186 204 228
185 204 228
186 204 228
185 204 228
185 204 228
185 204 228
185 204 228
185 203 228
185 204 228
185 203 228
185 203 228
185 203 228
185 203 228
185 203 228
184 203 228
184 203 228
184 203 228
184 203 228
184 203 228
184 203 228
184 203 228
184 203 228
184 203 228
184 203 228
184 203 228
184 203 228
184 203 228
183 202 228
183 203 228
183 203 228
183 202 228
183 202 228
183 202 228
183 202 228
183 202 228
183 202 228
183 202 228
182 202 228
183 202 228
183 202 228
183 202 228
182 202 228
182 202 228
182 202 228
182 202 228
182 202 228
182 202 228
182 202 228
182 202 228
182 202 228
182 202 228
182 202 228
181 202 228
182 202 228
182 202 228
181 202 228
181 202 228
181 202 228
181 201 228
181 202 228
181 202 228
181 202 228
181 201 228
181 202 228
181 201 228
181 201 228
181 202 228
181 201 228
180 200 228
174 194 223
167 187 217
163 183 214
154 174 208
150 171 204
141 162 198
128 149 187
119 141 182
110 132 176
100 123 168
90 114 163
82 106 156
71 96 150
59 86 145
51 80 142
49 79 142
49 78 139
48 78 139
48 76 138
47 76 139
47 76 137
49 77 139
56 82 142
72 95 149
95 116 162
115 135 176
135 154 189
156 174 205
181 199 224
189 206 228
176 191 212
208 224 246
216 233 255
216 233 255
216 233 255
210 227 250
64 91 145
54 86 146
54 86 141
55 87 142
55 87 142
55 88 141
56 88 140
56 89 141
56 88 141
56 90 142
56 89 140
56 89 141
56 89 141
56 89 141
56 89 143
56 89 140
57 90 141
57 90 140
57 90 140
57 90 138
57 90 144
57 91 143
56 89 140
57 90 138
56 89 139
57 90 138
57 90 142
57 91 143
56 90 138
57 91 137
57 90 141
57 90 140
57 91 136
56 89 136
57 90 140
57 90 139
57 90 140
57 91 142
57 90 139
57 90 136
57 90 139
57 90 139
58 92 145
57 90 141
58 92 143
57 90 139
57 91 142
57 91 142
57 90 139
58 92 142
57 90 139
57 90 141
57 91 141
57 91 138
57 90 140
57 91 142
57 91 144
57 90 140
56 90 139
57 90 141
57 90 141
57 90 141
57 90 139
57 91 139
57 91 142
57 91 143
57 90 140
56 89 137
57 90 140
57 90 139
57 89 142
56 89 139
56 89 139
56 88 139
56 89 139
56 89 137
57 89 140
56 89 136
56 88 136
56 88 138
55 86 135
56 88 136
56 88 137
56 87 136
55 87 136
55 87 136
56 87 138
55 86 134
55 86 136
55 86 131
55 86 135
54 84 131
54 84 130
54 84 132
53 83 129
53 83 128
51 79 122
59 83 123
211 228 250
216 233 255
216 233 255
216 233 255
203 217 235
118 113 69
115 112 72
101 100 66
100 99 67
94 94 65
95 96 67
95 96 68
96 97 68
96 97 69
98 99 71
101 102 72
98 99 71
100 101 72
105 107 75
110 111 78
110 111 78
113 113 79
117 117 81
118 118 81
125 124 84
122 121 83
129 127 86
135 132 89
134 131 86
134 132 87
135 132 88
140 137 90
141 137 90
144 140 91
146 142 93
147 142 92
147 142 93
149 145 93
151 146 94
152 146 93
153 148 95
156 150 96
155 150 96
158 152 96
160 154 98
159 152 96
160 152 95
161 154 97
161 154 96
161 155 98
163 156 97
164 156 98
165 158 99
165 158 98
165 157 99
167 160 99
168 160 98
170 161 99
168 159 98
169 161 99
171 163 101
170 162 98
171 162 99
171 163 100
172 163 101
173 165 101
172 163 100
172 164 100
172 163 99
171 162 99
173 164 100
172 163 98
172 163 99
170 161 98
171 163 98
169 160 97
172 163 99
172 163 99
171 162 98
172 162 98
171 162 98
171 162 98
172 163 99
172 162 97
172 164 99
172 163 99
171 162 97
172 163 99
172 163 99
171 162 97
170 161 96
169 161 96
171 162 97
171 163 98
170 162 96
171 163 97
171 163 97
170 162 97
171 162 96
171 162 97
171 162 97
169 160 95
172 163 97
172 164 98
171 162 97
171 162 97
170 161 95
171 162 96
169 160 93
170 161 94
172 163 97
169 161 95
169 160 93
171 162 96
169 161 95
171 162 94
169 161 94
170 161 95
169 160 93
170 160 94
170 161 94
170 162 94
170 161 95
170 162 94
169 160 93
169 161 94
169 160 93
170 161 94
168 160 92
166 157 90
168 159 92
169 160 92
166 158 90
169 160 93
166 157 89
167 159 92
165 156 90
165 157 91
165 157 90
164 155 88
165 157 90
164 155 88
164 156 89
165 157 87
164 155 89
164 156 89
161 153 87
165 158 90
162 154 87
162 154 87
159 151 86
190 206 228
190 206 228
190 206 228
190 206 228
190 206 228
190 206 228
189 206 228
189 206 228
189 206 228
189 206 228
189 206 228
189 206 228
189 206 228
189 206 228
189 206 228
189 206 228
189 206 228
189 206 228
188 205 228
189 205 228
188 205 228
188 205 228
188 205 228
188 205 228
188 205 228
188 205 228
188 205 228
188 205 228
188 205 228
188 205 228
188 205 228
188 205 228
188 205 228
187 205 228
187 205 228
187 205 228
187 205 228
187 205 228
187 205 228
187 205 228
187 204 228
187 204 228
187 204 228
186 204 228
186 204 228
186 204 228
186 204 228
186 204 228
186 204 228
186 204 228
186 204 228
186 204 228
186 204 228
186 204 228
186 204 228
186 204 228
186 204 228
186 204 228
185 204 228
185 204 228
185 204 228
185 204 228
185 204 228
185 204 228
185 204 228
185 203 228
185 203 228
185 203 228
185 203 228
185 203 228
185 203 228
184 203 228
184 203 228
184 203 228
184 203 228
184 203 228
184 203 228
184 203 228
184 203 228
184 203 228
184 203 228
184 203 228
183 203 228
184 203 228
183 203 228
183 203 228
183 203 228
183 203 228
183 203 228
183 202 228
183 202 228
183 202 228
183 202 228
183 202 228
183 202 228
183 202 228
183 202 228
183 202 228
183 202 228
183 202 228
182 202 228
183 202 228
182 202 228
182 202 228
182 202 228
182 202 228
182 202 228
182 202 228
182 202 228
182 202 228
182 202 228
182 202 228
182 202 228
182 202 228
180 199 226
171 191 219
166 186 216
156 176 207
153 174 206
142 163 197
135 156 193
123 145 184
109 131 174
100 122 167
89 112 161
76 101 151
66 92 148
54 83 141
48 78 137
49 78 137
49 78 138
47 76 135
47 76 136
47 75 136
47 76 137
47 75 137
45 73 134
45 73 136
45 73 134
60 84 140
90 110 156
116 135 175
137 155 189
165 182 209
187 204 227
187 202 224
191 206 226
217 233 255
217 233 255
217 233 255
179 195 224
51 82 141
53 85 143
54 86 143
55 87 141
55 87 142
56 88 141
56 88 142
55 87 140
56 88 140
56 88 140
56 89 143
56 89 140
56 89 140
55 87 137
56 90 140
57 90 141
56 90 138
56 89 137
56 89 135
57 90 142
57 90 141
56 89 139
56 89 138
57 90 139
56 89 139
56 89 137
57 90 140
57 90 139
56 89 139
57 90 143
56 89 138
57 91 139
57 90 141
57 91 143
57 90 137
57 90 141
57 90 141
57 90 137
57 90 139
57 90 139
57 91 140
57 90 138
57 90 139
58 91 142
57 90 139
57 91 141
57 90 138
57 91 140
56 89 139
58 91 143
57 90 138
58 91 139
57 90 137
57 90 141
57 90 137
57 90 139
57 90 138
57 90 139
58 91 143
56 89 140
58 91 142
57 91 140
56 89 135
57 90 140
57 91 142
57 90 139
57 89 137
56 89 139
57 90 140
57 90 139
56 89 135
57 90 136
57 90 141
57 90 140
56 88 137
56 89 139
57 91 141
56 89 137
56 89 138
56 88 138
56 88 137
56 88 137
55 87 133
55 87 134
56 87 134
56 87 136
55 87 136
56 87 137
56 87 135
55 85 129
54 84 131
55 85 131
53 83 130
54 83 128
52 81 125
52 81 125
52 80 124
51 78 118
181 197 222
217 233 255
217 233 255
217 233 255
171 179 181
110 107 66
102 100 66
98 96 64
97 97 66
95 95 66
91 92 65
92 93 65
94 95 67
92 93 66
91 94 67
96 98 69
101 102 72
100 101 72
100 102 73
104 105 74
108 109 76
111 112 78
114 115 79
116 115 80
121 120 82
122 121 83
126 125 85
130 127 85
132 129 85
134 131 87
133 130 86
138 134 88
142 138 90
140 137 90
142 138 90
144 139 90
148 144 93
149 145 94
148 143 92
153 147 93
152 146 92
153 148 93
156 150 96
158 152 96
158 152 95
158 152 96
157 151 94
160 153 96
162 155 96
164 157 97
164 156 97
164 157 97
163 155 95
166 158 98
168 159 98
168 159 98
167 159 97
166 158 96
170 162 99
169 161 97
171 162 99
170 161 97
170 161 98
171 162 98
171 163 99
170 161 98
171 162 99
171 162 99
172 162 97
170 162 98
171 162 98
173 165 100
171 162 97
171 163 98
171 163 98
172 163 99
172 163 99
170 161 97
172 163 97
170 161 96
171 161 96
170 161 97
172 163 97
171 162 97
170 161 96
171 162 96
170 161 96
170 161 96
171 163 97
171 162 97
172 163 97
171 162 95
171 162 96
170 162 96
170 161 95
171 163 96
171 163 97
170 162 96
171 162 97
171 162 96
169 161 94
170 161 95
169 160 95
171 163 97
170 162 95
172 163 96
168 159 92
170 162 95
170 162 96
169 161 92
171 163 95
170 161 95
170 161 94
170 162 95
171 162 94
169 161 92
169 160 93
170 161 94
169 160 92
169 161 92
169 160 91
170 161 93
169 160 91
169 160 92
169 161 94
169 160 93
170 161 93
169 160 92
168 159 91
168 160 91
168 159 91
167 159 90
167 159 90
168 160 91
166 158 89
167 158 91
165 156 88
166 157 90
166 158 90
166 158 90
165 157 90
163 155 87
165 157 89
164 156 89
163 155 88
163 155 88
163 155 87
163 154 87
160 152 85
161 153 85
160 152 85
190 206 228
190 207 228
190 206 228
190 206 228
190 206 228
190 206 228
190 206 228
190 206 228
190 206 228
190 206 228
190 206 228
190 206 228
190 206 228
190 206 228
189 206 228
189 206 228
189 206 228
189 206 228
189 206 228
189 206 228
189 206 228
189 206 228
189 206 228
189 206 228
189 206 228
189 205 228
189 205 228
188 205 228
189 206 228
188 205 228
188 205 228
188 205 228
188 205 228
188 205 228
188 205 228
188 205 228
188 205 228
188 205 228
187 205 228
187 205 228
188 205 228
187 205 228
188 205 228
187 205 228
187 205 228
187 205 228
187 205 228
187 205 228
187 205 228
187 205 228
187 204 228
187 204 228
187 204 228
186 204 228
187 204 228
186 204 228
187 204 228
186 204 228
186 204 228
186 204 228
186 204 228
186 204 228
186 204 228
186 204 228
186 204 228
186 204 228
186 204 228
186 204 228
186 204 228
185 204 228
185 204 228
185 204 228
185 204 228
185 204 228
185 204 228
185 204 228
185 203 228
185 203 228
185 204 228
185 203 228
185 203 228
185 203 228
184 203 228
185 203 228
185 203 228
184 203 228
184 203 228
184 203 228
184 203 228
184 203 228
184 203 228
184 203 228
184 203 228
184 203 228
184 203 228
184 203 228
184 203 228
184 203 228
184 203 228
184 203 228
184 203 228
184 203 228
184 203 228
184 203 228
183 203 228
184 203 228
183 203 228
183 203 228
183 203 228
183 203 228
183 203 228
183 202 228
183 203 228
182 201 227
176 195 223
169 189 217
162 182 211
156 175 205
148 168 201
139 159 193
129 149 185
114 135 176
102 124 166
91 114 159
77 101 151
64 91 146
50 80 139
50 80 138
49 78 136
49 78 136
48 77 136
47 75 133
47 76 134
46 75 134
45 72 130
45 73 132
44 72 131
44 72 132
44 72 133
42 68 128
60 83 138
88 107 152
115 133 172
145 162 193
177 194 219
190 206 228
179 193 213
217 233 255
217 233 255
217 233 255
139 157 192
53 84 142
53 85 140
54 86 139
54 87 139
55 87 140
55 88 140
56 88 139
56 88 140
57 90 142
56 88 138
56 89 138
56 89 142
56 89 139
55 88 136
56 89 140
56 89 138
56 89 138
57 90 140
56 88 139
56 89 139
57 90 141
57 90 139
56 89 136
57 90 138
57 90 136
56 89 135
57 90 140
57 90 139
56 89 137
57 90 140
56 89 139
57 90 139
56 89 135
57 90 138
57 90 141
57 90 141
57 90 139
57 90 141
57 90 140
57 90 139
57 91 138
58 91 140
57 91 140
56 90 136
57 91 139
58 91 142
57 90 138
57 90 138
57 90 137
57 91 139
57 90 140
56 89 138
57 90 137
57 90 137
57 90 138
58 91 141
57 90 139
57 90 138
57 90 138
58 91 140
57 90 140
57 90 140
57 90 139
57 90 138
57 90 139
56 89 137
57 90 141
56 89 138
56 89 136
56 89 137
57 90 137
57 89 137
56 88 134
56 89 134
57 89 139
57 90 139
56 88 134
56 89 137
56 88 137
56 88 137
55 87 132
57 89 138
55 87 136
55 87 133
56 88 134
55 87 134
56 87 135
56 87 137
55 85 131
55 85 130
55 86 134
54 84 130
53 84 128
53 82 126
53 82 126
52 80 126
51 79 123
50 77 118
138 154 179
217 233 255
217 233 255
217 233 255
129 129 108
104 102 66
98 97 64
94 93 63
91 91 63
91 92 64
91 92 65
86 89 63
89 90 64
91 93 66
92 94 67
96 98 69
97 98 71
99 100 71
97 99 71
101 102 73
106 107 75
109 109 76
109 109 77
110 110 76
122 121 82
123 122 82
124 122 82
131 129 87
133 130 86
132 129 85
130 127 84
136 133 87
139 135 87
140 136 88
142 138 88
143 139 89
146 142 91
150 145 93
149 144 92
151 146 93
151 146 92
154 148 93
155 150 95
153 148 92
154 149 93
158 151 94
159 152 94
158 151 94
161 154 96
161 154 95
162 155 95
164 156 96
163 156 96
164 157 95
165 157 95
165 157 94
166 158 94
169 160 97
168 160 96
168 160 96
171 162 98
170 162 97
169 160 97
171 162 96
172 163 99
171 162 98
171 163 98
171 162 98
171 162 96
171 162 98
171 162 95
169 160 96
170 161 95
171 162 96
169 160 95
171 162 96
172 163 96
171 162 96
171 162 96
170 161 96
169 161 94
170 161 95
171 163 97
169 160 93
171 162 96
170 162 97
169 160 94
169 160 94
173 164 97
170 161 94
172 163 97
169 161 93
172 163 97
171 162 96
170 161 94
170 161 95
169 160 94
171 162 95
170 162 94
169 160 93
169 160 94
169 160 93
169 160 93
171 163 94
169 161 93
169 160 93
168 159 93
170 161 94
170 162 95
170 162 94
169 161 92
170 161 93
170 161 93
169 160 93
169 160 93
170 162 93
169 161 94
170 162 95
170 161 91
170 161 94
168 160 92
170 161 92
169 160 93
169 160 90
169 160 91
169 160 92
168 159 91
169 161 93
168 159 89
168 159 90
167 158 88
167 158 89
167 159 91
167 158 90
164 155 87
164 156 88
166 157 88
166 157 89
165 157 88
165 157 89
165 157 88
163 154 86
164 156 88
164 155 86
163 155 87
163 155 87
163 155 86
161 153 83
163 154 87
159 150 83
159 151 85
191 207 228
191 207 228
191 207 228
191 207 228
191 207 228
191 207 228
191 207 228
190 206 228
190 206 228
190 206 228
190 206 228
190 206 228
190 206 228
190 206 228
190 206 228
190 206 228
190 206 228
190 206 228
190 206 228
190 206 228
190 206 228
190 206 228
189 206 228
189 206 228
189 206 228
189 206 228
189 206 228
189 206 228
189 206 228
189 206 228
189 206 228
189 206 228
189 206 228
189 206 228
189 205 228
189 206 228
189 206 228
189 205 228
189 205 228
188 205 228
188 205 228
188 205 228
188 205 228
188 205 228
188 205 228
188 205 228
188 205 228
188 205 228
188 205 228
188 205 228
188 205 228
188 205 228
187 205 228
187 205 228
187 205 228
188 205 228
187 205 228
187 205 228
187 205 228
187 205 228
187 204 228
187 205 228
187 205 228
187 205 228
187 205 228
187 204 228
187 204 228
186 204 228
186 204 228
186 204 228
186 204 228
186 204 228
186 204 228
186 204 228
186 204 228
186 204 228
186 204 228
186 204 228
186 204 228
186 204 228
186 204 228
185 204 228
185 204 228
185 204 228
185 204 228
185 204 228
185 204 228
185 204 228
185 204 228
185 204 228
185 204 228
185 203 228
185 204 228
185 203 228
185 203 228
185 204 228
185 203 228
185 203 228
185 203 228
185 203 228
185 203 228
185 203 228
185 203 228
185 203 228
184 203 228
184 203 228
185 203 228
184 203 228
184 203 228
184 203 228
185 203 228
184 203 228
184 203 228
181 200 226
174 193 220
167 186 214
158 177 207
151 170 201
142 162 195
130 151 187
117 137 176
111 132 174
96 118 162
81 104 151
67 92 145
51 80 136
49 78 136
49 79 136
49 78 135
49 78 135
47 75 132
48 77 134
47 75 133
46 73 130
45 73 131
44 71 128
45 72 131
43 70 128
43 69 127
41 67 125
42 68 128
55 78 135
91 110 155
127 144 178
157 174 202
188 204 227
181 196 216
207 222 243
217 233 255
217 233 255
79 102 151
52 83 138
53 85 136
54 86 137
54 86 136
54 86 134
55 88 138
55 87 138
55 88 138
56 88 138
56 88 135
55 87 136
56 88 137
56 89 138
56 88 134
56 88 136
56 89 137
56 89 137
56 88 135
56 89 137
56 90 138
56 89 137
56 89 136
56 89 136
56 89 136
56 89 137
57 90 140
56 89 136
56 90 134
56 89 136
57 90 140
57 90 139
57 90 136
57 90 138
57 90 139
57 90 136
56 89 136
57 90 140
57 90 136
57 90 136
57 91 140
57 90 138
57 90 139
57 91 138
57 90 136
57 90 138
57 90 139
57 90 136
57 90 139
57 90 137
57 90 138
57 91 142
57 91 139
57 91 140
57 91 137
57 90 139
57 91 140
58 92 138
57 90 138
57 90 137
58 91 139
57 90 140
56 89 137
57 90 139
57 90 138
57 91 138
57 90 137
57 90 138
57 90 138
57 90 137
57 90 137
56 89 135
57 90 139
56 89 137
55 88 133
56 89 135
55 88 133
55 87 134
56 88 136
56 89 134
56 88 135
56 88 136
55 87 133
55 87 132
55 87 132
57 88 136
56 87 133
56 88 136
54 85 131
55 86 133
55 86 133
54 85 129
54 84 131
54 83 126
54 83 129
53 82 126
52 80 123
52 81 121
50 77 116
86 104 133
217 233 255
217 233 255
201 214 230
109 106 63
96 95 62
90 89 60
86 86 59
81 82 57
88 88 61
84 86 61
81 83 59
84 87 63
87 90 64
91 92 65
88 90 65
89 92 66
92 94 67
99 100 71
101 103 72
103 104 72
109 109 75
112 112 77
115 115 77
114 114 79
118 117 79
122 121 82
128 126 84
130 127 83
132 129 85
135 131 86
135 132 85
138 134 87
139 136 89
143 139 89
143 138 88
147 142 90
144 139 87
148 143 90
150 144 90
151 146 92
153 147 92
153 147 92
155 149 93
155 148 91
157 151 93
158 152 93
161 154 95
159 152 93
163 156 95
161 154 93
166 158 96
165 158 96
165 157 94
164 155 93
163 156 93
166 158 94
167 159 95
168 159 95
170 161 97
167 159 94
169 160 95
169 161 95
171 162 97
170 162 96
171 162 97
170 161 95
169 160 95
170 161 95
171 162 95
171 162 95
169 160 94
169 161 94
170 161 94
169 160 94
171 162 94
170 161 95
171 163 95
169 161 94
171 162 96
171 162 95
170 161 93
171 162 95
171 162 95
169 160 94
171 162 95
170 162 96
169 160 93
169 160 93
169 160 94
169 160 93
170 161 95
171 162 96
172 163 96
169 161 93
169 160 93
170 161 93
171 162 96
171 163 95
169 160 93
169 160 93
170 161 94
169 160 91
168 159 92
168 159 91
170 161 93
168 159 91
169 160 93
170 162 95
168 159 91
170 161 94
170 162 93
170 162 93
169 160 90
170 161 93
169 160 91
169 160 92
168 159 91
170 162 92
169 161 92
169 160 92
170 162 92
168 159 89
169 160 91
169 160 91
168 160 91
168 160 90
168 159 89
167 160 90
168 159 89
166 158 88
167 158 90
166 158 87
167 159 90
167 158 89
165 157 87
167 158 89
166 158 89
167 158 90
166 157 88
164 155 87
165 157 87
164 155 86
164 155 87
162 154 87
163 155 87
163 155 86
164 156 88
162 154 85
162 154 86
161 152 84
192 207 228
192 207 228
191 207 228
191 207 228
192 207 228
191 207 228
191 207 228
191 207 228
191 207 228
191 207 228
191 207 228
191 207 228
191 207 228
191 207 228
191 207 228
190 207 228
191 207 228
190 206 228
190 206 228
190 207 228
190 206 228
190 206 228
190 206 228
190 206 228
190 206 228
190 206 228
190 206 228
190 206 228
190 206 228
190 206 228
189 206 228
190 206 228
190 206 228
190 206 228
189 206 228
189 206 228
189 206 228
189 206 228
189 206 228
189 206 228
189 206 228
189 206 228
189 206 228
189 206 228
189 206 228
189 206 228
189 205 228
189 206 228
189 205 228
188 205 228
188 205 228
188 205 228
188 205 228
188 205 228
188 205 228
188 205 228
188 205 228
188 205 228
188 205 228
188 205 228
188 205 228
188 205 228
187 205 228
188 205 228
188 205 228
187 205 228
187 205 228
188 205 228
187 205 228
187 205 228
187 205 228
187 205 228
187 205 228
187 205 228
187 205 228
187 204 228
187 204 228
187 204 228
187 204 228
187 204 228
187 204 228
186 204 228
187 204 228
186 204 228
186 204 228
186 204 228
186 204 228
186 204 228
186 204 228
186 204 228
186 204 228
186 204 228
186 204 228
186 204 228
186 204 228
186 204 228
186 204 228
186 204 228
185 204 228
186 204 228
186 204 228
185 204 228
186 204 228
185 204 228
185 204 228
185 204 228
186 204 228
185 204 228
185 204 228
186 204 228
186 204 228
185 204 228
185 203 228
178 196 222
170 189 216
164 183 210
155 174 204
149 168 199
136 156 189
127 147 182
112 133 172
104 125 167
85 108 153
67 93 145
51 80 135
50 79 135
49 78 133
49 78 135
48 76 130
48 77 133
47 76 130
47 75 128
46 73 128
45 72 127
45 72 126
43 70 125
44 71 127
43 69 126
42 68 124
42 68 126
41 66 124
40 66 124
61 82 134
98 115 154
142 158 189
175 191 215
188 203 224
194 208 228
218 234 255
202 218 242
49 79 134
52 83 133
54 86 139
54 86 137
55 87 137
55 88 136
55 88 138
55 88 136
55 87 134
55 88 137
56 88 137
56 88 140
56 88 137
56 88 135
56 89 137
56 89 139
56 88 137
56 88 138
56 89 135
57 90 138
56 88 134
55 88 134
56 89 134
56 89 136
56 89 135
57 90 135
57 90 137
57 90 139
56 89 138
57 89 135
56 89 138
57 90 137
57 90 137
57 90 139
57 90 135
56 89 137
57 90 137
57 90 138
57 90 137
56 89 135
57 90 137
57 90 136
58 91 141
57 90 138
57 91 138
57 90 137
57 90 136
56 90 135
57 90 138
58 92 140
57 90 136
57 90 137
57 90 137
57 91 138
57 91 137
57 90 138
57 91 141
56 89 137
57 90 140
57 90 137
57 90 139
57 90 139
57 90 139
56 89 138
57 90 137
57 90 137
56 89 136
57 90 140
56 88 132
57 90 136
56 89 135
57 90 139
57 90 138
55 88 133
56 89 137
56 88 136
56 88 134
56 88 136
56 88 136
57 89 137
56 88 135
56 88 135
55 87 133
54 85 129
55 87 133
55 87 134
55 86 133
55 86 133
55 86 130
55 86 133
54 85 131
54 85 128
54 84 129
54 83 125
53 83 125
53 83 127
53 81 123
52 80 121
50 78 117
48 73 106
201 217 238
218 234 255
171 179 181
103 100 61
88 87 56
87 86 58
84 84 57
79 80 56
79 80 57
79 81 57
84 86 61
83 85 61
83 86 62
83 86 61
84 87 62
88 91 65
88 91 66
95 98 70
98 100 71
98 100 71
104 105 73
107 108 75
107 107 73
114 113 77
112 112 75
118 116 77
124 122 80
125 123 82
130 127 83
131 128 82
135 132 85
135 132 85
138 135 87
145 140 90
141 137 88
145 140 88
144 140 88
148 142 88
150 145 91
149 144 88
151 145 91
154 148 90
154 148 91
155 148 92
155 149 92
157 151 91
158 151 91
159 153 93
161 154 94
162 154 93
162 155 92
162 155 93
163 155 92
165 157 94
164 156 92
167 158 94
165 157 92
167 159 93
168 161 96
169 161 95
169 160 95
170 161 95
169 160 94
170 161 93
169 161 94
170 161 94
170 162 94
170 161 94
171 162 95
170 161 94
169 160 92
169 160 92
170 161 95
171 162 95
170 161 94
170 161 94
170 161 94
170 162 94
169 160 91
171 162 94
169 160 92
170 161 93
170 161 94
169 160 92
170 161 93
171 163 94
169 160 92
168 160 92
170 161 93
171 162 94
171 163 94
169 161 93
170 162 93
169 160 92
170 162 94
169 160 92
170 162 93
168 160 90
169 160 91
170 162 93
170 162 93
168 160 91
168 160 89
168 159 90
170 162 94
169 161 92
169 160 92
169 160 90
169 160 92
170 161 92
169 160 92
168 159 89
168 160 91
169 160 91
169 160 90
168 160 91
169 161 92
170 161 92
167 159 90
168 159 89
167 158 88
169 161 91
169 160 90
169 160 90
167 158 88
169 160 91
169 161 91
168 159 89
168 159 90
167 159 88
167 159 89
166 157 86
167 158 89
167 158 88
165 156 87
166 158 88
165 157 87
165 158 88
166 157 87
166 158 88
164 155 86
163 155 85
161 153 84
165 157 87
162 154 85
163 154 86
162 154 86
161 153 85
161 153 85
161 153 85
192 207 228
192 207 228
192 207 228
192 207 228
192 207 228
192 207 228
191 207 228
192 207 228
192 207 228
191 207 228
191 207 228
191 207 228
191 207 228
191 207 228
191 207 228
191 207 228
191 207 228
191 207 228
191 207 228
191 207 228
191 207 228
191 207 228
191 207 228
191 207 228
191 207 228
191 207 228
190 206 228
190 206 228
190 206 228
190 206 228
190 206 228
190 206 228
190 206 228
190 206 228
190 206 228
190 206 228
190 206 228
190 206 228
190 206 228
190 206 228
190 206 228
190 206 228
190 206 228
190 206 228
189 206 228
190 206 228
189 206 228
189 206 228
189 206 228
189 206 228
189 206 228
189 206 228
189 206 228
189 206 228
189 206 228
189 206 228
189 206 228
189 206 228
189 206 228
189 205 228
189 206 228
189 205 228
189 205 228
188 205 228
188 205 228
189 205 228
188 205 228
188 205 228
188 205 228
188 205 228
188 205 228
188 205 228
188 205 228
188 205 228
188 205 228
188 205 228
188 205 228
188 205 228
187 205 228
187 205 228
187 205 228
187 205 228
187 205 228
187 205 228
187 205 228
187 205 228
187 205 228
187 205 228
187 205 228
187 205 228
187 205 228
187 205 228
187 205 228
187 205 228
187 204 228
187 204 228
187 205 228
187 204 228
187 205 228
186 204 228
187 204 228
186 204 228
187 204 228
187 204 228
186 204 228
186 204 228
186 204 228
186 204 228
187 204 228
186 204 228
186 204 228
186 204 228
182 200 224
176 194 219
166 184 211
158 176 204
150 169 198
144 163 193
133 153 186
121 141 175
111 131 168
91 113 157
76 100 146
57 85 136
50 80 132
49 78 132
49 78 132
48 77 131
48 76 130
47 75 127
47 75 129
47 75 127
46 74 128
45 72 125
44 71 125
44 71 125
43 70 124
42 67 121
41 67 122
41 66 121
40 65 123
38 63 120
39 64 122
67 86 133
119 135 169
156 172 200
189 205 226
182 196 215
218 234 255
174 189 216
50 79 133
52 83 135
52 84 133
54 86 137
54 86 136
55 88 138
54 87 134
55 87 137
54 86 135
55 88 136
55 87 135
56 89 140
56 88 137
56 89 138
56 89 138
55 88 134
56 88 135
57 90 139
56 89 136
56 89 138
56 89 136
56 88 134
56 89 135
56 89 137
56 89 136
56 89 135
57 90 137
57 90 138
57 90 136
56 89 133
56 89 135
57 90 136
57 90 137
57 90 136
57 90 136
57 91 135
57 90 134
57 90 139
58 92 140
56 89 135
56 89 137
57 90 137
56 89 135
57 90 136
57 90 135
57 91 137
58 91 139
56 89 134
56 89 136
57 90 135
57 90 136
56 88 133
57 91 138
57 90 137
57 90 135
57 90 138
56 89 134
57 90 134
57 91 137
57 90 136
58 91 138
57 90 136
57 90 139
56 89 136
57 90 138
57 90 138
56 89 135
57 89 137
57 90 136
56 89 134
56 89 133
56 89 134
57 89 132
56 88 135
56 88 135
57 90 136
57 89 135
56 89 136
56 88 135
56 88 135
56 88 134
56 88 135
56 87 133
56 88 134
55 87 129
55 86 131
54 85 127
55 86 131
55 86 129
55 85 130
55 86 132
54 85 128
54 84 127
53 82 124
53 82 124
53 83 127
52 80 121
52 80 120
51 77 116
48 73 106
173 188 210
218 234 255
139 141 128
101 98 62
84 83 54
79 79 53
77 78 54
78 79 55
78 80 57
78 80 57
79 81 57
74 77 55
81 84 59
83 86 61
84 87 63
88 90 64
88 90 64
89 92 65
93 95 67
100 101 70
99 100 69
101 102 71
106 106 71
112 112 75
116 115 77
117 115 77
124 123 81
124 122 80
128 125 81
135 131 84
131 128 83
136 133 85
136 132 83
138 134 84
139 135 84
143 139 86
145 141 88
145 140 87
145 140 86
148 143 89
146 141 86
151 145 90
152 146 87
153 146 89
153 148 89
156 150 89
158 151 91
159 152 90
161 154 93
160 153 90
161 154 91
162 155 91
160 153 89
164 156 91
164 156 91
164 155 89
166 158 93
164 157 91
165 157 91
168 159 91
169 160 93
169 160 93
168 160 92
169 160 92
169 160 94
169 161 93
170 162 93
170 161 93
169 161 94
169 160 92
170 161 94
168 159 91
170 161 93
169 160 91
168 159 92
170 161 94
168 160 91
170 161 93
168 159 91
169 160 92
169 161 92
171 162 93
169 161 93
169 160 92
170 161 92
169 160 92
169 160 92
170 161 94
170 161 92
170 162 93
167 159 90
168 160 92
170 161 93
169 160 91
167 159 91
167 158 90
168 160 92
168 159 90
170 161 91
168 159 90
168 159 89
168 159 90
168 160 91
168 160 91
167 159 89
169 160 90
169 160 90
169 160 91
169 161 91
170 161 91
169 160 90
168 159 90
170 161 91
169 160 91
167 158 89
168 160 90
167 158 88
168 159 90
169 160 89
168 159 89
169 161 92
168 159 89
167 159 87
166 158 87
169 160 90
169 161 90
167 158 88
167 158 89
169 160 89
167 158 87
167 158 88
167 158 88
167 159 88
167 158 89
167 159 87
167 158 87
163 155 85
164 156 84
164 156 86
165 157 87
164 155 86
165 156 86
165 156 87
164 156 85
163 154 84
164 156 87
162 154 85
161 152 85
161 153 83
159 151 82
192 207 228
192 208 228
192 208 228
192 208 228
193 208 228
192 208 228
192 207 228
192 207 228
192 207 228
192 207 228
192 207 228
192 207 228
192 207 228
192 207 228
192 207 228
192 207 228
192 207 228
192 207 228
192 207 228
191 207 228
192 207 228
192 207 228
191 207 228
191 207 228
191 207 228
191 207 228
191 207 228
191 207 228
191 207 228
191 207 228
191 207 228
191 207 228
191 207 228
191 207 228
191 207 228
191 207 228
191 207 228
191 207 228
191 207 228
190 206 228
190 206 228
190 206 228
190 206 228
190 206 228
190 206 228
190 206 228
190 206 228
190 206 228
190 206 228
190 206 228
190 206 228
190 206 228
190 206 228
190 206 228
190 206 228
190 206 228
190 206 228
189 206 228
190 206 228
189 206 228
190 206 228
189 206 228
189 206 228
189 206 228
189 206 228
189 206 228
189 206 228
189 206 228
189 206 228
189 206 228
189 206 228
189 206 228
189 206 228
189 206 228
189 206 228
189 206 228
189 206 228
189 205 228
188 205 228
189 205 228
188 205 228
188 205 228
188 205 228
188 205 228
188 205 228
188 205 228
188 205 228
188 205 228
188 205 228
188 205 228
188 205 228
188 205 228
188 205 228
188 205 228
188 205 228
188 205 228
188 205 228
188 205 228
188 205 228
188 205 228
188 205 228
188 205 228
187 205 228
188 205 228
188 205 228
187 205 228
187 205 228
187 205 228
188 205 228
187 205 228
187 205 228
186 203 226
180 197 220
174 191 214
166 183 209
158 176 203
150 168 194
139 157 187
129 148 180
118 137 172
103 124 162
85 108 150
62 88 137
50 80 131
48 76 126
49 78 130
48 77 129
48 77 128
48 77 128
47 75 126
46 74 126
46 74 127
46 73 125
44 71 121
44 71 122
43 69 121
42 68 120
42 68 118
42 67 122
39 64 117
38 63 117
37 61 115
37 60 116
44 66 120
94 110 148
140 155 184
181 197 219
179 193 212
216 231 253
144 161 191
51 81 135
52 83 133
53 85 134
53 85 131
55 87 136
54 85 132
54 86 135
54 86 132
54 86 132
55 87 132
55 87 135
56 88 135
56 89 136
56 88 134
55 88 134
56 88 134
56 89 137
56 89 135
55 88 132
56 89 136
56 89 137
56 89 134
56 89 137
56 89 134
56 89 136
57 90 139
56 89 135
57 90 137
56 89 134
56 89 131
57 90 138
56 89 134
57 90 134
57 91 140
57 90 137
57 91 139
57 90 136
57 90 137
57 90 136
58 91 138
57 90 137
57 90 137
56 89 134
57 90 135
57 90 136
56 89 134
57 90 134
57 90 138
57 90 138
57 90 135
57 90 134
57 90 138
57 91 138
57 89 136
57 90 137
57 90 138
57 91 139
56 89 134
56 89 132
57 90 138
58 91 139
56 89 136
56 88 131
57 90 137
57 90 136
56 89 132
57 90 134
57 90 138
57 90 137
56 89 133
56 89 134
57 91 141
56 89 135
56 89 138
56 89 133
56 88 134
55 88 134
57 89 135
56 88 133
55 87 129
56 88 133
56 89 133
55 87 130
55 87 133
55 86 129
55 87 131
55 87 130
55 86 131
56 87 133
54 85 129
53 83 125
54 84 127
55 85 133
54 84 128
53 83 125
52 82 124
52 81 121
51 79 119
50 77 114
49 75 108
149 163 186
215 230 250
107 104 67
79 79 51
82 81 54
81 81 55
72 73 50
72 73 52
73 76 53
75 77 55
71 74 54
75 78 55
77 80 57
80 83 60
79 83 60
82 86 61
85 88 63
88 91 64
89 92 66
97 98 69
99 99 68
101 103 71
106 105 70
109 108 73
116 115 76
116 114 75
120 118 78
127 124 79
124 122 79
129 126 80
131 127 80
133 129 83
137 133 83
137 133 85
138 134 83
143 138 84
144 139 86
142 138 85
148 143 87
150 144 88
151 145 88
148 143 85
152 146 87
152 146 88
156 149 89
155 149 89
155 148 88
160 152 90
157 151 89
160 153 89
161 154 90
163 156 92
163 156 92
162 154 90
165 157 92
165 157 92
164 156 89
166 158 91
166 158 91
168 159 91
168 159 92
167 158 91
168 159 91
169 160 93
169 160 92
168 160 91
169 160 91
168 159 90
168 159 91
170 161 92
169 160 91
169 160 91
168 160 91
169 160 92
169 161 92
170 161 91
169 160 91
169 160 91
168 159 90
168 160 91
168 159 91
169 161 90
169 160 92
170 161 92
170 161 92
169 160 90
168 160 90
168 159 90
170 162 93
170 161 91
169 160 91
168 159 90
169 159 90
168 160 88
168 160 89
168 159 90
169 161 91
169 161 91
168 159 90
169 161 91
168 159 91
170 161 92
170 161 92
169 161 91
169 160 91
169 161 91
168 160 89
169 160 90
169 161 91
169 160 89
168 159 89
168 160 88
168 159 90
168 160 91
167 158 88
168 159 89
167 158 88
169 160 89
168 159 88
168 160 88
169 161 89
169 161 90
167 159 87
168 159 88
167 158 88
168 159 89
167 159 89
167 158 87
168 159 87
167 158 87
165 156 86
166 157 87
167 158 87
167 158 88
165 156 84
167 158 87
165 157 86
165 156 85
166 156 85
166 157 86
161 153 81
164 156 86
164 156 86
164 156 86
163 154 84
160 152 83
163 154 83
161 153 83
160 152 82
161 153 82
193 208 228
193 208 228
193 208 228
193 208 228
193 208 228
193 208 228
193 208 228
193 208 228
193 208 228
193 208 228
193 208 228
193 208 228
193 208 228
192 208 228
192 207 228
192 208 228
192 208 228
192 208 228
192 207 228
192 207 228
192 207 228
192 207 228
192 207 228
192 207 228
192 207 228
192 207 228
192 207 228
192 207 228
192 207 228
192 207 228
192 207 228
191 207 228
192 207 228
191 207 228
191 207 228
191 207 228
192 207 228
191 207 228
191 207 228
191 207 228
191 207 228
191 207 228
191 207 228
191 207 228
191 207 228
191 207 228
191 207 228
191 207 228
191 207 228
191 207 228
191 207 228
191 207 228
190 206 228
191 207 228
190 207 228
190 206 228
191 207 228
190 206 228
191 207 228
191 207 228
190 206 228
190 206 228
190 206 228
190 206 228
190 206 228
190 206 228
190 206 228
190 206 228
190 206 228
190 206 228
190 206 228
190 206 228
190 206 228
190 206 228
190 206 228
190 206 228
190 206 228
190 206 228
190 206 228
189 206 228
189 206 228
190 206 228
189 206 228
189 206 228
189 206 228
189 206 228
189 206 228
189 206 228
189 206 228
189 206 228
189 206 228
189 206 228
189 206 228
189 206 228
189 206 228
189 205 228
189 206 228
189 206 228
189 206 228
189 206 228
189 205 228
189 206 228
188 205 228
189 205 228
188 205 228
189 205 228
189 205 228
189 206 228
188 205 228
188 205 228
187 204 226
184 200 220
178 194 216
172 188 211
163 180 204
155 172 198
144 162 189
137 155 184
125 144 176
108 128 162
92 114 152
78 101 142
54 82 131
49 78 128
49 78 127
49 78 127
48 76 124
48 76 126
47 76 124
47 75 124
46 74 124
46 73 124
45 72 122
44 71 121
43 69 121
42 68 118
42 67 116
41 67 117
41 66 118
39 64 115
37 60 111
36 59 112
33 55 107
35 57 110
65 82 126
121 136 166
166 181 204
183 197 216
205 219 240
113 131 167
51 81 130
53 84 133
53 84 131
53 84 132
55 87 136
55 87 134
54 87 131
54 86 132
54 86 135
56 89 136
55 87 133
56 88 134
55 87 131
56 89 136
55 87 132
56 89 136
55 88 132
56 88 135
55 88 131
57 90 135
56 89 136
56 89 134
56 89 135
55 88 131
57 90 134
57 90 138
56 89 133
56 89 133
56 89 135
57 90 136
56 89 134
57 89 135
56 89 134
57 91 138
56 89 134
57 90 138
57 91 138
57 90 139
56 90 134
57 90 134
57 91 137
57 90 139
57 90 136
57 90 137
56 89 132
57 90 136
57 90 136
57 91 136
57 90 135
57 90 135
56 89 133
57 91 138
57 90 137
57 89 136
57 89 134
57 90 136
57 90 136
57 90 136
57 90 134
57 91 137
57 90 134
57 90 137
56 89 133
56 88 131
56 89 132
56 89 135
56 89 135
57 90 136
56 89 135
57 89 136
57 89 133
56 89 133
57 89 134
56 89 133
56 88 132
56 88 135
56 88 133
56 88 133
56 88 134
56 88 133
55 87 129
55 87 131
56 87 134
55 87 131
55 87 133
55 86 131
54 85 127
55 87 131
55 86 128
54 84 126
55 86 132
54 85 127
54 85 126
53 83 124
53 82 122
51 80 120
52 80 117
51 78 114
51 78 115
48 73 107
115 131 154
195 207 220
103 99 60
85 84 54
75 75 50
68 68 46
67 68 47
70 71 49
70 72 51
68 70 50
70 73 52
72 76 54
69 72 53
73 78 57
78 82 59
76 79 57
82 85 61
83 86 61
86 89 63
93 94 65
97 98 68
100 101 68
102 102 70
108 107 72
109 109 72
113 113 74
119 117 74
124 121 78
127 124 77
130 127 80
128 125 78
131 128 79
136 132 82
137 133 84
139 134 83
143 139 84
141 137 85
144 139 85
147 142 86
148 142 86
149 144 87
148 142 84
152 147 87
153 147 88
152 146 86
155 148 88
156 149 88
158 151 89
157 150 88
156 149 87
160 152 88
161 153 89
162 154 89
164 156 92
164 156 90
164 156 89
164 155 87
165 157 91
165 157 88
165 157 87
169 160 92
166 158 90
167 159 89
167 158 89
168 159 90
167 159 90
168 160 90
168 159 90
168 160 89
168 159 89
168 160 90
168 159 90
167 159 88
167 159 88
169 160 89
167 158 87
168 159 90
169 160 90
168 159 89
168 160 90
169 160 91
168 160 90
169 160 90
170 161 91
168 159 88
168 159 90
167 159 89
169 160 89
168 160 90
167 158 88
168 160 90
168 160 89
168 160 91
169 160 91
169 160 89
168 160 88
168 160 90
169 161 91
168 159 88
165 157 87
168 160 89
168 159 90
169 160 90
168 159 90
167 159 88
168 160 89
169 160 88
168 159 89
170 161 91
168 159 88
167 159 89
167 159 88
166 158 87
168 160 90
167 159 87
168 159 88
167 159 87
166 158 86
168 159 89
168 159 89
168 159 88
168 160 88
168 159 88
167 159 87
168 159 87
168 160 88
168 159 87
166 157 86
167 158 87
167 158 87
167 158 88
165 157 85
168 159 87
166 157 85
166 158 87
165 157 85
164 156 84
164 156 85
164 156 86
163 155 83
166 157 86
163 155 85
166 157 86
162 154 83
163 154 83
164 155 85
162 154 83
161 153 83
160 152 82
160 152 82
193 208 228
193 208 228
193 208 228
193 208 228
193 208 228
193 208 228
193 208 228
193 208 228
193 208 228
193 208 228
193 208 228
193 208 228
193 208 228
193 208 228
193 208 228
193 208 228
193 208 228
193 208 228
193 208 228
193 208 228
193 208 228
193 208 228
193 208 228
193 208 228
193 208 228
193 208 228
193 208 228
192 208 228
192 208 228
192 208 228
192 208 228
192 208 228
192 207 228
192 207 228
192 207 228
192 207 228
192 207 228
192 207 228
192 207 228
192 207 228
192 207 228
192 207 228
192 207 228
192 207 228
192 207 228
192 207 228
191 207 228
192 207 228
191 207 228
191 207 228
191 207 228
191 207 228
191 207 228
191 207 228
191 207 228
191 207 228
191 207 228
191 207 228
191 207 228
191 207 228
191 207 228
191 207 228
191 207 228
191 207 228
191 207 228
191 207 228
191 207 228
191 207 228
191 207 228
191 207 228
191 207 228
191 207 228
191 207 228
191 207 228
191 207 228
191 207 228
190 206 228
191 207 228
190 206 228
191 207 228
190 206 228
190 206 228
190 206 228
190 206 228
190 206 228
190 206 228
190 206 228
190 206 228
190 206 228
190 206 228
190 206 228
190 206 228
190 206 228
190 206 228
190 206 228
190 206 228
190 206 228
190 206 228
190 206 228
190 206 228
190 206 228
190 206 228
190 206 228
190 206 228
190 206 228
190 206 228
190 206 228
190 206 228
189 206 228
189 205 227
186 201 222
183 198 217
177 192 212
169 185 208
162 178 202
151 169 195
142 160 187
132 149 177
121 140 170
107 127 161
90 111 149
67 92 137
50 79 127
49 79 127
49 78 127
48 77 125
49 78 125
48 76 125
47 75 122
46 74 123
45 73 120
45 73 121
44 71 120
44 70 119
43 70 119
43 69 119
41 67 116
41 66 116
40 64 113
38 62 113
37 61 111
34 57 106
34 57 108
33 54 104
38 58 109
98 112 144
153 167 193
186 200 220
196 210 229
73 97 143
50 80 129
52 83 128
53 84 130
53 84 128
54 86 133
54 86 132
54 86 133
54 85 129
55 87 132
55 87 134
55 87 133
55 88 134
56 89 135
56 89 137
56 88 134
56 88 135
55 88 134
55 87 129
56 88 131
56 89 138
56 88 132
57 90 137
56 89 135
56 88 135
56 89 137
56 89 135
57 89 135
56 89 135
57 90 137
57 89 135
56 89 131
57 90 135
57 90 135
57 90 136
56 89 134
57 90 137
58 91 138
58 91 139
57 89 134
57 90 134
56 89 131
57 90 136
57 90 135
56 89 132
56 89 133
57 90 134
56 89 136
57 91 138
57 90 135
56 89 132
57 90 130
56 89 134
56 89 128
57 90 137
57 90 133
57 90 133
57 89 134
57 90 136
57 89 133
56 89 130
57 90 134
56 89 135
57 90 136
57 90 134
57 89 132
57 90 136
56 89 136
57 90 132
57 90 136
57 90 133
56 89 134
56 89 132
56 89 134
56 88 132
56 88 131
56 88 133
56 88 131
56 89 132
56 88 132
57 90 135
55 87 131
56 88 133
56 88 132
55 87 129
55 87 129
55 86 127
54 85 127
55 86 129
55 86 130
55 85 125
54 84 127
53 83 122
53 83 123
53 83 125
54 84 126
53 82 123
53 82 122
52 81 119
51 78 114
49 74 108
71 90 115
177 186 191
91 89 54
80 79 50
72 72 48
72 72 49
63 65 46
67 68 48
65 68 48
68 71 51
70 73 52
67 71 51
69 73 53
69 73 52
74 77 55
75 79 56
76 79 57
77 81 57
83 86 61
90 92 64
87 90 63
92 95 65
100 100 68
103 103 68
112 111 72
113 111 71
118 116 74
120 118 76
122 120 76
124 121 75
131 128 80
128 125 79
133 130 80
134 130 79
135 131 81
141 136 83
142 137 82
141 137 82
141 137 82
146 140 85
148 143 83
147 142 83
149 143 84
152 146 85
153 147 86
154 147 84
154 147 85
158 151 87
157 150 86
156 149 85
159 152 86
158 151 87
160 153 87
164 156 90
164 155 88
164 156 87
164 156 88
165 156 88
166 158 87
166 158 89
167 158 89
167 158 89
167 158 88
166 158 88
167 159 90
168 160 89
168 158 88
167 158 89
166 157 85
169 159 89
169 160 90
168 159 89
167 158 86
169 160 89
168 160 90
168 159 89
167 159 89
169 160 90
167 159 88
168 160 89
168 160 89
168 158 88
170 161 90
168 159 88
168 160 89
166 158 87
166 158 87
167 158 88
167 159 88
167 159 89
167 158 87
169 160 89
167 159 88
167 159 89
168 159 88
167 158 88
167 158 86
168 160 89
169 160 89
167 159 87
169 160 88
168 159 88
168 159 88
169 160 89
169 161 89
168 159 87
167 159 87
168 159 87
169 160 88
168 160 89
168 159 88
167 158 87
166 158 86
168 159 87
168 159 88
168 160 88
167 158 87
168 159 88
168 160 87
167 159 87
167 159 87
168 160 88
169 160 89
168 160 88
167 159 87
168 160 87
168 159 88
168 159 85
166 158 85
166 157 84
167 158 87
164 156 84
165 157 84
167 159 86
165 157 84
164 156 85
163 155 84
163 154 82
166 157 86
163 155 83
165 157 85
163 154 82
163 154 83
161 153 82
162 154 83
163 155 83
161 153 82
160 152 81
159 151 81
159 151 80
194 208 228
194 209 228
194 208 228
194 208 228
194 209 228
194 209 228
194 208 228
194 208 228
194 208 228
194 208 228
194 208 228
194 208 228
194 208 228
194 208 228
193 208 228
193 208 228
193 208 228
194 208 228
193 208 228
193 208 228
193 208 228
193 208 228
193 208 228
193 208 228
193 208 228
193 208 228
193 208 228
193 208 228
193 208 228
193 208 228
193 208 228
193 208 228
193 208 228
193 208 228
193 208 228
193 208 228
193 208 228
193 208 228
193 208 228
193 208 228
193 208 228
193 208 228
193 208 228
193 208 228
192 208 228
193 208 228
193 208 228
192 208 228
192 208 228
192 207 228
192 207 228
192 208 228
192 208 228
192 207 228
192 207 228
192 207 228
192 207 228
192 207 228
192 208 228
192 207 228
192 207 228
192 207 228
192 207 228
192 207 228
192 207 228
192 207 228
192 207 228
192 207 228
192 207 228
192 207 228
192 207 228
191 207 228
192 207 228
192 207 228
192 207 228
191 207 228
191 207 228
191 207 228
191 207 228
191 207 228
191 207 228
191 207 228
191 207 228
191 207 228
191 207 228
191 207 228
191 207 228
191 207 228
191 207 228
191 207 228
191 207 228
191 207 228
191 207 228
191 207 228
191 207 228
191 207 228
191 207 228
191 207 228
191 207 228
191 207 228
191 207 228
191 207 228
191 207 228
191 207 228
191 207 228
190 207 228
191 207 228
191 207 228
190 206 228
188 203 224
185 199 217
181 196 213
175 190 209
167 182 204
158 174 197
146 162 186
140 157 182
129 146 174
117 135 165
104 123 157
81 103 141
55 82 126
49 79 124
49 77 123
49 78 125
48 77 124
48 76 121
47 75 121
47 74 120
46 74 121
45 72 117
44 71 118
44 71 118
44 71 118
42 68 116
42 68 115
41 66 113
41 67 114
39 63 111
38 61 109
36 59 105
34 56 105
31 52 99
30 50 97
29 49 95
73 88 125
137 151 176
184 198 219
179 192 211
48 77 125
50 80 128
52 83 128
53 84 131
54 86 135
53 84 129
55 87 134
55 87 133
55 87 133
55 87 131
54 86 130
55 87 131
56 88 134
55 88 133
56 88 133
54 86 130
56 88 131
55 87 131
56 89 133
55 88 131
55 88 132
56 89 133
56 89 135
56 88 132
56 89 133
56 89 133
56 89 133
56 88 132
57 90 132
56 89 132
56 89 133
56 89 133
56 89 133
56 88 131
56 88 132
57 90 133
56 89 132
56 89 133
56 89 133
56 89 132
57 89 132
56 89 133
56 89 131
57 90 136
57 90 136
56 89 136
57 90 135
57 90 133
57 90 132
57 90 135
57 90 136
57 90 138
57 90 136
56 89 133
56 89 132
57 90 132
58 91 138
56 89 135
57 90 135
57 90 133
56 88 131
57 90 134
56 89 134
56 89 131
56 89 133
57 90 134
57 90 134
56 89 131
57 90 133
56 88 132
56 88 132
56 88 133
56 88 132
56 89 133
56 89 134
57 90 135
56 88 130
56 88 131
55 87 131
56 88 131
56 88 133
55 87 132
55 86 128
56 88 129
55 87 130
56 87 131
55 86 132
54 85 125
54 85 128
54 85 127
55 86 127
54 85 128
53 83 124
54 84 125
53 83 122
53 82 123
53 82 119
52 81 121
51 79 113
50 77 109
49 74 106
46 69 97
143 149 147
81 79 49
70 70 43
68 67 44
64 64 43
62 63 44
57 60 41
63 66 47
64 67 46
62 65 46
63 67 49
64 69 49
67 71 52
68 72 52
70 74 52
78 81 57
77 80 58
79 82 59
87 89 62
89 91 63
93 94 64
100 100 65
99 99 66
107 107 70
112 110 70
115 113 71
118 116 73
120 118 75
123 121 76
129 125 78
131 128 78
132 129 80
132 127 76
134 130 78
136 132 80
141 136 82
140 135 81
145 139 82
144 139 81
146 141 83
148 142 83
147 141 82
152 146 85
154 148 86
153 147 84
155 148 85
152 146 83
157 150 85
158 151 86
159 152 85
160 152 86
161 154 86
163 155 87
162 154 88
163 154 86
162 155 87
164 156 86
163 154 85
165 157 87
165 156 87
166 157 87
166 158 87
166 158 87
165 157 87
167 158 88
167 158 88
167 158 87
167 158 87
167 158 86
167 159 87
166 157 86
168 159 88
167 158 86
168 159 88
166 157 87
168 159 88
168 160 89
169 160 89
168 159 88
168 159 88
168 159 88
167 159 86
167 158 86
166 158 85
166 157 87
166 158 87
167 158 86
168 159 87
167 158 87
168 159 88
168 159 88
167 159 86
167 159 87
165 157 84
167 158 87
165 157 86
168 160 89
167 159 86
167 159 87
166 158 84
169 160 88
167 158 86
167 159 86
168 159 87
167 159 86
166 158 86
166 158 84
167 159 86
168 159 88
169 160 88
167 158 87
168 159 87
167 158 86
167 159 86
168 159 87
167 158 85
168 159 87
166 157 83
167 159 86
167 159 86
169 160 88
167 158 85
168 160 87
167 158 86
169 160 88
168 159 86
165 156 82
167 158 87
165 157 84
166 158 86
167 158 86
165 156 83
163 154 80
165 157 84
164 155 83
166 158 85
165 156 83
165 157 84
163 154 81
163 155 82
164 154 85
163 154 83
162 153 81
163 154 85
161 152 82
161 153 81
162 154 83
162 153 81
159 151 79
195 209 228
195 209 228
195 209 228
195 209 228
195 209 228
194 209 228
194 209 228
195 209 228
194 209 228
194 209 228
194 209 228
194 209 228
194 209 228
194 209 228
194 209 228
194 209 228
194 209 228
194 208 228
194 209 228
194 209 228
194 208 228
194 208 228
194 208 228
194 208 228
194 208 228
194 208 228
194 208 228
194 208 228
194 208 228
194 208 228
194 208 228
194 208 228
193 208 228
193 208 228
193 208 228
194 208 228
194 208 228
194 208 228
193 208 228
194 208 228
194 208 228
193 208 228
193 208 228
193 208 228
193 208 228
193 208 228
193 208 228
193 208 228
193 208 228
193 208 228
193 208 228
193 208 228
193 208 228
193 208 228
193 208 228
193 208 228
193 208 228
193 208 228
193 208 228
193 208 228
193 208 228
193 208 228
193 208 228
193 208 228
193 208 228
193 208 228
192 208 228
193 208 228
192 208 228
192 208 228
192 208 228
193 208 228
192 208 228
192 208 228
192 208 228
192 208 228
192 207 228
192 208 228
192 208 228
192 207 228
192 207 228
192 207 228
192 207 228
192 207 228
192 208 228
192 207 228
192 207 228
192 208 228
192 207 228
192 207 228
192 207 228
192 207 228
192 207 228
192 207 228
192 207 228
192 207 228
192 207 228
192 207 228
192 207 228
192 207 228
192 207 228
192 207 228
191 207 228
192 207 228
192 207 228
191 207 228
192 207 228
191 207 228
191 207 228
188 203 223
184 198 215
179 192 209
174 187 204
165 180 200
156 172 194
144 160 182
137 153 178
128 144 169
115 132 161
99 118 153
74 97 137
50 79 121
49 77 123
49 78 122
49 78 126
49 77 124
49 77 124
48 76 120
47 75 119
45 72 114
45 72 117
45 72 118
44 71 116
44 70 116
43 69 115
41 67 113
41 66 110
39 63 107
38 62 107
37 60 104
36 59 105
34 55 102
31 52 97
29 48 93
28 47 93
48 63 103
121 134 160
176 190 210
161 174 192
47 76 125
50 80 127
52 83 129
53 85 130
53 84 129
53 85 128
55 87 132
54 86 134
54 86 132
54 86 128
55 87 131
55 88 133
54 86 129
55 88 132
56 88 130
55 88 131
56 88 134
55 87 130
56 88 132
55 87 128
56 88 132
56 89 132
55 87 131
55 88 130
56 89 133
55 88 129
56 88 132
56 89 136
56 89 135
56 89 130
56 88 130
56 89 132
57 90 135
56 89 132
56 89 130
57 89 133
57 90 135
56 89 129
56 89 131
56 89 134
56 89 131
56 89 130
57 90 132
56 89 133
57 90 136
57 90 133
57 89 135
57 90 134
56 89 132
57 90 135
57 90 133
57 90 132
57 90 134
57 90 132
56 89 129
57 90 135
57 89 135
56 89 134
56 90 135
57 90 134
56 88 131
56 88 130
57 90 132
56 89 134
56 89 133
56 88 130
57 90 134
56 89 133
55 88 131
56 88 131
57 90 137
56 89 133
56 88 133
56 88 129
56 88 130
56 88 131
55 87 127
56 88 132
55 88 128
55 86 127
55 87 127
55 87 126
56 88 132
55 87 127
55 86 130
55 87 129
55 86 129
55 86 128
54 84 125
54 84 126
54 85 127
53 83 121
54 84 120
53 83 123
53 83 121
53 83 123
53 82 117
52 80 118
50 77 110
50 77 110
49 75 107
46 70 98
100 100 77
83 82 48
71 70 45
66 65 41
55 56 38
59 60 41
54 56 39
58 61 44
59 63 45
61 64 46
60 64 46
55 60 44
63 68 49
66 70 50
67 71 51
72 76 55
76 80 57
79 82 59
82 84 58
89 90 62
92 94 63
95 96 64
103 102 66
106 106 68
111 110 70
112 111 69
122 119 74
124 121 74
124 121 73
124 122 74
126 124 75
127 124 76
132 129 77
130 126 75
136 132 78
139 134 78
138 133 80
140 136 79
143 138 81
144 139 81
147 142 83
147 141 81
148 142 82
151 145 84
153 146 84
152 145 81
153 147 81
157 150 84
157 150 84
159 152 84
160 152 85
160 152 84
161 153 84
162 154 87
162 153 84
165 157 89
164 156 86
165 157 86
165 157 85
165 157 86
164 156 85
165 156 86
167 158 87
165 157 85
165 156 85
165 156 85
168 159 88
167 159 88
167 158 86
165 157 85
166 158 85
166 157 85
168 158 86
166 158 86
168 159 87
168 159 86
166 158 86
167 158 86
166 157 85
167 158 85
168 159 88
169 160 88
168 159 88
168 159 86
168 159 87
167 158 86
167 158 87
167 158 86
168 159 87
167 158 86
167 159 87
167 159 86
169 160 88
167 158 85
166 158 86
166 158 85
168 160 87
168 159 86
168 160 86
165 157 84
168 159 87
167 158 85
168 159 86
166 158 84
168 160 87
167 159 85
167 159 86
167 159 86
167 158 84
167 158 85
166 158 84
166 158 84
168 159 86
167 159 87
164 157 83
168 159 87
169 160 86
168 159 86
166 158 85
168 159 86
167 158 85
168 159 88
167 159 85
168 159 86
167 158 85
166 158 83
168 159 88
166 157 85
166 158 84
166 157 83
166 157 83
167 158 86
166 157 85
165 157 84
164 155 82
163 155 81
164 155 82
163 154 81
162 154 81
165 156 84
162 154 82
162 154 81
162 154 80
162 154 82
163 154 83
162 153 82
160 151 80
159 151 77
161 153 81
195 209 227
194 209 227
194 209 227
195 209 228
195 209 228
195 209 228
195 209 228
195 209 228
195 209 228
195 209 228
195 209 228
195 209 228
195 209 228
195 209 228
195 209 228
195 209 228
195 209 228
194 209 228
194 209 228
195 209 228
195 209 228
195 209 228
195 209 228
195 209 228
194 209 228
195 209 228
194 209 228
194 209 228
194 209 228
194 209 228
194 209 228
195 209 228
194 209 228
194 209 228
194 209 228
194 209 228
194 209 228
194 209 228
194 209 228
194 209 228
194 209 228
194 209 228
194 209 228
194 209 228
194 208 228
194 208 228
194 208 228
194 208 228
194 208 228
194 208 228
194 208 228
194 208 228
194 208 228
194 208 228
194 208 228
194 208 228
194 208 228
194 208 228
194 208 228
194 208 228
194 208 228
194 208 228
194 208 228
193 208 228
194 208 228
194 208 228
193 208 228
193 208 228
194 208 228
193 208 228
193 208 228
193 208 228
193 208 228
193 208 228
193 208 228
193 208 228
193 208 228
193 208 228
193 208 228
193 208 228
193 208 228
193 208 228
193 208 228
193 208 228
193 208 228
193 208 228
193 208 228
193 208 228
193 208 228
193 208 228
193 208 228
193 208 228
193 208 228
193 208 228
193 208 228
193 208 228
193 208 228
193 208 228
193 208 228
193 208 228
193 208 228
193 208 228
193 208 228
193 208 228
193 208 228
193 208 228
193 208 228
193 208 228
191 206 226
187 201 218
186 199 214
179 192 207
172 186 203
162 177 197
157 172 192
142 158 181
136 152 178
120 136 160
111 128 154
90 110 143
65 90 131
50 79 119
48 77 119
49 78 121
48 77 119
47 76 117
48 76 119
47 75 117
46 74 117
46 73 116
45 71 113
45 72 117
44 71 115
44 70 115
42 68 111
41 66 109
41 65 110
40 64 108
37 61 103
36 58 100
35 58 99
33 54 98
30 49 89
29 48 89
26 44 87
29 46 88
104 116 141
168 182 201
151 165 184
48 77 121
50 80 125
52 83 129
52 83 125
53 85 127
53 84 125
55 87 132
53 85 126
54 86 130
55 87 131
55 87 130
55 87 129
55 87 128
55 87 132
55 87 129
55 87 131
54 86 128
55 87 132
56 88 130
56 88 132
55 88 129
56 88 131
55 88 129
55 87 128
56 88 128
56 88 130
56 89 131
56 89 126
56 88 130
57 90 136
56 88 130
56 89 130
56 89 130
56 89 135
57 90 133
55 88 129
56 89 129
57 90 132
56 89 132
56 89 132
57 90 135
56 88 133
57 90 133
56 89 129
57 90 133
57 90 133
57 90 133
57 90 132
57 89 130
57 90 135
57 90 134
56 89 132
56 89 132
56 89 131
57 90 136
57 90 135
56 89 134
56 89 132
57 89 135
56 89 133
57 90 134
56 89 132
57 89 131
56 89 132
56 89 132
56 89 133
57 89 134
57 90 131
56 89 130
56 89 130
56 89 131
56 88 130
56 88 130
55 88 128
55 88 130
56 88 129
55 87 130
55 87 128
55 87 128
55 87 128
55 87 128
55 87 130
55 86 124
55 86 125
55 86 128
55 87 131
54 85 127
55 87 128
54 84 121
54 85 127
54 84 121
53 83 122
54 84 121
54 84 120
53 82 118
52 81 120
52 81 117
51 79 112
52 80 115
50 77 110
48 73 102
45 68 93
81 83 67
78 76 44
67 66 42
56 57 36
56 56 37
53 54 37
56 58 39
55 58 40
52 57 41
55 59 42
57 62 45
52 58 42
56 61 45
58 65 48
67 71 51
65 70 50
75 77 54
78 81 57
76 79 55
87 88 59
90 91 61
93 94 61
101 101 65
102 102 64
108 107 67
109 107 67
113 112 69
117 115 71
123 120 74
124 121 74
127 124 74
130 127 76
129 125 75
134 130 76
136 131 78
137 132 77
141 136 80
143 138 80
142 137 78
147 142 81
144 138 79
148 142 80
150 144 81
151 145 83
152 145 82
153 146 82
155 148 84
155 148 83
156 149 82
158 151 84
158 152 85
159 151 83
160 153 84
162 154 84
163 155 84
162 154 83
163 155 85
165 156 86
166 157 87
163 155 83
164 155 84
166 157 85
166 157 85
165 156 84
165 156 83
165 156 84
166 158 85
165 157 84
167 158 86
167 158 86
166 158 85
165 156 84
167 158 84
169 160 87
167 158 86
167 158 85
168 159 87
167 158 86
166 157 85
168 159 85
167 159 85
167 158 84
167 158 85
167 159 86
166 157 84
167 158 85
164 155 83
165 157 84
167 158 86
166 157 83
167 158 86
165 157 84
166 157 84
166 157 85
168 159 87
167 159 86
168 159 87
166 157 84
167 159 86
166 157 85
167 158 85
166 158 84
166 158 83
168 159 86
167 159 84
167 159 85
167 159 86
167 158 84
167 158 85
167 158 83
167 159 86
167 159 85
166 158 84
166 158 83
167 158 85
168 160 85
166 158 85
166 158 84
166 157 84
167 158 84
168 160 86
167 158 85
166 157 84
167 158 83
166 157 83
167 158 86
165 157 84
166 157 83
165 156 83
163 155 81
166 158 85
167 159 85
166 157 84
167 158 85
166 157 85
165 157 83
164 156 83
165 156 83
162 154 82
163 154 81
160 152 79
160 151 80
162 154 82
164 155 83
161 152 81
162 154 81
160 151 80
160 151 79
159 151 80
194 208 223
194 208 223
194 208 225
194 208 224
194 208 225
194 208 223
194 208 224
194 208 225
194 208 226
194 208 225
194 208 225
194 208 224
194 208 225
194 208 226
194 209 226
195 209 226
194 208 226
194 208 225
194 209 226
195 209 226
194 208 225
194 209 227
194 208 226
194 208 225
194 208 226
195 209 227
194 209 227
194 209 227
194 209 227
195 209 228
194 208 225
194 208 227
195 209 227
195 209 227
195 209 227
195 209 227
195 209 228
194 209 227
194 209 227
195 209 228
194 209 227
194 209 227
195 209 228
195 209 228
194 209 228
194 208 227
194 209 228
195 209 228
195 209 228
195 209 228
194 209 228
194 209 228
195 209 228
194 209 228
194 209 228
194 209 228
194 209 228
195 209 228
194 209 228
195 209 228
194 209 228
194 209 228
195 209 228
194 209 228
194 209 228
194 208 228
194 209 228
194 209 228
194 209 228
194 209 228
195 209 228
194 209 228
194 209 228
194 208 228
194 209 228
194 208 228
194 209 228
194 209 228
194 209 228
194 209 228
194 208 228
194 209 228
194 209 228
194 208 228
194 208 228
194 209 228
194 208 228
194 208 228
194 208 228
194 209 228
194 208 228
194 208 228
194 208 228
194 208 228
194 208 228
194 208 228
194 208 228
194 209 228
194 208 228
194 208 228
194 208 228
194 209 228
194 208 228
194 208 228
194 208 228
194 208 228
194 208 228
194 208 228
191 205 224
188 201 218
183 195 209
180 192 206
172 185 202
163 176 195
154 169 190
141 156 177
133 148 171
120 135 158
107 124 151
85 105 135
58 84 124
49 78 119
49 77 117
48 77 119
47 76 118
48 76 119
47 75 118
47 75 116
46 73 113
44 71 111
44 71 111
44 70 109
44 70 111
42 68 109
41 67 107
40 64 104
39 63 103
39 63 105
37 59 100
35 57 95
34 56 97
32 53 93
29 49 88
27 45 84
24 41 81
25 42 83
89 100 125
148 161 179
142 156 177
48 77 120
50 81 125
52 82 127
53 84 127
53 84 125
53 84 125
53 85 127
53 84 125
54 86 126
54 86 125
54 86 126
55 87 133
54 86 125
55 87 128
54 85 125
55 87 129
55 87 129
56 88 131
56 88 128
55 88 130
55 88 129
56 88 131
56 88 129
56 89 133
56 88 132
55 88 129
56 89 131
56 88 131
56 89 129
55 87 129
56 89 134
56 88 131
56 89 131
56 89 131
56 88 132
56 88 129
56 89 129
57 90 134
56 89 132
56 88 131
57 90 132
56 89 130
56 89 132
57 90 132
57 90 129
57 90 133
57 90 132
57 89 130
57 90 133
56 89 131
57 90 130
56 89 134
57 90 132
56 89 128
56 89 126
56 89 130
56 89 131
56 89 127
57 90 133
57 90 133
56 89 132
57 90 134
56 89 130
56 89 131
56 89 129
57 90 133
56 89 130
57 89 134
56 89 132
56 89 134
56 89 130
57 89 133
56 89 132
56 89 131
56 89 133
55 87 127
56 87 126
56 88 132
55 87 129
55 87 127
55 87 130
55 87 129
55 87 128
55 87 126
55 86 126
55 86 127
54 85 125
54 85 123
54 86 126
54 84 122
54 85 122
54 84 121
53 83 121
53 82 117
53 83 121
53 82 117
52 81 115
52 80 115
51 79 113
51 78 113
49 74 105
45 69 93
73 78 68
76 74 42
63 62 38
54 54 34
50 52 34
49 50 34
47 50 34
48 52 37
47 52 37
50 55 39
50 56 39
51 56 41
57 62 44
54 60 45
59 64 46
66 71 50
72 75 52
70 73 50
77 80 56
85 86 57
92 92 61
91 92 60
99 99 63
103 103 65
111 110 68
109 109 69
115 113 69
116 114 69
118 116 69
124 121 72
124 120 72
126 123 73
128 125 73
130 127 73
134 130 76
136 132 75
135 131 76
141 136 77
142 137 77
146 140 79
149 143 80
148 142 82
148 141 78
150 144 79
151 145 81
151 145 79
154 148 82
153 146 79
155 147 80
157 149 81
157 149 81
159 152 82
159 151 81
161 152 82
162 154 84
163 154 83
163 154 83
164 156 84
162 154 82
163 154 83
165 157 85
164 156 83
166 158 85
165 156 83
166 157 85
166 156 84
165 156 83
166 157 84
166 157 82
165 156 83
164 155 83
167 158 85
165 156 83
167 158 85
166 158 84
167 159 86
166 157 82
166 157 83
167 158 84
168 159 85
167 158 86
168 159 86
165 157 83
165 157 81
167 158 84
166 158 85
166 157 84
167 158 84
167 158 84
166 157 84
166 158 83
166 157 83
167 158 84
165 157 83
166 157 82
166 158 83
166 157 83
168 159 86
166 158 83
167 158 84
166 158 83
167 158 85
165 157 84
166 158 84
168 159 85
168 159 85
165 157 83
167 158 84
165 157 82
166 157 82
166 157 82
166 158 84
166 157 84
166 158 84
167 158 81
166 157 83
168 159 86
168 159 85
167 158 84
166 158 84
167 159 84
166 157 84
166 158 84
165 157 83
167 158 83
166 157 82
166 157 82
166 157 84
166 157 82
165 157 84
164 155 81
165 156 82
164 156 80
163 154 82
164 155 82
162 153 80
164 155 83
164 156 80
163 155 80
163 154 82
162 154 80
163 155 81
161 153 81
162 154 80
161 153 79
159 151 79
161 153 79
161 152 80
159 151 79
193 207 220
193 207 220
193 207 221
192 206 219
193 207 219
192 206 217
192 207 219
193 207 220
192 206 219
193 207 221
193 207 221
193 207 221
193 207 221
193 207 221
193 207 221
193 207 221
193 207 221
193 207 222
193 207 221
192 207 219
193 207 221
193 207 222
193 207 222
193 207 222
193 207 221
193 207 220
193 207 221
193 208 222
194 208 223
193 208 222
193 207 222
194 208 223
193 208 222
193 207 222
194 208 223
193 207 222
194 208 223
193 208 223
193 208 222
194 208 223
193 207 222
193 207 223
194 208 224
194 208 224
193 208 223
194 208 223
193 207 223
194 208 224
193 208 223
193 207 222
194 208 225
193 208 223
194 208 224
194 208 224
193 208 223
194 208 225
194 208 225
193 208 224
193 208 223
193 208 224
194 208 224
194 208 226
193 207 223
194 208 225
194 208 224
194 208 225
193 208 224
194 208 226
194 208 226
194 208 225
194 208 225
194 208 225
194 208 226
194 208 225
194 208 226
194 208 226
194 208 226
194 208 226
194 208 226
194 208 226
194 208 226
194 208 225
194 208 227
194 208 226
194 208 225
194 208 226
194 208 226
194 208 225
194 208 225
194 208 226
194 208 227
194 208 226
194 208 226
194 208 226
194 208 226
194 208 226
194 208 227
194 208 227
194 208 227
194 208 226
194 208 227
194 209 227
194 208 226
194 209 227
194 208 227
194 208 226
194 208 226
193 207 225
191 205 223
187 200 215
184 196 208
175 187 196
169 182 195
159 172 189
152 167 186
142 157 176
134 149 170
123 139 160
103 119 144
79 100 134
58 84 124
49 78 117
48 77 117
48 76 118
48 76 113
47 75 114
47 75 115
46 74 114
46 74 112
45 72 109
45 71 111
44 70 111
43 68 107
42 68 107
42 67 105
40 64 101
40 65 103
38 62 103
37 59 99
35 57 96
33 54 93
31 51 91
29 48 85
26 43 79
24 40 76
23 39 76
77 88 112
143 155 170
135 150 168
48 77 120
50 79 123
51 82 125
52 82 124
53 84 125
54 85 127
55 87 133
55 87 130
55 86 130
54 86 127
54 86 125
55 87 130
54 86 130
55 87 127
54 86 129
54 86 126
55 87 131
55 88 127
55 87 127
55 87 128
55 87 125
56 88 130
55 88 130
55 88 128
56 89 131
56 88 131
57 89 132
57 89 131
57 90 132
57 90 133
56 89 130
56 88 130
57 90 135
56 89 130
56 88 129
57 90 134
57 90 130
56 89 130
56 89 131
57 90 132
57 90 133
56 89 131
56 88 129
56 89 131
57 90 132
56 89 129
56 89 131
57 90 131
56 88 128
56 89 128
57 89 132
57 90 135
56 89 131
57 90 132
57 90 135
56 89 129
56 89 130
56 89 131
56 89 133
57 90 133
56 88 131
56 88 129
56 88 130
56 89 130
56 88 132
56 88 129
57 89 133
56 88 131
56 88 127
56 88 129
56 88 129
56 88 127
56 88 129
56 88 127
56 88 128
55 87 127
55 87 127
55 88 127
55 87 123
55 87 128
55 87 130
55 87 128
55 86 125
55 87 130
55 86 124
54 85 123
54 85 121
55 86 124
54 85 125
54 84 122
54 85 126
54 85 124
53 83 117
53 82 118
53 82 115
53 82 120
52 80 116
52 79 112
51 78 110
50 77 112
48 73 102
45 69 96
66 73 67
70 68 40
62 61 35
54 54 32
49 50 34
46 48 33
44 47 32
45 49 34
44 49 35
47 52 36
48 53 38
49 55 40
49 56 41
51 58 42
56 61 45
60 65 47
65 69 49
71 74 51
74 78 54
80 82 54
88 90 58
92 93 60
101 100 62
101 100 61
105 103 64
112 110 66
112 110 66
114 112 67
121 118 70
118 116 69
125 122 73
128 125 74
130 126 73
130 126 72
130 127 73
134 129 74
136 131 74
138 134 76
143 137 77
142 137 77
143 137 76
146 141 78
145 139 78
149 143 78
149 142 79
152 145 81
152 145 80
154 147 80
155 147 80
155 148 80
155 148 78
159 152 82
158 150 79
159 152 80
157 149 79
162 154 83
162 154 80
161 153 81
164 155 84
162 154 81
164 155 82
165 156 82
165 156 83
164 155 83
165 157 82
166 158 85
165 156 82
165 156 83
166 157 84
166 157 84
166 157 84
167 157 84
165 156 83
164 155 81
165 157 82
166 156 82
167 158 85
167 158 84
166 157 83
166 157 83
165 156 82
165 156 83
167 158 83
165 156 81
165 157 82
166 158 82
165 157 83
166 158 83
166 157 84
167 158 84
167 158 84
167 157 83
166 157 84
166 157 83
167 159 82
167 159 84
166 157 83
166 158 82
167 159 84
165 157 83
168 159 85
167 159 84
166 158 84
165 157 82
167 158 82
167 158 83
166 157 83
167 158 83
166 157 82
168 159 84
166 158 83
167 158 82
166 157 83
166 158 82
167 159 85
167 159 83
167 158 83
165 157 82
166 157 82
166 157 84
165 157 81
166 158 83
165 156 81
167 158 82
165 157 81
167 158 83
164 155 80
166 157 82
164 156 81
164 156 82
166 157 83
164 155 80
165 157 83
164 155 81
164 155 81
165 156 84
164 156 82
163 155 79
164 155 81
163 155 80
163 154 80
162 154 80
163 154 80
159 151 78
162 153 80
160 152 77
160 152 79
160 152 78
160 151 78
191 206 215
190 205 211
191 206 215
191 206 215
191 206 215
191 205 214
191 205 214
192 206 216
191 205 213
191 206 214
192 206 217
191 206 216
191 206 215
191 205 214
191 205 214
191 206 215
191 205 214
191 206 215
191 205 215
191 206 215
192 206 216
190 205 212
191 205 213
191 206 215
191 206 216
192 206 216
191 206 216
191 206 215
191 205 214
191 206 215
191 205 213
191 206 215
191 206 215
191 206 216
192 206 217
191 205 215
192 206 217
191 205 214
192 206 217
192 206 217
192 206 218
192 206 216
191 205 214
192 206 216
192 206 217
192 206 216
191 206 215
192 206 216
192 206 217
192 206 218
191 206 216
192 206 217
192 207 219
192 206 217
191 206 217
192 206 217
191 206 217
192 206 218
192 206 218
191 206 217
192 206 218
191 206 216
191 206 216
192 206 217
192 206 217
192 206 216
192 206 218
192 206 218
192 206 218
193 207 220
192 206 218
192 206 218
191 206 216
192 206 218
192 206 219
192 206 218
191 205 215
192 206 219
192 206 219
193 207 220
192 207 219
192 206 219
192 206 218
191 206 217
192 206 218
192 206 218
192 206 219
193 207 219
192 206 218
192 206 218
192 206 218
193 207 220
192 206 219
192 207 219
192 206 219
192 206 219
192 207 219
191 206 217
192 206 218
192 207 220
192 206 218
191 205 216
192 207 220
192 207 220
192 207 220
192 206 218
193 207 221
191 205 217
188 202 212
185 198 206
181 193 198
176 187 190
167 179 186
156 169 179
149 163 180
140 154 171
128 143 161
118 133 154
102 118 140
73 94 126
52 79 115
48 77 113
49 77 117
48 76 114
47 75 112
47 74 113
46 74 112
46 74 114
45 71 107
45 72 109
45 72 109
43 69 106
43 69 104
42 68 106
41 66 105
40 65 102
39 63 104
37 60 97
37 60 98
35 58 95
34 55 90
30 50 83
28 46 81
26 43 77
24 39 72
22 36 70
59 69 93
137 150 161
126 141 156
49 78 120
50 80 121
51 82 122
52 83 125
52 83 123
53 85 124
54 86 128
54 86 128
54 86 127
54 85 125
54 86 127
54 86 124
55 87 127
55 87 126
55 87 128
55 87 126
54 86 128
55 88 128
54 86 123
54 86 125
56 88 129
56 88 129
56 88 127
55 88 128
56 89 131
55 87 127
56 88 128
56 88 128
56 89 128
56 88 127
56 89 132
57 90 132
56 89 129
56 88 128
56 89 132
56 89 127
57 90 133
56 89 131
56 89 131
56 88 130
56 89 129
56 88 128
57 90 132
57 90 133
57 90 132
56 89 131
56 89 129
57 89 132
57 90 130
57 89 131
57 90 131
56 89 129
56 89 129
57 90 129
56 88 129
56 88 128
56 89 129
56 89 128
56 89 130
57 91 135
56 88 127
56 89 133
56 89 130
56 88 131
56 89 127
56 88 128
56 89 131
56 89 131
56 88 132
55 88 127
55 87 128
56 88 129
56 88 130
55 87 126
55 87 125
55 87 128
56 88 130
56 88 129
55 87 126
55 87 129
55 86 125
55 86 124
55 86 127
55 86 125
55 86 126
54 85 125
55 86 125
53 84 120
54 85 121
54 84 123
53 83 121
54 84 122
53 83 120
54 84 122
53 82 118
53 82 114
52 81 116
51 79 111
52 80 115
50 77 107
48 73 100
45 68 89
64 71 67
66 65 36
58 57 32
49 49 28
44 46 29
41 43 28
40 43 29
41 45 30
43 47 32
47 51 36
42 48 34
45 51 38
44 51 37
48 54 39
47 55 40
53 60 43
62 67 46
68 72 49
74 76 51
80 82 52
83 84 54
95 94 57
93 92 56
98 97 59
103 102 62
108 106 62
112 111 66
116 113 66
116 113 65
119 116 66
122 119 69
124 121 70
129 126 72
130 126 71
130 126 71
135 130 74
135 131 73
136 131 72
140 135 74
140 134 73
143 138 76
141 136 74
144 138 77
148 142 78
148 141 76
149 143 76
152 145 79
156 148 81
154 146 78
155 147 79
156 148 79
158 151 80
159 152 81
158 150 79
160 152 80
160 152 81
161 152 80
161 152 80
163 155 83
162 153 80
164 155 81
162 153 81
164 155 80
165 156 83
167 158 83
165 156 83
164 155 80
164 156 80
164 155 80
167 158 83
165 156 81
165 156 80
165 156 81
164 155 79
165 156 82
165 156 81
165 156 82
165 157 80
166 157 81
165 156 81
165 157 81
166 157 82
165 156 82
165 156 82
167 158 82
164 156 80
166 158 82
167 158 83
164 156 81
165 157 81
165 157 81
166 157 83
167 159 83
166 157 85
167 158 82
165 157 80
167 158 83
165 156 81
166 157 82
167 159 83
166 157 82
168 159 83
165 157 81
165 157 82
166 157 81
167 159 83
165 157 81
166 158 82
167 159 84
166 157 82
167 158 82
166 158 82
165 156 81
167 158 84
165 157 81
166 157 81
165 157 79
166 158 82
166 157 82
164 156 80
166 157 81
166 157 81
166 158 82
166 158 82
167 159 82
165 157 82
166 158 82
165 157 83
166 157 83
166 157 81
163 155 79
164 155 80
164 155 80
164 155 81
163 155 78
163 155 80
164 154 81
162 154 81
164 155 80
165 156 82
162 153 79
163 154 79
162 154 79
161 152 79
162 154 79
162 154 80
159 151 77
161 152 80
160 151 79
189 204 208
188 203 204
188 203 205
189 204 207
187 202 203
188 203 205
189 203 207
189 203 206
188 203 205
188 203 205
189 203 207
189 204 209
188 203 207
189 203 206
187 202 202
188 203 205
189 204 207
188 203 206
189 203 206
188 203 205
188 203 205
188 203 204
189 204 208
189 204 207
188 203 204
189 204 207
189 204 208
188 203 206
189 204 208
188 203 206
189 203 207
188 203 205
189 203 207
188 203 205
188 203 206
189 203 207
188 203 206
189 204 208
189 203 207
188 203 205
190 204 210
188 203 206
188 203 206
189 204 208
189 203 206
189 203 207
187 202 204
189 204 209
188 203 205
189 203 206
188 203 205
189 204 209
188 203 205
188 203 206
189 203 207
188 203 207
188 203 206
189 204 207
188 203 207
188 203 207
188 203 206
188 203 206
188 203 206
188 203 206
189 203 207
189 204 207
189 203 207
188 203 207
189 203 208
189 204 207
190 205 212
189 204 208
188 203 205
188 203 205
189 203 207
188 203 205
189 204 208
188 203 207
188 203 204
188 203 207
189 204 209
189 203 208
189 203 207
188 203 205
188 203 207
189 203 208
188 203 205
188 203 206
189 204 210
188 203 206
188 203 206
188 203 205
189 204 209
187 202 203
188 203 206
188 203 206
188 203 205
188 203 207
188 203 206
189 203 208
188 203 206
189 203 207
188 203 206
188 203 207
189 204 210
189 203 207
189 204 209
188 202 207
185 199 201
179 192 190
176 188 184
171 183 179
159 172 171
154 167 171
146 160 166
137 152 165
131 146 158
116 131 147
100 115 133
69 90 118
50 78 113
48 77 114
48 76 111
48 76 111
47 75 110
47 74 111
47 75 113
45 72 107
45 71 107
44 70 105
44 70 106
43 68 103
42 68 105
41 66 102
41 66 103
40 64 100
40 64 98
38 62 95
36 59 93
34 56 89
32 53 86
30 50 84
28 46 76
25 41 71
22 37 64
20 34 63
61 70 89
129 141 146
117 133 146
47 75 112
50 79 119
51 82 120
52 83 123
53 84 124
52 83 121
54 85 124
54 86 127
53 85 124
54 85 126
55 87 126
55 87 127
55 87 131
55 87 127
55 87 129
55 87 127
55 87 128
55 87 127
56 88 127
55 87 126
55 87 129
55 87 127
55 88 125
56 88 128
56 88 130
55 87 124
55 88 126
56 88 126
56 89 128
56 89 129
55 88 128
56 89 129
56 88 130
56 88 129
56 89 130
56 88 127
56 89 128
56 89 130
56 88 127
57 90 129
56 89 131
56 89 129
56 88 130
56 89 127
56 89 130
56 89 126
56 89 131
56 88 128
56 89 130
56 89 131
57 90 135
57 90 129
57 89 129
56 88 128
56 88 125
57 89 130
56 89 128
56 88 128
57 89 132
56 89 127
56 88 129
57 90 132
56 88 129
56 88 129
56 88 128
55 87 127
55 88 126
56 88 129
57 89 132
56 89 133
56 88 129
56 88 128
56 88 130
55 87 127
56 88 132
56 88 130
55 87 123
56 88 128
56 88 129
55 86 127
55 86 126
55 87 126
55 86 124
55 86 125
54 85 122
55 87 125
54 85 122
54 85 122
53 83 116
54 85 122
53 82 117
54 84 123
53 82 115
53 82 117
53 83 118
52 81 117
52 80 114
51 79 110
52 80 114
50 76 106
48 73 98
45 69 93
59 67 66
64 63 32
56 55 32
47 47 25
49 49 30
38 40 24
36 40 27
37 41 28
38 43 30
42 47 31
41 48 34
42 47 33
43 49 34
45 51 37
46 53 40
50 56 39
58 62 42
63 68 47
74 76 48
75 78 49
79 81 50
88 89 56
93 92 54
96 96 57
103 102 60
107 105 61
110 108 64
112 111 64
115 113 66
122 119 67
122 118 66
124 121 69
125 121 67
133 129 72
128 124 71
132 128 71
135 130 71
137 132 72
138 133 73
141 136 75
143 137 75
145 139 77
147 141 75
148 142 76
150 143 78
152 145 77
152 145 77
152 146 78
155 148 78
154 147 79
154 146 77
158 150 77
156 148 78
158 149 79
158 149 78
159 151 77
161 153 79
162 153 81
163 154 81
163 154 81
162 154 79
164 156 82
163 154 80
162 154 79
163 154 79
164 155 81
164 155 81
163 155 80
165 156 80
165 156 81
165 156 81
166 157 81
164 155 80
165 156 80
165 156 81
165 156 80
164 156 80
164 156 79
166 157 81
164 156 80
163 154 77
164 156 79
166 157 81
164 156 80
165 157 81
167 158 83
165 157 79
164 156 79
167 158 83
165 156 80
165 157 81
166 157 81
167 158 82
164 156 79
167 158 82
164 156 80
166 157 81
165 156 81
162 154 77
164 156 78
165 157 80
165 157 80
164 156 79
164 156 80
165 156 81
166 157 82
166 158 82
165 157 81
165 156 79
166 158 83
166 158 81
166 157 81
165 156 80
165 156 77
165 157 80
166 157 82
165 157 82
165 157 82
166 157 82
166 157 82
166 157 81
166 157 82
166 157 81
165 157 80
165 156 81
166 157 81
166 157 82
166 158 82
163 155 79
164 156 81
165 156 81
164 155 79
165 156 79
165 156 81
163 154 79
163 154 80
163 154 78
164 155 81
164 155 81
161 153 77
162 153 78
164 156 80
161 153 78
162 153 80
160 151 78
162 154 81
160 151 77
160 151 76
161 153 78
187 202 200
185 200 197
187 202 201
186 201 196
187 202 201
186 201 200
186 201 196
186 201 198
187 202 202
186 201 199
186 201 199
186 201 196
186 201 199
186 201 198
187 202 202
186 201 198
186 201 197
186 201 198
187 202 200
186 201 196
186 202 198
186 201 199
184 200 193
186 201 198
186 201 198
184 199 191
185 200 195
186 201 196
186 201 198
185 200 194
186 201 198
185 201 196
185 200 195
185 200 195
186 201 197
186 201 197
185 200 196
187 202 200
185 201 196
185 201 197
186 201 197
185 200 194
185 201 196
186 201 196
184 199 192
186 201 197
187 202 201
185 201 198
184 200 192
184 200 193
186 201 197
184 199 192
185 200 196
185 200 196
185 200 195
186 201 198
184 199 192
186 201 198
185 201 195
184 199 192
184 200 194
185 200 194
186 201 197
184 199 192
184 200 193
185 200 195
186 201 196
185 201 196
185 201 197
185 201 196
185 200 195
184 200 194
185 201 196
185 200 195
185 200 197
185 201 197
185 201 197
185 200 194
185 200 195
184 200 192
186 201 198
183 199 188
184 199 191
185 200 197
185 201 195
185 201 196
185 200 195
185 200 196
184 200 194
184 200 194
184 200 193
184 200 193
184 200 193
184 199 192
184 200 194
184 200 193
184 199 191
184 200 194
185 201 197
183 199 190
185 200 195
185 200 195
184 200 193
183 199 190
183 199 191
184 200 192
185 200 196
184 199 193
181 196 187
176 190 178
172 185 171
165 177 162
156 168 158
150 164 161
141 155 153
131 146 146
124 139 148
112 128 140
95 112 126
63 84 110
50 77 109
48 77 109
48 76 109
47 75 109
47 74 109
46 73 109
46 73 106
46 73 106
46 73 107
45 71 107
44 70 102
43 68 102
42 67 101
41 66 101
40 64 97
39 63 96
38 62 95
38 61 95
35 58 88
34 56 87
32 52 83
30 50 82
26 43 70
24 40 67
22 36 61
20 33 57
55 64 79
128 140 146
118 134 144
47 75 111
49 79 114
51 81 121
52 82 120
52 83 121
53 84 124
54 85 126
53 85 122
53 85 123
55 87 128
55 87 126
54 85 126
54 86 124
54 86 124
55 87 127
54 86 124
55 88 127
54 86 123
55 87 127
55 87 128
54 86 124
54 86 126
55 88 127
55 88 128
56 88 128
56 89 130
55 88 128
56 88 129
55 87 126
56 89 128
56 89 127
56 88 128
55 88 125
56 88 127
56 89 127
56 88 129
56 89 131
56 88 129
56 89 128
56 89 126
56 88 129
56 88 127
56 89 129
56 89 128
57 89 131
56 88 127
57 90 130
57 90 129
57 90 132
57 90 130
56 89 128
57 89 129
56 89 129
56 88 126
56 89 131
56 88 126
56 88 125
55 88 124
56 89 130
56 89 127
57 89 133
56 89 125
56 89 129
56 88 124
56 89 130
56 88 127
56 89 130
56 89 129
56 88 128
56 88 129
56 88 129
54 86 124
56 88 129
54 86 120
56 88 129
55 87 128
55 87 127
55 87 127
55 86 124
54 86 123
55 87 127
55 87 127
55 86 125
55 87 127
54 85 119
55 87 125
55 85 121
53 84 120
54 84 120
54 84 121
54 84 122
53 83 119
54 84 119
52 82 112
53 82 115
52 80 111
51 78 108
50 77 106
50 77 107
49 75 100
48 73 99
45 68 91
61 69 65
61 60 32
49 48 25
46 46 24
36 38 22
36 39 22
31 36 22
33 38 25
38 43 27
38 43 29
40 46 31
41 48 33
43 49 36
41 49 33
42 50 36
47 55 40
53 59 41
62 65 41
67 71 46
74 76 47
79 81 50
86 88 54
92 92 54
95 95 55
100 99 58
102 102 59
107 106 59
114 112 63
116 113 65
118 115 65
122 119 67
125 122 66
126 123 67
126 123 66
131 127 70
133 129 72
132 127 69
136 131 71
134 130 69
138 132 70
140 135 73
141 135 72
145 139 74
148 142 76
150 144 77
146 140 75
150 142 74
152 145 75
152 145 76
154 146 77
154 146 76
156 148 77
156 148 76
162 153 79
160 152 80
158 150 79
159 150 76
159 151 76
162 153 79
161 153 80
162 154 79
161 152 76
163 154 78
164 156 81
161 152 76
161 152 76
164 156 79
165 156 79
165 156 80
165 156 80
165 156 78
163 155 77
164 155 78
163 154 77
163 154 77
165 156 79
165 155 80
164 155 78
165 156 82
166 157 81
165 156 81
165 156 80
165 156 80
166 156 80
165 156 82
167 159 81
165 156 80
165 157 81
166 157 81
165 157 80
164 155 79
165 157 80
166 157 80
166 157 81
163 155 79
165 157 80
166 157 80
163 155 78
166 158 81
165 156 79
165 157 79
165 157 80
166 157 82
166 157 82
165 157 78
166 158 81
165 157 80
166 157 78
163 155 78
165 156 80
165 157 81
166 158 82
165 156 78
166 157 80
164 156 79
167 159 82
165 156 79
166 157 81
167 158 82
165 156 79
165 157 81
167 158 82
165 156 79
164 156 78
163 154 78
166 157 80
164 156 80
167 158 82
165 156 79
165 156 78
164 156 79
164 155 79
165 156 80
163 155 78
165 156 80
163 154 78
163 154 79
162 153 78
161 152 77
163 155 79
162 153 78
162 153 78
162 153 80
160 151 75
160 151 77
161 152 79
159 151 77
161 153 78
161 153 77
184 200 193
184 200 192
184 200 193
185 200 194
183 199 189
185 200 193
183 199 188
185 200 194
183 199 189
184 199 192
184 200 193
183 199 188
183 199 189
182 198 186
184 200 192
184 199 191
182 197 184
184 199 191
184 199 192
184 200 192
183 199 189
183 198 188
184 199 191
183 198 187
184 199 191
183 199 189
183 199 189
183 198 187
183 199 188
183 199 188
183 198 187
182 198 184
183 198 186
183 198 188
183 199 187
185 200 193
184 199 191
182 198 186
183 198 188
184 199 191
185 200 192
182 198 186
184 200 193
184 199 190
183 199 189
182 197 184
181 197 182
183 199 187
183 198 187
183 198 187
182 197 185
183 198 186
183 198 188
182 198 185
183 199 188
184 199 191
184 200 193
182 198 185
183 198 186
183 198 187
182 197 185
182 197 184
183 198 187
182 198 186
182 198 186
182 198 185
183 198 186
182 197 184
183 198 188
182 198 184
181 197 182
181 197 180
182 198 186
184 199 189
182 197 184
183 198 187
182 197 184
181 197 182
182 197 184
182 198 185
182 198 185
182 197 184
181 196 181
181 197 182
180 196 177
182 197 184
180 196 177
182 197 184
182 198 185
182 198 186
181 197 182
181 197 182
181 197 182
182 197 183
180 196 180
181 197 183
181 197 182
182 197 182
180 196 181
182 197 183
181 197 184
181 197 183
181 197 181
181 197 181
181 197 183
181 197 183
182 197 184
180 196 179
178 193 178
172 186 165
168 181 158
163 175 156
157 170 150
148 163 152
139 154 145
132 147 141
121 136 138
112 128 127
89 106 121
68 89 110
50 77 107
48 77 110
48 76 110
47 74 105
47 74 107
47 74 109
46 72 103
45 72 105
45 72 105
44 71 102
44 70 103
42 68 99
42 67 96
40 65 96
41 65 96
39 62 91
38 61 92
37 59 90
36 58 89
34 56 86
31 51 78
29 48 77
26 43 67
24 39 64
21 35 59
18 30 50
53 62 74
127 140 134
121 137 143
47 75 112
50 80 120
51 81 117
52 83 120
52 83 121
52 82 120
54 85 124
54 86 125
53 84 122
54 85 127
53 84 120
54 86 123
54 86 124
54 86 125
55 87 126
55 87 127
55 87 122
55 87 125
55 87 123
54 86 119
56 89 128
55 87 127
55 87 126
55 87 123
54 86 125
55 88 127
55 88 127
54 86 122
56 89 128
55 88 125
56 88 126
55 88 126
56 88 128
56 89 126
55 87 125
56 89 128
56 89 128
56 89 127
56 89 128
56 89 127
57 90 128
56 88 126
56 89 129
57 90 130
56 89 126
56 89 128
56 89 127
56 88 127
56 89 130
56 89 127
56 89 131
56 89 127
57 90 133
56 88 129
56 89 129
57 90 130
56 88 127
56 89 129
56 88 125
56 88 127
56 89 129
56 88 130
56 88 125
56 89 130
56 89 129
55 87 123
55 87 123
55 87 125
56 88 128
56 88 129
56 88 128
55 87 125
55 87 126
56 88 128
56 88 127
54 86 121
55 87 126
55 87 126
55 87 128
55 86 124
54 86 124
53 84 117
54 85 121
54 86 119
55 86 124
55 86 123
54 85 122
53 84 117
53 83 114
53 84 118
53 83 117
54 84 119
54 83 116
53 82 116
53 82 116
52 81 115
51 79 109
50 77 108
51 78 107
49 75 101
48 73 96
44 67 87
58 66 63
62 60 30
55 53 28
46 45 24
43 44 22
35 38 21
35 38 21
34 38 23
37 42 25
37 42 27
38 44 28
37 44 30
43 49 34
44 50 35
46 51 36
46 53 36
53 58 39
63 66 42
74 76 46
72 73 44
81 82 49
88 88 52
92 91 53
97 95 53
99 98 56
102 101 56
103 102 56
110 108 60
118 115 63
114 111 60
119 116 64
126 123 65
123 120 65
128 124 67
132 128 68
131 126 68
131 126 67
133 128 68
139 133 70
136 131 69
140 134 71
141 135 72
140 135 68
144 137 70
146 140 72
147 141 74
150 143 74
152 145 74
152 144 72
153 146 75
153 145 75
156 148 78
155 148 75
160 152 77
159 151 77
158 150 77
160 152 76
160 152 77
161 153 78
159 151 76
162 154 78
161 153 76
162 153 76
161 152 77
164 154 80
162 153 77
163 154 77
162 153 77
164 156 79
164 154 78
164 155 79
164 155 78
165 155 78
165 156 80
163 155 77
164 155 78
164 155 78
165 155 79
164 155 80
164 155 77
165 157 79
163 155 77
164 155 77
164 155 79
165 156 79
162 154 76
165 156 78
163 155 77
164 156 78
164 155 78
163 155 75
164 155 77
164 155 79
164 156 78
164 155 77
164 155 78
164 155 78
165 157 80
166 157 81
165 156 79
164 156 78
167 158 81
165 156 80
164 156 77
166 157 80
164 156 79
165 156 80
164 156 78
165 157 79
164 155 78
167 158 81
165 157 78
165 156 78
165 156 78
162 153 75
165 157 79
165 157 80
164 156 78
166 157 79
165 156 79
164 154 77
165 156 78
164 155 79
164 156 78
164 155 78
166 157 81
164 155 80
166 157 81
163 154 79
164 155 78
163 155 76
163 155 78
165 156 79
162 153 76
163 154 78
161 152 76
163 154 79
162 153 78
161 152 76
162 153 78
163 155 80
159 150 75
162 153 78
160 152 77
160 151 78
160 151 75
161 152 77
160 152 76
159 151 75
183 199 189
182 198 184
183 198 186
183 198 187
181 197 182
182 198 186
183 198 188
183 198 188
183 198 187
182 198 185
182 198 184
181 197 182
181 197 180
181 197 182
181 197 184
182 198 185
183 198 186
182 198 186
183 198 187
182 198 184
181 197 182
182 198 184
181 197 183
182 197 184
180 196 179
183 198 187
182 198 186
181 197 182
181 197 181
181 197 182
181 196 179
182 198 184
182 198 184
181 197 182
181 197 181
181 197 180
181 197 181
180 196 178
181 197 180
180 196 177
181 197 179
181 197 181
181 197 181
179 195 177
182 198 184
180 196 178
181 197 183
180 196 178
181 197 181
180 196 178
181 197 180
178 194 172
180 196 177
179 195 175
181 197 179
182 197 181
180 196 177
181 197 180
180 196 176
180 196 177
181 197 180
179 195 175
180 196 178
180 196 176
180 196 177
179 195 175
180 196 176
180 196 178
179 195 174
180 196 177
179 195 174
179 195 174
180 196 176
179 195 172
180 196 178
179 195 172
179 195 175
179 195 173
179 195 175
179 195 174
179 195 174
178 194 173
180 196 176
178 194 172
179 195 175
178 194 170
179 195 175
179 195 175
179 195 172
181 196 180
179 195 172
180 196 176
179 195 174
178 194 171
178 194 170
180 196 176
178 194 173
180 196 177
178 194 172
178 194 170
178 194 172
178 194 172
178 194 173
179 195 173
178 194 170
178 194 171
178 194 173
177 192 170
175 190 167
172 186 162
168 181 152
161 173 147
151 164 140
143 157 137
135 150 134
128 143 129
114 130 120
103 119 117
91 108 107
68 89 108
49 76 104
47 75 103
47 74 107
47 74 107
48 75 107
46 73 103
46 73 107
44 71 100
44 70 102
44 70 101
42 67 98
42 67 97
41 66 94
40 65 94
40 64 93
40 65 92
39 62 90
36 58 87
34 55 79
34 55 81
32 51 75
29 47 73
26 43 64
23 39 62
21 35 52
18 31 45
55 64 66
133 146 139
126 142 144
47 75 111
49 78 113
50 80 117
52 83 120
52 83 118
52 82 119
53 84 125
53 85 125
53 84 123
54 85 122
54 85 123
54 85 124
54 86 122
54 85 120
54 86 121
54 86 123
54 86 122
55 87 128
55 87 127
55 87 128
55 87 125
55 88 126
55 87 126
55 87 125
55 88 128
55 87 127
55 87 124
55 87 127
55 87 125
56 88 128
56 88 128
56 88 128
55 88 126
55 87 125
56 88 128
56 89 130
56 89 130
56 88 127
56 89 128
56 89 126
57 90 129
56 89 128
55 87 124
56 89 129
56 89 130
56 88 126
56 89 130
56 89 129
56 88 125
56 88 127
56 88 127
56 88 127
56 88 125
56 89 129
56 88 127
56 89 129
57 90 131
56 88 128
56 88 125
56 89 127
56 89 128
56 89 130
56 88 126
56 89 127
55 88 127
55 87 125
56 89 127
56 88 127
56 89 128
55 88 124
55 87 126
55 87 126
56 88 126
56 88 128
55 87 124
55 87 123
56 88 127
55 87 125
55 86 123
55 86 124
56 89 129
55 87 124
55 86 124
54 85 121
54 85 121
54 85 119
54 85 119
53 83 117
53 83 120
53 84 119
54 83 117
52 81 112
52 80 112
52 81 113
53 82 112
52 80 110
50 78 107
51 79 109
50 77 103
49 76 102
48 73 94
45 67 85
61 68 61
62 61 29
54 52 25
45 44 20
35 37 18
36 39 19
34 37 19
38 42 24
35 40 24
37 41 25
42 47 29
38 44 30
44 50 31
42 49 32
43 50 34
46 53 37
52 57 36
60 63 37
66 68 41
75 75 44
78 79 46
86 87 51
92 91 50
92 91 49
98 97 54
107 104 58
107 105 58
110 108 59
114 112 62
118 115 62
120 116 61
121 117 61
121 118 63
123 119 63
127 123 67
132 127 68
134 128 67
134 129 67
137 132 70
137 132 70
141 135 69
142 135 71
142 136 69
145 139 74
145 139 71
144 138 69
150 143 73
149 142 72
152 144 73
153 146 73
154 146 73
153 145 71
157 149 77
156 148 74
158 150 76
157 149 74
158 149 75
159 151 74
159 151 75
160 152 76
160 151 75
160 151 75
161 153 77
161 152 74
164 155 78
162 153 77
163 154 76
163 154 76
162 153 77
163 154 76
163 154 77
164 155 78
164 155 78
164 155 78
163 155 76
164 155 78
163 155 77
163 155 77
164 155 76
164 155 78
164 155 78
163 154 75
165 156 79
163 154 77
163 155 75
162 155 76
163 154 76
165 156 79
164 155 78
163 155 76
163 154 77
163 154 76
165 156 79
164 156 78
165 157 78
164 155 76
166 158 81
165 155 79
163 155 75
164 155 79
163 154 77
163 155 77
165 156 78
165 157 79
166 156 80
164 156 78
164 156 77
165 156 78
165 156 80
164 155 78
165 157 78
164 156 78
164 155 78
164 156 77
164 155 77
165 157 78
164 156 79
165 156 79
165 156 77
165 156 78
165 156 77
165 156 80
166 157 79
165 156 78
166 157 79
164 155 78
164 155 77
164 156 77
162 154 74
163 155 76
162 153 77
163 154 76
164 155 78
164 155 79
161 153 75
163 154 77
162 153 76
162 153 77
162 154 76
163 154 78
162 153 77
162 153 77
159 151 75
161 153 76
161 152 78
162 153 79
162 154 77
159 151 75
158 150 75
181 197 181
181 197 180
181 197 181
180 196 178
180 196 179
180 196 177
181 197 180
180 196 176
180 196 176
180 196 177
180 196 177
179 195 175
180 196 178
181 197 180
181 197 179
180 196 178
179 195 172
180 196 176
180 196 175
179 195 172
180 196 178
181 197 179
180 196 177
179 195 174
181 196 179
181 197 181
182 197 182
179 195 174
180 196 175
181 196 178
179 195 173
179 195 174
180 196 175
179 195 175
180 196 178
179 195 172
179 195 174
179 195 171
179 195 172
179 195 173
180 196 176
180 196 178
179 195 171
179 195 172
180 196 176
180 196 175
178 194 170
178 194 169
178 194 169
180 195 174
179 195 173
177 193 167
178 194 170
179 195 171
179 195 171
178 194 169
177 194 167
179 195 171
179 195 173
178 194 171
178 194 170
177 193 167
176 193 166
179 195 171
178 194 169
178 194 170
177 194 168
177 194 167
178 194 170
177 194 167
178 194 169
179 195 172
177 193 166
178 194 171
178 194 170
177 193 164
177 193 165
178 194 168
177 193 168
175 192 161
177 194 167
177 193 165
176 193 163
177 193 165
177 193 166
177 193 166
176 193 163
175 192 161
177 193 165
176 192 164
175 192 161
176 192 164
177 193 167
176 192 164
175 192 161
176 192 163
176 193 164
177 193 165
176 193 166
175 191 163
176 193 166
176 192 163
176 192 164
175 191 158
176 192 164
175 192 162
175 192 164
175 191 162
172 187 157
168 182 147
164 177 140
160 173 137
151 164 136
142 156 132
136 150 130
124 140 124
118 133 116
107 123 115
89 107 103
70 91 101
52 78 104
47 75 109
47 75 105
47 74 104
47 75 107
46 73 105
45 72 103
45 71 100
45 71 102
44 70 98
43 69 100
42 67 94
41 66 95
40 64 91
39 63 89
38 61 88
36 59 85
36 58 85
35 56 80
33 53 75
30 49 70
28 46 68
25 42 62
23 38 57
21 35 49
18 31 42
67 77 75
135 149 135
131 147 144
46 73 106
49 78 116
51 81 115
52 83 120
52 82 117
53 84 120
53 84 118
53 84 119
53 84 122
53 84 119
54 85 120
54 85 127
54 86 123
54 86 119
54 86 123
55 87 125
55 87 125
54 86 122
55 87 124
55 87 122
55 88 125
55 87 127
55 87 123
56 88 128
56 88 125
56 88 125
55 87 126
55 87 125
56 88 125
56 89 127
55 88 123
55 86 121
56 88 127
55 87 123
55 87 122
55 87 124
55 88 125
56 88 128
56 88 124
56 88 124
56 88 125
56 88 125
56 89 129
56 89 129
57 89 130
56 89 129
56 89 126
56 89 129
55 87 121
56 89 125
57 90 130
57 89 131
56 88 125
56 89 130
55 87 124
56 88 129
56 88 127
56 88 126
56 88 127
56 89 126
56 88 126
56 88 124
55 88 125
56 88 126
55 88 126
56 88 130
56 88 122
56 88 127
56 88 125
55 88 126
55 88 126
55 87 124
55 86 122
55 87 127
54 86 124
55 86 123
55 87 124
55 86 125
54 85 121
55 86 122
55 86 123
55 86 124
55 86 124
55 87 125
54 85 121
54 85 118
53 83 115
54 84 120
55 85 120
54 83 116
52 81 114
53 83 114
53 82 112
53 82 113
52 81 112
52 80 112
51 79 106
49 76 103
49 76 104
49 75 99
48 73 97
45 67 86
61 67 55
67 65 32
51 50 22
45 45 18
40 41 18
37 38 16
36 39 20
34 38 20
37 42 23
40 45 26
38 44 26
41 47 29
40 47 30
42 47 30
47 53 33
49 53 29
53 58 37
58 62 36
68 70 39
73 74 40
80 81 44
85 86 47
86 86 48
91 91 50
97 96 52
104 102 55
109 107 59
106 104 55
113 110 59
111 109 57
117 113 59
121 117 61
123 120 62
123 119 61
124 120 61
128 123 63
132 127 65
132 128 67
131 127 66
136 131 66
138 133 68
139 133 67
140 134 67
145 138 68
146 140 70
146 140 70
148 142 71
148 141 69
152 145 73
150 143 71
153 146 71
155 147 73
156 148 73
157 149 73
156 148 72
159 151 76
159 151 75
158 150 74
160 151 75
156 148 71
159 150 73
158 150 73
160 151 75
160 151 74
161 152 75
162 154 75
161 152 74
162 153 75
162 154 75
162 154 76
164 155 79
162 153 75
162 154 75
163 154 75
163 154 76
163 154 77
164 155 78
162 153 74
162 153 75
163 154 75
164 155 77
164 155 77
164 155 76
163 154 75
162 153 75
163 154 76
162 154 75
162 154 75
163 155 76
162 153 76
164 155 77
162 154 73
165 156 78
165 156 77
163 155 76
164 155 77
164 156 78
164 155 77
164 155 77
164 155 76
163 155 75
163 155 75
165 156 76
164 156 77
165 156 78
166 157 79
164 156 77
162 153 75
163 155 76
164 155 76
164 156 77
162 154 75
165 156 77
164 155 76
165 156 79
164 155 76
165 157 78
164 155 76
165 157 78
164 156 77
164 155 76
164 155 76
163 155 76
164 156 77
165 156 78
165 156 79
166 158 78
165 156 77
163 154 76
163 154 77
164 155 77
163 154 77
164 155 77
162 153 76
163 154 78
163 154 77
161 153 75
160 152 75
162 153 75
159 151 74
160 151 76
161 152 75
159 150 74
159 151 75
160 151 74
160 152 75
159 151 76
158 150 75
160 152 77
178 194 170
179 195 174
178 194 170
177 194 168
179 195 172
179 195 173
179 195 175
179 195 174
180 196 176
177 193 166
180 196 175
180 196 177
179 195 172
180 195 175
179 195 172
180 195 175
178 195 171
177 193 168
178 194 168
176 193 163
178 194 169
180 196 174
178 194 168
178 194 169
178 194 171
179 195 171
177 193 165
179 195 172
178 195 170
178 195 170
178 194 168
178 194 170
177 193 164
178 194 168
176 192 160
178 194 171
177 193 166
177 193 165
177 194 168
178 194 168
178 194 169
177 193 165
177 193 165
178 194 168
178 194 167
178 194 168
177 194 166
177 194 167
177 193 167
176 193 163
176 193 163
177 193 163
177 193 163
176 192 161
177 193 163
176 193 162
177 193 167
176 193 162
176 192 160
176 192 160
175 192 159
175 192 160
176 193 163
177 193 164
175 192 158
176 193 162
176 192 160
175 192 157
174 191 155
174 191 156
176 192 160
176 192 160
176 192 161
176 192 160
174 191 159
174 191 156
175 191 158
174 190 155
176 192 161
175 192 157
173 190 151
174 191 156
175 191 158
175 191 156
174 191 157
174 190 155
174 191 156
174 191 157
174 191 156
173 190 152
174 191 155
175 191 158
175 191 158
174 190 157
175 191 157
174 190 157
171 188 148
173 189 153
171 188 148
175 191 160
172 188 150
171 188 150
173 189 154
172 188 150
172 188 151
171 188 149
171 188 151
171 187 150
167 182 142
165 179 138
161 174 133
155 168 126
148 161 122
137 151 117
130 145 114
123 138 113
115 131 113
105 121 106
87 105 98
68 89 99
54 80 102
47 75 104
46 74 102
45 72 101
46 74 102
46 72 100
45 71 100
43 69 98
44 69 98
44 70 100
43 68 95
42 67 92
41 66 91
39 63 88
39 63 89
39 62 88
37 60 86
35 56 79
34 55 79
32 52 73
30 49 68
28 46 63
26 42 57
22 37 53
21 34 45
19 32 39
79 89 81
139 153 131
133 148 141
46 74 108
48 77 109
50 80 113
51 81 116
53 84 121
52 83 119
53 84 121
53 83 120
54 85 119
54 85 122
54 86 120
54 85 118
54 85 121
54 85 120
54 85 121
54 86 121
55 87 124
55 87 122
55 87 124
54 86 121
55 87 125
54 86 122
55 86 122
55 87 123
55 87 121
55 87 124
56 88 122
55 87 124
55 88 125
56 88 125
55 88 124
55 87 123
56 88 126
56 88 124
56 88 125
55 87 123
56 89 126
55 87 123
56 89 129
56 89 127
55 87 122
56 88 125
56 88 127
56 88 125
56 88 125
57 89 127
56 89 126
55 87 122
56 88 124
57 90 128
55 88 125
56 88 126
57 90 126
55 88 123
56 89 128
56 89 128
55 87 126
56 89 128
56 89 128
56 88 126
56 88 125
55 87 124
56 88 126
55 88 125
55 87 124
55 87 123
56 88 127
55 86 121
55 87 124
55 87 124
55 86 123
55 87 123
56 88 126
55 87 123
55 87 127
55 87 120
55 87 125
55 87 126
55 87 123
54 85 120
55 86 121
55 87 124
54 85 120
54 85 122
54 84 116
53 83 114
54 85 121
54 84 120
53 83 116
53 82 114
53 83 118
53 82 115
53 82 115
53 81 112
52 80 108
52 80 109
51 79 106
50 77 104
50 77 103
49 75 100
47 71 91
44 66 84
62 68 54
68 66 33
54 53 23
48 47 21
42 42 16
39 41 16
39 41 18
40 43 18
39 43 24
39 43 24
40 45 25
42 47 27
41 48 29
44 50 30
45 52 33
49 54 34
54 58 34
60 64 36
64 68 38
68 70 39
76 78 43
84 83 46
88 88 47
95 94 49
94 93 50
99 98 52
106 103 54
109 107 55
110 107 57
115 112 58
120 117 62
117 114 60
121 118 60
124 120 61
122 119 61
128 123 65
131 125 63
130 125 66
134 129 64
132 127 61
137 131 65
139 133 67
140 135 67
143 137 69
143 137 67
145 139 69
149 142 69
150 142 72
150 142 69
154 146 72
153 145 71
155 147 74
153 145 71
157 149 71
156 148 73
154 146 69
158 150 73
159 151 72
157 148 73
161 152 75
160 152 76
158 149 70
158 149 71
159 151 74
160 151 73
162 152 73
162 154 74
163 155 75
161 153 75
162 153 75
163 154 77
162 153 75
161 152 74
165 156 78
162 153 75
163 153 74
164 155 78
163 154 76
163 153 76
162 154 75
162 153 73
164 155 75
163 154 74
162 153 74
161 152 73
163 155 76
163 154 75
164 155 76
161 152 73
162 153 74
163 154 75
162 154 75
163 154 73
163 155 75
162 153 76
164 155 76
163 155 75
162 154 73
163 155 75
164 156 74
163 154 75
163 155 74
162 154 75
162 154 74
164 155 76
163 155 75
165 156 77
162 153 74
164 156 76
165 157 78
162 154 74
165 157 78
164 155 76
164 156 76
164 156 75
163 154 75
163 154 74
165 156 76
163 154 76
163 155 75
163 155 75
164 155 77
164 156 76
165 156 77
164 155 75
165 156 77
165 156 78
166 156 78
161 153 72
164 156 76
163 154 75
163 154 76
162 153 74
163 153 77
161 153 74
162 153 76
163 155 77
161 152 74
161 152 73
161 153 74
162 154 78
161 153 75
160 152 75
158 150 73
161 152 76
160 152 75
159 151 75
160 152 77
157 148 72
178 194 168
178 194 170
179 195 173
178 194 171
178 194 169
178 194 167
178 194 169
178 195 170
178 194 169
177 193 166
177 193 167
179 195 170
177 193 164
176 193 164
176 193 163
177 193 165
178 194 167
177 193 165
177 193 165
176 192 160
177 193 164
176 193 163
176 193 162
177 193 163
176 193 161
176 193 162
176 192 160
176 192 162
176 192 161
176 192 161
176 192 161
176 193 163
175 192 161
176 193 163
176 193 163
176 192 163
175 192 159
177 193 164
176 193 161
175 192 158
177 193 165
174 191 155
176 192 158
176 192 159
176 192 159
174 191 157
174 191 153
175 192 156
174 191 153
175 192 156
176 192 159
173 190 152
174 191 155
175 192 157
173 190 151
174 191 154
174 191 156
174 191 155
174 191 154
173 190 152
173 190 152
174 190 152
173 190 152
173 190 152
173 190 152
172 189 146
172 189 146
172 189 148
174 191 154
173 190 149
172 189 146
174 191 152
174 191 154
173 189 150
173 190 150
172 189 147
174 191 152
172 189 146
172 189 147
173 190 151
172 189 146
171 188 142
170 187 140
172 189 147
171 188 143
171 188 142
172 189 148
173 189 149
172 189 148
169 186 139
171 188 144
169 187 140
170 187 140
171 187 145
169 186 141
170 187 140
171 187 145
170 187 145
171 188 142
169 186 141
170 187 145
168 185 136
170 186 141
168 185 139
168 184 136
168 184 139
168 184 136
168 184 141
164 180 130
163 177 133
159 171 125
154 166 121
145 158 112
137 151 112
129 144 109
121 135 106
112 128 103
103 118 98
86 104 89
72 93 94
56 80 97
46 73 100
46 73 99
46 73 100
45 72 98
45 72 98
45 72 101
44 70 96
44 69 95
42 67 93
42 68 95
42 67 94
41 65 90
39 63 84
38 62 85
38 61 85
36 58 78
35 56 76
34 55 72
32 52 71
30 50 69
28 45 61
26 42 57
24 39 50
21 35 44
26 39 41
88 100 79
149 164 141
139 155 142
45 73 102
48 76 106
50 80 115
51 81 113
52 82 116
52 83 117
53 84 119
53 85 120
52 83 119
54 85 120
53 85 121
54 85 122
53 85 119
53 84 118
54 85 119
54 86 124
54 86 119
55 87 123
54 86 121
54 85 120
55 87 123
55 87 124
55 87 121
56 88 124
55 87 123
55 86 121
56 88 126
55 87 121
55 87 123
56 88 125
55 88 123
55 87 125
56 88 125
55 87 123
56 89 126
55 88 127
56 88 124
55 87 124
56 88 127
55 87 119
55 88 123
56 89 128
56 88 126
55 87 118
55 87 120
56 89 124
56 88 123
56 88 124
55 88 124
56 88 125
55 88 123
56 89 127
56 89 127
56 89 128
56 89 127
56 88 125
55 88 124
55 87 122
56 88 125
55 87 123
56 89 125
56 88 126
57 90 131
55 87 124
56 88 127
56 88 126
56 88 122
56 88 124
56 88 125
56 88 125
55 87 125
55 88 121
55 87 125
55 87 124
55 86 122
54 86 123
55 86 120
55 86 121
55 86 119
54 85 117
54 85 118
55 86 120
54 84 118
53 84 117
54 85 119
55 86 120
54 85 121
53 83 114
53 83 115
52 82 112
52 81 113
53 82 112
52 81 113
52 80 111
52 80 108
51 79 105
50 77 102
51 78 106
49 75 100
48 72 91
46 70 89
44 67 84
76 78 54
66 64 26
52 51 20
53 52 21
41 42 17
41 43 16
38 40 15
39 43 19
39 43 21
41 45 25
41 46 24
41 46 24
46 51 28
49 54 29
47 52 29
53 58 33
53 58 32
57 60 33
66 67 37
70 72 39
78 79 42
81 81 42
85 86 44
91 90 47
90 90 44
100 99 49
104 102 52
105 103 53
108 104 55
112 109 54
117 113 57
119 115 58
122 118 60
122 118 60
129 124 61
127 123 60
129 125 62
132 127 63
133 128 64
131 126 62
132 127 62
134 128 63
140 134 66
143 136 69
145 138 67
145 138 66
148 141 69
148 141 68
147 140 67
150 142 68
153 146 73
153 145 71
154 146 71
155 147 71
154 146 70
154 146 71
157 149 72
157 148 70
158 150 72
157 149 70
159 151 72
158 149 72
160 151 73
159 151 72
159 150 71
161 153 73
162 153 74
160 151 71
160 152 73
161 152 73
162 153 75
161 152 72
161 151 71
162 153 74
163 153 74
160 152 72
161 152 73
162 153 74
163 154 74
163 154 73
161 153 71
163 154 73
161 153 72
163 154 74
160 152 69
160 152 72
162 153 72
163 154 73
163 154 75
162 153 73
163 154 73
163 155 74
163 154 75
163 154 74
163 154 76
162 154 72
163 154 75
163 154 75
163 154 74
163 154 76
163 154 75
163 154 74
164 156 77
164 155 74
164 155 75
164 155 74
163 155 75
164 155 77
164 155 74
163 154 74
164 156 76
162 154 74
163 155 76
163 155 75
164 156 76
164 155 76
163 154 73
163 154 76
163 155 77
164 156 76
164 155 73
164 155 75
162 154 74
164 155 75
163 155 77
163 155 76
162 153 75
163 154 75
162 154 75
164 155 76
162 153 75
163 154 75
163 154 74
163 154 76
162 153 75
163 154 75
161 152 75
162 153 74
160 152 74
161 153 75
161 152 75
161 152 76
159 150 73
159 150 73
157 148 72
158 149 74
157 148 71
158 150 74
159 150 73
176 193 162
176 192 162
178 194 166
176 193 162
177 193 167
175 192 157
175 191 156
177 193 163
177 193 164
177 193 164
176 192 160
175 192 159
176 192 161
176 193 161
175 192 157
175 192 160
176 193 162
176 192 160
175 192 158
175 191 156
176 192 161
177 193 163
175 192 157
175 191 155
175 192 157
176 192 159
175 191 156
173 190 150
174 190 154
173 190 152
175 191 157
176 193 160
174 191 155
175 192 157
174 191 154
174 191 152
175 191 156
174 191 154
175 191 155
173 190 151
173 190 151
174 190 151
174 190 152
174 190 153
174 191 155
175 192 156
172 189 145
172 189 148
173 190 150
173 190 149
173 190 151
172 189 148
173 190 148
172 189 146
172 189 146
173 190 148
171 188 143
173 190 146
172 189 146
171 189 144
171 188 142
172 189 144
170 188 139
170 187 140
170 188 140
169 187 136
170 187 138
170 187 137
171 188 141
171 189 141
169 187 136
169 187 138
170 187 137
170 188 138
168 186 133
170 187 139
170 187 136
169 187 135
168 186 131
168 186 132
169 187 135
169 186 134
169 186 136
170 188 139
167 184 129
169 186 133
168 185 132
170 187 137
167 184 127
170 187 139
165 183 125
168 185 132
166 184 127
167 184 132
167 184 129
166 184 127
165 182 127
166 183 126
164 182 123
165 183 126
164 182 123
165 182 126
164 182 122
165 182 127
164 181 126
163 180 122
164 181 124
163 179 123
162 178 122
160 175 120
156 169 112
151 164 105
142 156 103
136 151 100
127 142 98
116 131 93
109 125 91
99 116 92
88 105 83
74 95 90
62 86 95
47 74 102
46 73 97
45 72 96
45 71 95
45 71 95
45 71 96
45 71 98
43 69 91
43 69 91
42 67 90
41 66 86
41 65 87
39 63 84
38 61 82
37 59 79
36 58 77
35 57 75
33 54 70
32 52 69
30 49 64
28 46 58
25 41 53
23 39 45
21 35 39
42 54 40
108 121 96
158 174 144
140 155 136
44 71 94
48 76 109
49 78 110
51 81 114
51 82 113
52 82 117
52 83 117
53 83 120
53 84 118
54 85 120
53 84 116
53 85 120
53 85 117
54 86 122
54 85 123
54 86 123
55 86 121
54 86 122
54 86 120
55 87 125
54 85 119
54 86 119
55 87 122
55 86 123
55 87 122
55 87 119
54 86 121
55 87 122
55 87 121
55 87 123
56 88 123
55 88 126
55 87 122
55 87 122
56 88 128
55 87 121
55 87 123
55 87 122
55 88 122
56 89 123
55 87 121
55 87 122
55 88 124
55 88 125
55 87 126
56 89 125
56 89 125
55 87 122
55 87 118
55 88 124
55 87 121
56 89 123
56 89 127
56 88 126
56 88 123
55 87 123
56 88 124
55 88 121
56 88 126
56 88 124
56 89 124
55 87 125
56 88 124
55 87 124
55 86 120
55 87 123
55 87 123
55 87 126
55 87 123
55 87 119
55 86 123
55 86 123
55 87 122
55 87 120
55 86 120
55 87 120
55 87 123
54 86 122
54 85 118
55 86 124
55 86 122
54 85 120
54 85 120
54 85 118
55 86 121
54 85 119
53 83 115
53 83 114
53 82 113
52 82 112
53 82 114
52 81 111
53 82 112
51 80 104
52 80 110
51 79 104
50 78 106
50 78 103
48 74 98
48 73 95
46 70 85
40 60 70
93 94 69
73 71 32
59 58 24
49 49 19
49 49 17
45 47 14
42 44 17
44 46 18
42 45 20
44 47 22
45 49 24
46 50 25
44 50 28
48 52 27
51 55 27
53 57 30
57 61 31
59 62 31
63 66 34
71 72 36
71 72 38
78 79 41
87 87 43
93 92 47
95 94 49
100 98 48
103 101 50
105 103 52
104 102 49
114 110 56
116 112 55
120 116 57
117 113 55
122 118 59
123 119 59
126 122 58
126 122 60
132 127 61
133 128 64
137 131 64
132 127 60
136 131 62
140 134 65
142 136 67
140 134 62
144 137 66
145 138 68
148 141 68
148 140 68
150 143 68
151 143 68
147 140 68
152 144 67
152 145 69
154 146 69
155 146 68
154 145 70
155 147 69
156 148 69
157 149 70
157 149 71
158 150 71
158 149 71
160 151 71
159 150 72
159 150 72
159 150 71
161 152 72
162 153 73
160 152 70
160 151 72
161 152 71
162 153 72
161 152 72
162 154 73
162 153 73
160 152 70
161 152 71
163 154 74
162 153 74
162 153 73
162 153 72
161 152 70
162 154 74
162 153 72
163 154 74
161 153 72
162 154 73
162 154 72
161 152 72
161 152 72
162 153 73
163 154 74
164 155 75
162 153 74
163 155 73
162 153 73
163 155 75
164 155 75
161 153 73
163 154 73
163 154 75
163 154 74
162 154 73
161 153 73
162 154 72
164 155 74
164 155 75
164 156 74
164 155 75
162 153 73
164 155 74
164 155 76
162 153 74
164 155 75
164 155 75
163 154 73
164 155 75
163 154 73
164 156 74
163 155 73
164 155 76
163 155 74
163 154 74
164 155 75
162 153 73
162 153 74
164 155 76
164 155 76
161 152 72
162 153 74
162 153 75
162 153 73
164 155 76
162 153 75
159 151 72
159 150 71
159 151 72
161 152 74
161 152 75
159 151 73
160 151 72
160 152 74
159 151 74
160 151 72
159 150 73
157 148 72
158 150 73
158 149 74
175 192 160
177 193 162
175 192 157
175 192 159
176 192 159
175 192 157
176 192 159
174 191 155
175 191 157
174 191 155
175 191 155
175 191 156
176 192 159
174 191 154
174 191 154
175 192 156
174 191 154
175 191 156
175 192 158
174 191 154
173 189 149
174 190 152
174 191 153
173 190 148
174 191 155
173 190 149
174 191 152
173 190 148
173 190 149
171 189 144
172 189 144
173 189 148
173 189 149
171 189 143
172 189 145
173 190 151
174 190 151
172 189 143
172 189 146
171 188 144
171 188 143
171 188 141
171 188 140
170 187 137
171 188 142
172 189 145
171 188 140
170 187 138
171 189 142
170 187 136
170 187 137
170 188 137
170 188 139
170 187 136
170 187 138
169 186 135
169 186 132
169 187 133
167 185 129
168 185 128
168 186 130
168 185 130
168 186 129
167 185 128
167 185 127
168 186 129
168 186 132
167 185 126
168 185 127
167 185 126
167 185 126
167 185 127
166 184 123
166 184 125
166 183 122
167 184 124
165 183 118
166 183 124
164 182 113
165 183 120
165 183 123
165 183 118
164 182 115
164 182 114
165 183 121
163 182 114
164 182 117
163 181 111
162 180 112
163 181 112
161 180 105
162 180 110
162 180 111
162 180 109
161 180 109
160 179 106
161 180 106
160 179 102
160 178 102
159 178 103
159 178 102
157 174 99
158 176 98
157 174 98
157 175 96
156 173 99
156 174 92
156 173 96
157 174 101
153 169 95
149 164 89
147 161 87
140 154 88
131 146 85
126 141 86
114 130 76
111 128 78
97 114 79
88 106 77
77 97 86
64 86 92
51 77 95
45 72 93
46 72 96
45 71 93
44 70 92
45 71 93
44 70 92
43 69 92
42 67 85
41 66 86
40 64 83
40 64 86
39 62 82
38 61 78
36 59 75
37 60 80
34 55 72
33 54 66
32 52 69
30 48 61
28 45 56
25 41 47
24 39 38
22 36 33
61 74 51
122 136 104
162 178 143
167 181 172
45 72 99
49 77 106
48 77 106
50 79 109
51 82 113
52 82 117
52 82 114
52 82 112
53 85 122
52 82 111
54 86 121
53 84 115
54 85 119
53 84 117
53 85 118
54 86 116
54 85 117
55 87 123
54 85 117
54 86 121
54 86 116
54 85 117
56 88 125
54 86 120
55 87 122
55 88 123
55 87 120
55 87 122
55 87 123
55 87 121
54 86 119
55 87 122
55 87 118
55 87 123
55 87 121
56 88 124
55 86 117
56 89 124
55 87 122
55 87 123
55 87 119
56 88 128
56 88 125
55 88 123
56 88 125
56 88 125
55 87 121
56 88 125
56 88 124
57 89 128
55 88 122
55 88 126
55 87 121
55 87 122
56 89 125
56 88 126
55 87 121
55 88 120
56 89 127
55 88 124
56 88 122
56 88 123
56 89 123
56 88 123
55 87 123
55 87 121
55 87 119
55 86 121
55 87 121
55 86 119
55 87 123
54 85 119
55 86 121
55 86 125
54 85 119
54 85 118
55 87 123
55 86 121
54 85 119
54 85 118
54 84 116
54 85 116
54 85 120
54 84 118
53 84 115
54 85 120
53 83 117
53 83 118
53 83 113
53 83 117
51 80 107
52 81 110
51 80 108
51 79 106
51 79 106
51 80 108
49 76 99
49 76 101
48 74 95
47 72 93
46 71 90
41 62 76
142 146 138
80 77 31
63 62 27
51 51 16
51 51 15
43 44 15
47 48 15
42 44 16
44 47 18
42 46 21
45 49 23
44 49 24
46 50 27
49 53 26
50 55 29
52 57 29
56 61 32
60 63 31
65 68 35
70 72 35
72 74 35
82 83 40
84 84 41
92 90 44
93 92 47
98 96 47
106 103 49
105 102 50
105 102 49
109 107 51
118 114 55
113 110 53
119 115 55
122 118 56
124 119 57
123 119 56
125 121 58
131 126 59
132 127 60
136 130 62
135 130 62
136 130 63
135 129 58
139 133 63
142 135 64
144 137 66
143 136 62
145 139 64
144 138 65
148 141 67
150 142 66
148 141 67
152 143 67
152 144 66
155 146 71
155 147 70
155 147 71
155 147 66
153 145 65
157 149 69
158 150 70
158 150 69
157 148 69
160 151 72
158 150 68
160 151 71
161 152 71
162 153 73
160 151 70
161 152 72
159 150 69
161 152 72
161 152 71
161 152 72
159 150 70
161 152 71
162 153 72
162 153 72
159 151 70
161 152 72
160 151 70
161 152 71
159 151 69
161 153 73
160 151 70
160 152 70
161 152 71
160 152 70
163 154 73
162 154 73
159 150 69
162 154 73
161 153 71
162 153 72
163 154 72
163 155 73
162 154 73
161 153 71
163 154 73
161 153 71
163 155 75
162 153 73
162 154 74
162 154 72
163 154 73
163 155 74
163 154 73
163 154 73
162 154 72
162 154 71
164 156 74
163 154 73
163 154 73
162 153 72
162 154 73
163 154 74
163 155 74
163 154 73
163 154 75
161 152 72
161 153 72
162 153 72
162 154 73
164 155 76
162 154 72
163 155 74
162 153 72
162 153 72
162 153 74
161 151 72
162 153 74
162 153 74
162 153 74
162 153 74
161 153 73
163 154 75
160 151 73
160 151 73
160 152 73
159 151 72
160 151 72
160 151 73
159 150 70
159 151 73
160 151 73
158 150 73
159 150 74
156 148 71
156 148 70
175 191 155
175 191 156
173 190 149
175 191 155
176 192 159
173 190 151
174 191 153
174 191 151
173 190 149
175 192 157
173 189 150
172 189 146
174 191 154
173 190 151
171 188 140
173 190 150
172 189 146
172 189 146
174 191 150
174 191 150
173 190 149
172 189 143
170 188 139
172 189 144
172 189 145
171 188 140
170 188 139
171 188 141
169 187 136
170 188 138
170 187 138
170 187 137
172 189 143
169 187 135
171 188 142
171 188 138
169 186 131
169 187 131
169 186 134
168 186 130
169 187 132
168 185 131
170 187 134
169 186 133
167 185 126
168 186 129
167 185 128
166 184 125
167 185 125
169 186 133
167 185 128
168 186 129
167 185 125
166 184 122
167 185 126
167 185 124
165 183 117
165 183 120
166 184 122
166 184 121
165 183 117
163 182 113
165 183 117
164 183 115
165 183 113
162 180 106
163 182 113
163 182 106
163 182 109
163 182 110
161 180 100
163 181 111
162 181 106
161 180 102
161 180 103
160 179 95
161 180 102
160 179 99
161 180 100
160 179 99
158 177 91
159 178 95
158 177 90
159 178 92
157 177 83
158 177 87
157 176 86
157 176 88
156 175 82
156 176 80
157 176 85
156 175 82
154 174 74
155 174 76
154 173 77
153 173 67
154 174 74
154 173 75
152 171 65
154 174 73
152 171 62
153 172 70
151 170 68
151 170 66
151 169 64
151 169 64
148 167 59
147 166 56
149 167 60
146 163 60
143 159 56
141 157 57
135 150 59
129 144 63
123 139 69
113 129 61
105 121 66
97 114 68
88 105 74
79 98 82
65 85 84
55 78 89
45 72 93
45 71 92
44 70 89
45 71 89
45 71 93
43 69 86
43 69 93
42 67 88
41 65 81
41 65 85
40 63 78
38 61 77
37 60 78
37 60 74
35 57 67
35 57 72
34 54 67
30 49 59
30 49 58
28 46 51
26 43 48
24 40 39
27 42 39
81 94 59
133 149 111
168 184 146
191 205 206
72 91 112
47 76 102
49 78 104
51 80 108
51 81 111
50 80 112
52 83 110
53 83 114
52 82 113
52 83 113
53 84 117
54 85 119
53 84 116
54 85 120
53 84 116
54 85 119
54 85 120
54 86 117
54 86 119
55 87 119
54 85 121
54 86 118
55 87 120
54 86 117
55 87 122
55 87 121
55 86 119
54 86 120
55 86 121
54 86 120
56 88 124
56 89 126
55 87 120
55 87 122
55 88 124
55 87 118
56 88 125
55 87 123
55 87 121
55 88 123
55 88 122
56 88 124
56 88 126
55 87 119
56 88 123
56 89 129
55 88 124
55 87 123
56 88 127
56 88 122
56 88 122
56 88 124
55 87 120
55 87 120
55 87 120
55 87 123
55 87 122
55 87 122
55 88 124
55 87 121
55 87 120
56 88 124
55 87 125
55 87 120
55 87 118
55 87 120
56 88 123
55 87 123
55 86 118
55 88 126
54 86 120
55 87 124
55 86 120
55 86 120
54 86 118
54 84 115
55 87 123
54 86 118
54 84 120
54 85 121
54 85 116
53 84 115
54 85 118
53 84 116
54 84 118
54 84 115
53 83 113
53 83 114
52 82 111
52 81 111
52 82 111
52 81 110
52 81 109
51 79 102
52 80 107
51 78 103
50 76 100
50 76 100
48 74 94
47 72 88
44 67 82
67 82 92
178 186 192
81 79 36
66 65 27
56 56 19
51 51 17
46 47 14
46 47 13
44 46 14
46 48 18
45 48 19
44 48 21
47 50 23
49 53 25
49 52 24
48 53 24
56 60 29
55 59 30
60 63 28
67 70 34
69 71 33
72 74 36
79 79 38
82 82 39
93 92 43
96 94 43
99 97 47
101 99 48
104 102 47
107 104 49
110 107 51
112 109 51
114 111 52
118 115 55
119 115 55
122 118 57
124 120 57
126 121 56
129 124 56
128 124 57
134 129 61
135 130 60
135 129 60
132 126 57
139 132 62
142 135 63
143 136 62
144 138 66
144 137 63
146 140 65
145 138 63
149 141 67
149 141 65
151 143 67
152 144 65
151 144 65
153 145 66
153 145 66
153 145 65
156 148 69
154 145 68
156 148 68
157 149 66
159 150 69
159 151 71
158 149 68
158 150 67
160 151 71
157 148 67
160 151 69
160 151 70
160 151 69
160 151 69
159 150 70
161 151 71
160 151 70
160 152 70
159 151 68
160 151 69
159 150 68
158 150 66
161 153 72
161 153 70
160 151 70
159 150 68
161 152 69
162 153 71
161 152 70
162 153 71
162 153 71
162 153 71
162 153 72
159 150 68
159 151 68
161 152 72
162 153 71
160 152 71
161 152 71
160 151 69
161 153 71
162 153 73
162 153 70
162 153 71
161 153 72
162 153 72
163 154 73
162 153 71
161 152 70
162 153 73
161 153 72
163 154 74
161 152 71
162 153 72
161 153 70
164 155 73
165 156 74
164 155 75
162 153 74
161 152 70
164 155 74
163 155 75
164 155 74
161 152 71
161 153 72
162 153 73
163 154 73
161 152 70
161 152 72
163 154 74
163 154 73
162 153 74
163 154 73
162 153 75
161 152 73
159 150 71
162 153 74
158 149 70
161 152 74
160 152 72
160 152 71
160 151 73
159 150 70
157 148 70
158 148 71
155 147 68
157 149 71
158 149 71
157 148 71
158 149 73
157 148 71
172 189 147
173 190 150
173 190 147
173 190 147
173 190 148
172 189 146
172 189 145
173 190 148
171 188 140
171 188 141
172 189 145
173 190 147
170 187 137
170 188 141
172 188 142
170 187 137
171 188 140
170 187 138
170 187 137
172 189 142
170 187 138
171 188 141
169 186 132
169 186 132
170 187 136
168 186 130
170 187 136
169 187 135
169 186 133
169 186 133
166 184 122
167 185 129
169 187 132
167 185 127
167 185 125
165 184 121
166 184 121
167 185 124
167 185 126
165 184 119
165 183 119
164 183 115
166 184 120
165 183 119
164 182 112
165 183 116
166 184 119
164 183 114
163 182 108
164 183 114
164 183 110
163 182 113
163 182 112
162 181 104
161 180 103
161 180 104
161 180 101
162 181 104
161 180 98
161 180 96
160 179 96
160 180 95
158 177 88
158 178 88
158 178 84
158 178 88
158 177 83
158 178 88
158 177 79
157 176 78
156 176 76
156 176 75
157 176 78
157 177 78
155 175 71
155 176 72
155 175 69
154 174 62
155 174 64
154 173 63
153 173 65
153 173 63
153 173 55
152 172 59
152 172 57
152 173 48
152 173 50
153 173 57
152 172 52
150 170 46
152 172 50
150 171 46
151 171 47
151 171 50
150 170 37
148 168 36
148 168 39
149 170 33
149 169 44
147 167 34
147 167 33
146 166 26
145 165 34
146 166 32
145 165 24
145 164 29
145 163 26
143 161 28
142 161 24
142 161 17
141 159 31
136 152 22
131 147 29
125 142 44
119 135 48
113 130 55
106 123 61
97 114 66
90 108 75
81 100 76
70 90 82
58 80 85
46 72 89
44 70 87
44 70 89
44 70 88
43 69 89
43 68 85
41 66 82
43 68 88
40 64 77
40 64 81
40 63 78
38 62 80
37 59 74
37 59 72
35 57 67
33 54 64
33 54 63
33 53 62
29 46 52
28 46 49
25 41 43
26 42 37
46 60 37
101 116 69
149 165 121
165 181 138
205 218 228
113 128 143
46 74 101
49 78 107
50 80 110
50 80 110
52 82 114
51 80 111
53 84 117
53 83 118
53 84 119
53 84 115
53 84 116
53 84 117
53 84 116
54 86 118
54 85 116
54 85 117
54 85 116
54 85 119
55 87 121
54 85 115
54 85 116
55 87 122
54 86 117
55 87 119
55 86 122
55 87 119
54 86 122
54 86 115
55 87 123
56 88 125
55 87 120
55 87 123
55 87 123
55 86 121
55 87 120
55 88 123
55 87 118
55 86 120
56 88 121
55 88 121
55 88 122
55 88 125
55 87 119
55 87 121
55 87 121
55 88 120
56 88 123
56 88 125
55 88 123
55 88 120
56 88 125
56 88 123
55 88 121
56 88 125
55 87 118
55 87 122
55 87 120
55 88 118
55 87 121
55 87 120
55 87 120
56 88 125
55 87 124
55 87 122
55 87 121
55 87 120
54 86 119
55 86 119
55 87 119
55 86 121
54 85 117
54 86 117
54 86 122
54 85 118
54 85 119
55 86 120
54 85 116
54 85 118
54 85 117
53 84 113
54 85 118
53 83 115
54 84 119
53 83 111
54 84 117
53 83 116
53 83 112
53 83 111
53 82 110
52 81 106
53 82 111
51 80 104
51 79 105
51 78 107
51 78 108
50 77 100
49 76 100
48 74 92
46 70 86
44 66 82
114 127 140
199 210 221
87 84 36
68 66 24
58 58 18
55 55 16
52 52 15
47 49 13
52 53 17
48 50 16
48 51 21
45 49 21
47 50 22
52 55 24
54 57 25
54 57 26
55 59 28
60 62 26
58 61 26
69 71 32
69 71 31
76 78 35
79 79 35
82 82 40
87 87 39
95 94 43
99 98 44
99 96 43
105 103 48
106 104 48
110 106 50
112 109 51
115 112 52
118 114 52
120 116 52
124 120 57
121 117 53
124 120 55
129 124 56
128 123 58
131 126 57
133 128 58
135 129 60
133 127 56
136 131 59
140 133 58
143 137 63
143 136 63
145 138 62
147 139 62
146 138 62
148 140 63
147 140 61
150 142 64
148 140 61
154 146 66
151 143 64
153 145 64
153 144 66
155 147 67
153 145 67
155 146 64
157 148 67
156 148 67
158 149 66
156 148 66
156 147 65
158 149 71
159 150 68
160 151 71
158 149 66
160 151 72
159 150 68
159 150 68
158 149 68
161 152 71
160 151 70
158 149 68
161 152 70
159 151 67
158 149 68
159 151 70
160 151 69
160 151 69
161 152 70
160 151 69
159 151 67
160 151 68
159 150 68
160 151 70
159 150 67
159 151 69
160 152 68
161 152 70
161 153 69
161 152 72
161 152 70
162 153 72
161 152 69
160 152 68
160 152 70
161 153 70
159 152 68
160 152 70
161 152 70
162 153 70
161 153 70
163 154 72
161 152 70
161 153 71
161 152 71
161 152 70
161 152 69
162 154 73
162 153 72
162 153 71
164 155 74
162 153 71
161 153 70
162 153 72
161 153 72
162 153 70
160 151 67
163 154 74
162 153 71
163 154 73
162 153 71
161 153 71
160 152 72
162 153 71
162 154 71
161 152 74
161 152 72
162 153 73
160 152 70
161 153 72
160 151 72
161 152 74
159 150 71
158 149 69
159 150 70
159 150 71
158 150 71
158 149 71
160 151 73
158 149 70
158 150 73
160 151 72
158 149 71
156 148 72
172 189 146
171 188 142
172 189 144
172 189 142
171 188 140
171 188 144
171 188 140
171 188 142
170 187 138
170 188 139
170 187 136
169 187 133
170 187 138
167 185 128
169 187 132
169 186 131
168 185 129
169 187 134
169 186 128
168 186 130
168 185 127
168 185 127
167 185 123
165 184 118
167 185 125
166 184 117
164 183 115
166 184 120
166 184 118
166 184 120
164 182 111
165 183 115
165 183 115
164 182 112
165 184 116
164 183 113
164 182 112
161 180 102
162 181 104
163 181 105
163 182 106
161 180 99
162 181 99
160 179 93
161 180 96
159 178 90
160 179 95
159 179 88
161 180 98
159 178 90
158 178 85
158 178 85
159 178 85
158 177 80
157 176 79
157 177 72
156 176 68
156 176 74
156 176 69
155 175 64
156 175 71
155 175 65
154 175 62
155 176 67
155 175 62
153 174 57
153 173 53
154 174 55
154 174 57
152 173 44
152 172 51
152 172 48
151 172 42
151 171 41
152 173 42
152 172 40
150 170 38
151 172 34
151 172 33
149 170 25
150 171 28
149 170 22
150 171 19
151 172 28
150 170 19
149 170 20
149 170 21
147 168 16
149 169 17
148 169 10
148 169 12
147 167 7
148 168 10
147 167 0
147 167 7
147 167 7
146 166 0
145 165 0
144 164 0
145 165 0
145 165 0
144 164 0
144 164 0
144 163 0
143 163 0
142 161 0
142 161 0
140 159 0
141 160 0
139 157 0
138 155 0
137 154 6
128 143 20
125 142 34
118 134 42
114 131 55
105 122 55
100 117 56
89 107 68
78 97 76
69 89 79
59 80 79
52 76 85
44 70 87
45 71 89
44 69 88
42 67 83
42 67 84
42 66 81
41 65 84
40 64 79
38 61 70
39 62 75
37 60 70
38 61 75
36 58 70
35 56 60
34 55 63
32 52 60
30 48 50
29 47 48
28 46 48
27 45 40
29 45 34
73 88 36
120 136 86
158 175 124
157 172 132
221 234 251
143 157 172
46 74 95
49 77 105
50 79 105
51 80 108
52 82 109
51 81 110
51 81 109
53 84 113
52 83 112
53 84 111
53 84 116
53 85 115
53 84 115
53 84 116
54 86 119
54 85 116
54 85 117
53 85 114
54 86 122
54 86 117
55 86 118
54 86 120
54 86 116
54 86 117
54 85 119
54 86 117
55 86 118
55 87 120
55 87 118
55 87 122
54 86 119
55 87 120
55 87 119
54 86 119
56 88 122
54 86 120
55 88 121
55 87 122
55 87 120
55 87 122
56 88 124
55 87 120
55 87 121
56 88 123
55 88 122
55 87 118
55 87 121
56 88 123
55 87 121
56 88 121
56 88 121
55 87 122
55 87 120
56 88 123
54 86 120
55 87 117
55 87 121
55 87 122
55 87 120
55 87 120
55 87 120
55 86 120
56 88 123
55 86 121
55 86 118
55 87 120
55 86 118
55 86 120
55 86 120
54 86 121
55 87 120
54 86 117
54 86 116
54 86 118
55 86 118
54 85 117
54 86 120
54 85 116
54 85 118
53 84 111
54 84 115
53 84 116
53 83 111
52 82 109
53 82 114
53 84 114
52 81 110
52 82 108
52 80 108
52 81 110
51 79 102
52 80 106
52 80 104
51 79 104
49 76 101
49 75 95
48 74 97
48 74 93
46 71 86
45 68 84
148 160 173
219 232 249
95 92 49
78 76 29
63 62 23
61 61 18
53 53 15
53 54 14
50 52 15
55 56 16
48 49 18
50 52 17
49 51 20
51 54 22
56 58 23
55 58 26
57 60 27
59 62 26
64 66 27
63 66 29
70 71 30
74 75 32
76 77 36
83 83 35
89 89 38
92 91 40
98 96 43
99 96 41
105 102 46
107 104 47
109 106 47
116 113 50
114 111 48
114 111 48
122 117 53
123 118 54
124 120 54
123 118 53
128 123 54
131 126 56
130 125 55
132 126 56
131 125 56
134 128 58
136 129 59
138 132 61
139 132 60
143 136 61
143 136 62
146 139 63
145 138 62
145 138 60
149 142 61
147 139 63
151 143 65
148 140 62
151 143 63
153 145 65
154 145 68
152 144 63
155 147 64
155 147 66
154 146 63
155 146 65
155 147 65
155 147 64
157 149 66
158 150 67
158 150 66
158 149 66
159 150 67
158 149 67
159 150 69
159 150 67
157 148 65
158 150 67
160 151 68
159 150 68
158 149 65
158 149 66
159 150 68
161 151 69
157 148 67
158 149 67
160 151 66
161 152 70
161 152 71
159 150 66
159 150 67
157 148 66
160 151 67
160 151 69
160 151 68
160 151 68
160 151 68
161 153 69
159 150 64
158 150 66
161 153 69
162 153 71
159 150 67
161 152 68
161 152 69
159 150 68
161 152 69
159 150 67
159 151 69
163 154 72
159 151 67
160 152 70
161 152 69
160 152 68
162 153 71
163 154 71
161 153 70
160 152 67
161 152 70
161 153 70
162 153 71
162 153 70
160 151 70
162 153 70
164 156 73
161 152 69
163 155 71
161 152 72
162 153 71
160 152 70
161 152 72
160 151 69
161 152 72
161 152 71
160 151 70
160 152 71
161 152 69
160 151 69
161 152 71
158 149 69
160 151 73
159 151 71
159 150 70
157 148 70
158 149 70
159 150 71
158 149 70
159 151 71
157 148 69
154 146 68
155 147 69
155 147 68
169 187 135
169 187 134
170 187 135
169 187 135
170 188 136
169 187 134
169 187 132
168 186 131
169 186 130
168 186 131
166 184 119
167 185 123
167 184 123
166 185 123
166 184 119
165 183 118
166 184 125
166 185 119
167 185 122
165 183 114
165 183 113
165 183 117
163 182 106
164 182 111
164 182 108
162 180 101
163 182 107
163 181 108
162 180 100
162 181 102
161 180 98
161 180 96
161 180 97
159 178 91
160 179 92
159 178 91
158 177 84
158 178 82
158 178 81
158 178 84
157 177 79
157 177 78
158 177 77
157 177 76
156 176 70
156 176 70
155 175 68
156 176 70
155 175 61
154 175 62
154 174 60
153 174 51
154 175 57
153 174 50
154 175 54
153 173 51
152 173 45
154 174 54
152 172 44
152 172 39
152 172 35
151 172 29
151 172 30
151 172 35
151 172 27
150 172 28
149 170 17
151 172 25
151 173 22
149 170 12
150 171 16
150 171 10
148 169 14
150 171 7
149 170 0
149 170 0
150 170 0
149 170 0
149 170 0
148 169 0
149 170 0
149 169 0
149 170 0
148 169 0
148 168 0
148 168 0
147 168 0
148 169 0
146 166 0
147 167 0
147 167 0
146 167 0
147 168 0
147 167 0
147 167 0
145 165 0
145 165 0
145 165 0
144 164 0
144 165 0
144 164 0
143 163 0
143 163 0
142 161 0
141 161 0
140 159 0
137 156 0
138 157 0
138 156 0
135 153 0
135 152 0
134 150 0
131 147 14
125 142 33
119 135 38
113 130 44
107 123 55
99 116 57
90 108 61
84 102 67
74 93 73
64 84 74
58 80 77
45 70 81
43 68 79
42 67 79
43 68 89
43 67 85
42 66 80
41 65 79
40 64 75
39 62 70
39 62 73
38 60 69
37 60 70
35 57 64
35 56 62
34 54 59
32 52 55
31 50 48
30 49 49
28 46 36
28 46 36
55 70 32
89 105 44
132 150 83
164 181 126
163 178 148
216 231 234
167 181 178
45 72 93
48 77 103
49 78 105
50 79 104
51 80 106
52 82 111
52 83 110
53 83 115
52 83 110
52 83 111
52 82 111
53 84 114
53 84 116
53 84 117
53 84 114
53 84 110
53 85 116
54 86 119
53 84 116
53 85 117
53 85 115
54 86 118
55 86 120
54 86 118
54 86 117
55 86 117
55 86 120
54 85 118
54 86 119
55 86 120
55 86 121
55 87 121
54 86 119
55 87 118
55 87 119
54 85 118
55 87 120
55 87 122
54 86 115
55 87 118
55 87 121
55 87 118
56 88 120
56 88 123
56 88 124
56 88 123
55 87 119
55 87 119
55 87 120
55 87 122
55 87 121
56 88 120
55 87 121
55 87 122
55 87 118
55 87 120
55 87 119
55 87 119
55 87 118
54 86 119
54 86 116
55 86 117
55 87 120
55 87 119
54 86 116
54 86 119
55 86 119
54 86 117
54 86 118
55 87 118
55 86 118
54 86 118
54 86 118
54 86 121
54 85 117
54 86 117
54 85 115
53 84 118
54 85 116
54 84 115
54 85 118
53 83 113
53 83 112
54 84 117
53 83 112
52 82 108
52 81 110
52 81 106
52 81 110
51 80 104
52 80 106
51 80 107
51 80 105
51 78 101
50 77 97
50 77 99
48 74 88
48 73 93
45 68 83
45 67 79
171 185 180
216 230 233
129 132 109
74 71 29
71 69 25
58 57 16
56 56 14
55 56 15
58 58 15
51 52 17
53 55 16
52 54 18
53 55 21
50 53 19
55 57 23
56 59 23
61 63 26
59 62 26
63 65 26
69 70 29
67 69 29
75 75 31
80 80 32
84 83 36
86 86 37
94 93 38
97 95 42
102 99 42
101 99 41
102 100 44
111 107 47
108 105 46
113 109 47
116 112 51
112 109 48
122 117 51
123 119 52
122 118 52
128 122 53
126 121 52
129 123 52
130 125 52
131 126 57
134 128 54
138 131 59
135 128 56
138 132 56
141 134 58
142 135 59
143 137 59
144 137 59
146 138 58
148 141 63
147 140 59
150 142 60
153 144 65
150 143 62
151 143 62
152 144 61
152 144 60
152 144 62
152 144 61
154 146 64
155 146 62
155 147 64
157 148 65
157 148 66
156 147 63
157 149 66
156 147 64
156 148 65
156 147 64
157 149 64
158 149 66
158 150 66
156 147 64
158 149 65
158 149 67
156 148 65
158 149 66
158 150 64
159 150 67
156 148 63
158 149 65
158 149 66
159 151 67
159 150 66
158 149 65
159 150 67
159 150 66
160 151 70
159 151 66
160 151 68
159 150 66
159 150 66
160 151 69
157 148 65
159 151 66
159 150 66
161 152 69
160 151 67
158 150 67
159 150 69
162 153 70
160 151 67
160 151 69
159 150 67
160 152 69
162 153 71
160 151 67
162 153 71
161 152 69
160 152 69
161 152 69
161 153 70
159 150 67
160 151 69
162 153 70
162 153 70
160 151 69
161 152 70
161 153 69
162 153 70
162 153 70
161 152 70
161 153 69
160 152 68
162 153 70
161 153 70
160 151 68
160 151 70
159 150 68
160 151 70
161 152 70
160 152 70
160 151 70
160 152 70
160 151 70
157 148 67
159 150 69
159 150 69
158 150 70
158 149 70
156 148 68
156 147 68
154 146 66
157 149 69
156 147 68
158 149 70
155 146 68
168 186 130
168 186 129
166 184 120
167 185 126
168 186 127
168 185 126
166 184 120
166 184 120
165 183 117
165 183 114
164 183 114
165 183 113
165 184 115
164 182 112
164 182 110
163 182 105
163 182 105
162 181 101
161 180 99
162 181 101
162 181 104
162 181 100
160 179 88
160 180 89
159 179 87
159 179 87
159 178 89
159 178 84
159 179 89
159 178 81
157 177 74
157 177 77
156 176 74
156 176 68
155 175 69
155 175 64
156 176 66
155 175 62
154 175 59
154 174 53
154 174 55
153 174 53
154 175 52
153 174 50
153 174 53
152 173 37
152 173 42
152 173 35
151 172 34
151 172 33
152 172 30
151 172 29
151 172 21
150 171 16
152 172 25
151 172 17
150 171 12
150 171 16
149 170 10
150 171 12
150 171 0
149 170 0
150 171 0
149 170 0
149 170 0
149 170 0
149 170 0
150 171 0
149 170 0
149 170 0
149 170 0
150 171 0
149 170 0
149 170 0
149 170 0
149 170 0
148 169 0
148 170 0
147 168 0
148 169 0
148 169 0
149 169 0
147 168 0
148 169 0
147 167 0
147 168 0
147 168 0
147 168 0
147 167 0
146 167 0
147 168 0
145 165 0
145 165 0
144 165 0
145 165 0
144 164 0
145 165 0
144 164 0
143 163 0
143 163 0
144 163 0
142 162 0
141 160 0
141 160 0
141 160 0
139 158 0
138 157 0
137 155 0
135 153 0
135 152 0
132 149 0
131 147 0
129 144 10
124 140 20
117 133 35
113 130 42
103 119 48
101 117 55
94 111 61
82 99 63
75 95 74
64 84 70
59 80 71
51 74 79
43 68 78
42 67 82
41 66 77
42 67 79
41 65 78
40 63 73
39 63 72
38 61 67
37 59 63
37 59 66
36 57 62
35 56 61
33 54 52
33 54 55
32 52 51
31 50 46
30 50 46
30 49 37
44 60 35
77 93 30
111 129 51
144 162 91
161 178 115
158 178 85
169 193 0
158 180 28
45 71 92
47 75 97
49 79 104
49 78 102
51 81 106
51 81 108
52 82 111
52 83 111
53 83 112
53 84 115
52 83 111
53 83 113
53 84 113
54 85 119
53 84 112
54 85 113
53 84 115
53 84 115
53 84 115
53 85 114
53 84 115
53 84 111
54 86 116
54 85 114
54 85 116
54 86 117
55 86 119
55 87 117
54 85 115
55 86 118
54 86 118
54 86 117
55 87 122
55 87 119
54 85 119
54 86 116
54 86 117
55 87 119
55 87 119
55 87 120
55 86 119
55 87 119
55 87 121
54 86 115
55 87 118
55 87 119
55 87 121
56 88 121
55 87 119
54 85 113
54 86 118
55 87 119
55 87 123
55 86 120
55 86 118
56 88 123
54 86 116
55 87 117
54 86 116
54 86 118
55 87 121
55 86 120
55 86 118
54 85 117
55 86 119
54 86 116
55 86 117
55 86 121
55 87 121
55 86 116
55 86 118
54 85 117
55 86 116
53 84 113
55 86 119
54 85 116
54 86 118
53 84 115
53 84 114
54 84 115
53 83 112
53 83 111
52 82 114
53 84 113
53 83 112
53 83 112
52 81 110
52 81 108
52 81 111
52 81 106
52 81 107
52 80 106
51 78 102
50 78 101
50 78 99
49 75 95
49 75 91
48 73 91
45 69 82
41 62 70
156 179 20
169 193 0
139 151 32
91 87 34
71 70 24
64 63 20
59 59 15
55 56 15
50 51 14
51 52 14
49 51 18
52 53 16
57 59 17
58 60 21
54 57 22
56 59 25
57 60 23
60 63 24
63 65 26
67 68 24
69 71 28
72 74 29
80 80 31
84 83 31
90 89 36
89 88 37
94 91 38
101 99 40
100 98 39
106 103 43
109 106 46
108 105 44
115 111 48
116 113 48
115 110 47
117 112 46
118 114 48
123 118 48
126 121 53
127 121 50
125 119 50
128 123 52
130 124 52
133 127 54
134 127 53
135 129 54
137 130 56
139 132 56
143 136 58
143 136 57
145 138 62
144 137 59
147 139 60
144 137 56
147 139 61
148 140 59
149 141 59
148 140 60
150 142 62
152 144 60
153 144 62
153 145 63
152 144 61
156 148 65
154 146 64
156 147 64
153 145 59
154 146 62
156 147 63
156 147 63
156 147 65
153 145 58
156 148 62
157 148 64
155 147 61
159 150 66
158 149 64
157 149 64
159 150 66
156 147 64
158 150 65
160 151 67
156 148 63
156 148 64
159 150 66
157 148 63
158 149 66
159 150 65
158 149 66
157 149 64
157 149 64
158 150 66
157 149 64
159 151 67
161 151 69
160 151 67
160 151 65
159 150 67
160 151 68
158 149 65
158 149 65
157 149 64
160 151 68
160 151 68
159 151 66
161 152 68
158 149 64
160 151 69
162 153 70
160 151 67
160 151 66
161 153 70
161 152 68
162 153 69
161 152 69
163 154 70
161 153 68
160 151 67
159 150 65
160 151 68
160 151 67
162 153 68
159 151 68
160 151 69
162 153 69
161 152 68
162 153 70
160 151 68
162 153 71
159 150 66
159 150 68
161 152 71
158 149 66
159 150 69
159 151 69
159 150 70
158 149 69
161 152 72
159 150 69
158 149 68
158 149 68
158 149 70
158 149 70
157 148 68
159 150 70
158 150 69
158 149 68
159 150 72
155 147 66
154 146 67
165 183 114
165 183 113
164 183 113
165 183 114
164 183 111
164 182 111
163 181 108
163 182 106
164 182 108
161 181 96
162 181 103
162 181 102
161 180 100
160 179 93
160 179 90
160 179 88
158 178 81
158 178 84
158 177 82
158 177 78
158 178 77
157 177 76
157 176 78
157 177 76
156 176 70
156 176 71
154 175 60
155 176 68
156 176 66
154 174 54
153 174 51
155 176 56
154 175 53
152 173 44
152 173 43
152 173 38
152 173 42
153 173 44
151 172 36
151 172 26
151 172 28
151 172 24
151 172 25
151 172 17
150 172 14
151 172 12
150 171 0
150 171 10
150 171 7
151 172 0
150 171 0
151 172 0
150 171 0
150 171 0
150 171 0
151 172 0
149 170 0
149 170 0
150 171 0
150 171 0
150 171 0
150 171 0
150 171 0
149 170 0
149 170 0
150 171 0
149 170 0
150 171 0
149 170 0
149 170 0
148 169 0
149 170 0
148 169 0
149 170 0
149 170 0
149 170 0
148 169 0
148 169 0
147 168 0
148 170 0
147 167 0
147 168 0
146 167 0
147 168 0
146 167 0
147 168 0
146 167 0
146 167 0
146 167 0
145 166 0
145 166 0
146 166 0
145 165 0
144 164 0
145 165 0
144 164 0
144 164 0
142 161 0
142 162 0
142 162 0
142 161 0
138 158 0
139 159 0
138 157 0
137 156 0
136 155 0
137 155 0
133 151 0
132 149 0
130 148 0
131 148 0
128 145 0
129 144 5
121 137 17
115 130 27
112 128 36
107 123 41
102 118 46
91 107 54
84 101 59
75 93 66
67 87 66
60 81 71
54 75 72
45 69 76
42 67 77
41 65 69
40 64 72
40 64 70
40 63 73
39 62 70
38 60 68
38 61 63
37 59 63
35 57 58
35 56 56
34 55 56
32 52 51
32 52 50
31 50 41
30 49 39
38 55 37
71 87 35
95 112 31
124 143 45
153 172 84
153 171 109
161 183 48
168 192 0
169 193 3
66 89 79
47 74 94
48 77 99
50 80 107
50 80 102
50 80 105
51 81 106
51 82 107
51 81 107
51 81 105
53 84 114
52 83 109
53 84 113
53 84 112
52 82 109
53 84 114
53 84 114
53 84 113
53 84 114
54 85 118
53 84 111
54 85 117
54 86 117
54 86 116
55 86 117
54 86 115
54 86 115
54 86 115
55 86 117
54 85 113
54 86 117
55 86 118
55 87 119
54 86 117
54 85 116
55 87 119
55 87 119
54 86 118
54 86 117
55 87 119
54 85 115
54 86 117
55 87 117
55 87 118
54 86 117
55 86 120
55 87 118
56 88 122
55 87 119
55 87 120
55 87 118
54 86 117
55 88 122
55 87 117
55 87 119
55 87 119
55 87 120
55 87 118
55 86 115
55 86 119
55 87 118
54 86 119
55 87 120
54 85 118
55 87 119
55 87 119
54 86 118
54 85 113
53 84 112
55 86 120
55 86 117
54 85 118
54 85 118
54 85 114
55 86 118
54 85 115
54 85 114
53 83 114
53 84 113
53 83 111
52 83 110
53 84 117
53 83 113
53 83 112
52 82 109
52 81 107
53 82 108
52 81 104
52 81 107
51 80 103
51 79 105
51 79 102
50 78 101
51 78 101
50 78 101
48 74 94
48 74 91
48 72 87
45 68 79
63 82 65
168 192 0
170 193 0
158 178 19
91 87 39
78 76 29
70 69 23
62 61 17
60 60 18
56 56 13
56 57 14
55 56 15
52 54 16
55 57 18
56 58 19
55 57 23
61 63 22
60 62 24
64 65 22
63 65 24
69 69 25
72 73 25
78 79 28
77 78 28
84 83 30
90 89 33
92 90 33
97 94 37
102 99 39
100 98 39
105 102 42
107 104 42
109 106 41
113 109 47
113 109 43
116 112 46
120 115 46
122 117 49
122 117 50
126 121 51
125 121 48
130 125 52
129 123 51
132 127 52
130 125 51
134 127 53
136 130 54
140 133 57
136 129 52
138 132 53
142 135 57
144 137 57
147 139 60
144 137 54
147 140 58
148 141 58
148 140 59
149 141 62
149 142 56
150 142 59
152 144 60
151 143 58
152 144 60
149 142 58
152 144 62
156 147 63
151 144 57
153 144 61
155 146 61
156 147 61
155 147 64
156 148 63
155 147 62
157 149 63
156 147 61
156 148 64
156 147 62
155 147 62
156 148 63
158 149 65
156 147 64
157 149 64
158 150 65
156 148 62
158 149 62
158 149 65
156 148 63
158 150 65
158 149 65
157 149 64
158 150 63
160 151 66
158 149 64
158 149 64
157 149 64
159 150 67
159 150 65
161 152 68
157 148 63
158 150 65
156 148 62
159 150 66
160 151 66
158 150 62
159 150 65
160 151 67
160 151 68
159 150 66
159 150 66
160 151 66
159 150 66
158 149 65
161 152 69
160 150 66
158 150 64
160 151 67
162 153 69
160 152 67
161 153 68
159 151 65
161 152 69
160 152 66
160 151 67
158 150 63
160 151 67
159 151 66
160 152 70
158 150 67
161 152 67
161 153 68
159 151 69
160 151 69
160 151 69
161 152 69
158 150 68
159 150 67
159 150 69
159 151 69
156 148 67
160 151 70
155 147 65
158 149 68
157 148 68
158 150 68
156 147 67
155 146 66
156 147 69
157 148 71
156 147 68
156 148 67
156 147 67
163 182 105
164 182 111
163 181 106
161 180 98
161 180 101
161 180 96
160 179 90
160 179 88
158 178 85
159 179 87
158 178 83
157 177 76
157 177 78
156 176 72
156 176 70
156 176 70
157 176 74
155 175 60
155 176 59
154 175 57
154 175 54
154 174 54
154 175 55
154 174 53
153 174 39
153 173 41
153 173 44
152 173 38
152 173 34
152 173 36
152 173 33
152 172 30
151 172 27
151 172 21
151 172 16
151 172 14
151 172 7
151 172 10
150 171 0
151 172 0
151 172 0
150 171 0
150 171 0
151 172 0
150 171 0
150 171 0
151 172 0
151 172 0
150 171 0
150 171 0
150 171 0
151 172 0
151 172 0
150 171 0
149 170 0
150 171 0
149 170 0
149 170 0
150 171 0
149 170 0
150 171 0
149 170 0
149 170 0
149 170 0
149 170 0
150 171 0
149 170 0
149 170 0
149 170 0
148 169 0
148 169 0
148 168 0
148 168 0
147 168 0
147 168 0
147 168 0
147 168 0
148 169 0
147 168 0
148 168 0
147 167 0
147 168 0
147 168 0
147 168 0
146 167 0
145 166 0
145 165 0
146 166 0
146 167 0
146 166 0
145 166 0
143 163 0
144 165 0
144 165 0
144 164 0
143 163 0
142 162 0
142 163 0
140 160 0
140 159 0
140 160 0
138 158 0
139 158 0
137 156 0
136 155 0
135 153 0
134 152 0
134 151 0
130 149 0
132 150 0
128 146 0
126 143 0
124 141 0
123 138 3
114 130 21
112 128 34
105 122 40
97 114 43
91 108 46
84 101 56
78 96 58
71 89 65
63 83 69
57 78 68
50 72 69
45 67 71
41 65 72
40 63 69
40 63 68
39 62 63
39 62 67
38 61 65
37 59 59
36 58 59
36 58 60
34 55 51
34 54 49
32 53 49
31 50 42
31 50 38
39 57 37
64 80 32
87 103 28
110 128 29
136 156 43
154 174 78
148 165 99
169 192 7
169 193 0
169 193 0
109 130 67
46 74 94
47 75 94
49 78 98
50 79 103
51 81 107
51 81 107
51 80 104
52 82 108
51 82 107
53 84 114
53 83 111
53 84 111
52 83 111
53 84 112
53 84 112
53 84 114
53 84 115
53 84 114
53 84 112
53 84 113
53 84 114
54 86 119
54 86 117
53 84 113
54 86 117
54 85 116
53 85 115
54 85 116
54 85 114
54 86 117
54 85 117
54 85 114
54 86 117
54 86 114
54 85 114
55 87 118
54 86 117
55 86 118
55 86 119
55 87 121
55 86 120
54 86 116
55 86 119
54 86 116
56 88 122
55 87 117
55 87 122
55 87 119
54 85 113
54 86 117
54 85 119
54 86 117
55 86 117
55 87 121
55 87 120
55 86 118
56 88 122
55 87 123
55 87 118
54 85 115
54 86 117
55 86 118
55 86 117
55 86 118
54 85 119
55 86 115
55 87 119
54 85 112
55 86 116
54 86 117
54 85 114
54 85 116
54 84 113
53 84 115
54 86 119
54 85 115
54 85 118
54 85 116
53 84 110
53 83 111
52 82 108
53 82 109
52 81 105
53 83 111
51 80 105
51 80 105
51 80 104
51 80 104
51 78 99
50 78 97
52 80 105
50 77 99
50 77 98
50 77 96
48 74 92
46 71 83
46 70 83
43 65 72
108 127 51
169 192 0
169 193 0
169 193 0
108 108 39
81 78 28
75 73 24
62 61 18
58 59 15
63 61 17
59 60 14
57 57 14
59 59 13
58 59 18
59 60 18
55 56 17
61 63 20
60 62 22
63 64 23
68 68 22
71 72 25
70 72 24
75 75 26
81 81 30
83 83 29
85 85 32
93 91 34
97 95 36
95 93 36
99 96 34
99 97 38
103 99 40
111 107 42
112 108 42
110 107 42
117 113 44
120 115 45
115 110 43
116 112 42
122 117 45
125 120 47
127 122 47
125 121 49
132 127 51
132 126 49
133 128 49
134 128 50
135 129 51
139 133 55
137 130 52
138 132 51
140 133 53
140 133 54
145 138 56
143 136 54
148 141 60
147 140 56
147 139 58
149 141 58
151 143 59
151 143 57
151 143 59
151 143 58
151 143 57
152 143 59
151 143 57
154 146 61
152 144 60
151 143 59
154 147 59
155 147 62
155 146 61
154 146 61
153 145 58
156 147 61
156 147 62
157 149 62
156 147 61
155 147 60
155 146 61
156 147 61
156 147 61
156 147 63
155 147 61
156 148 61
155 146 60
157 149 64
158 149 63
157 148 64
158 150 65
157 149 63
157 148 62
157 148 64
159 151 63
158 150 63
157 148 64
157 148 63
160 151 66
156 148 61
156 147 62
157 148 62
158 150 64
159 150 64
157 149 62
156 148 62
160 151 67
159 151 66
156 148 63
159 150 66
159 150 65
160 152 65
160 151 65
160 152 66
160 151 66
160 152 67
159 150 64
158 150 64
158 149 62
161 152 69
160 151 67
161 152 69
159 150 66
161 152 67
159 150 66
162 153 69
159 150 66
159 150 65
158 149 64
160 152 67
160 151 69
161 152 68
159 150 67
159 150 67
161 152 69
159 150 68
157 148 66
156 147 64
158 149 67
158 149 67
158 149 70
156 147 68
157 148 69
155 147 66
157 147 67
155 147 65
157 148 69
155 146 65
158 149 67
156 148 66
153 145 66
154 145 66
160 179 93
160 179 89
158 178 81
157 177 82
159 178 81
157 177 75
157 177 75
157 177 71
157 177 72
156 176 66
155 176 66
154 174 55
155 175 60
154 175 53
153 174 55
153 174 47
154 175 50
152 173 45
152 173 45
153 173 38
151 172 34
152 173 36
151 172 36
152 173 26
152 172 27
151 172 22
151 173 12
150 171 12
150 171 0
150 171 0
151 172 0
151 172 0
150 171 0
150 172 0
151 172 0
151 172 0
150 171 0
150 171 0
150 171 0
150 171 0
150 171 0
149 170 0
150 171 0
150 171 0
149 170 0
150 171 0
150 171 0
149 170 0
149 171 0
149 171 0
150 171 0
150 172 0
149 171 0
149 170 0
149 170 0
149 170 0
149 170 0
149 171 0
149 170 0
149 170 0
149 170 0
149 170 0
149 170 0
149 170 0
149 170 0
149 170 0
149 169 0
149 170 0
148 169 0
148 169 0
148 169 0
148 168 0
146 167 0
147 168 0
147 168 0
146 167 0
148 168 0
147 168 0
146 167 0
147 168 0
146 166 0
146 166 0
145 166 0
145 166 0
145 165 0
146 167 0
145 166 0
145 166 0
144 165 0
146 167 0
144 164 0
143 163 0
141 161 0
142 163 0
142 162 0
140 160 0
139 159 0
138 158 0
139 159 0
140 159 0
138 158 0
139 158 0
137 156 0
135 154 0
134 153 0
132 151 0
130 149 0
132 151 0
128 146 0
128 146 0
124 142 0
123 140 0
124 141 0
120 137 5
115 131 17
110 126 25
107 123 31
99 115 39
97 114 43
89 105 45
82 99 53
72 90 58
64 83 61
62 82 65
52 73 61
45 67 63
42 64 65
39 63 65
39 63 66
38 60 58
37 59 64
37 60 60
37 59 59
36 57 57
34 55 49
33 54 46
33 54 45
33 53 46
34 53 39
43 61 40
59 76 31
84 101 27
101 118 25
127 146 24
146 167 40
150 170 75
155 174 73
170 193 0
170 194 0
169 192 0
141 164 42
44 70 83
48 76 97
49 78 100
49 77 100
51 80 103
51 80 104
51 81 105
51 81 106
52 82 105
52 82 108
53 83 112
53 83 109
52 83 109
53 84 109
53 83 111
53 83 112
53 84 113
53 84 110
53 84 111
53 84 115
53 85 114
53 84 110
54 85 111
53 84 111
54 85 117
54 85 113
54 85 115
53 84 113
54 86 115
53 85 114
55 86 116
54 85 112
54 85 118
54 86 117
54 86 117
54 86 114
55 87 119
54 86 113
55 87 115
54 86 115
55 88 121
55 86 118
55 86 116
54 86 114
54 85 113
54 86 117
54 85 114
53 85 109
55 87 119
55 87 116
55 86 116
54 86 115
54 85 114
54 86 117
55 87 120
53 85 114
54 86 115
54 85 113
55 86 117
55 87 117
55 86 116
54 86 114
54 86 116
54 85 113
54 86 117
53 84 115
53 84 115
53 84 111
54 86 115
54 85 116
53 84 113
54 85 114
53 83 113
54 84 114
53 84 110
53 83 108
53 83 111
52 82 107
52 82 105
52 81 108
53 83 111
52 82 109
53 82 109
53 82 107
53 82 109
52 81 107
51 80 102
51 80 100
52 80 104
51 79 101
51 79 103
49 77 96
49 76 94
49 75 91
48 74 94
48 73 91
45 69 79
42 63 72
138 159 38
169 193 0
169 193 0
168 192 0
139 152 32
87 84 34
78 76 26
74 72 24
59 59 17
60 59 13
59 59 14
62 62 16
60 61 14
55 56 15
61 62 18
59 61 19
63 63 19
61 63 23
64 65 22
65 66 22
71 72 22
74 74 23
74 75 23
78 77 26
83 83 28
86 85 31
94 91 32
91 89 31
95 93 32
102 99 34
102 99 36
102 99 35
110 106 37
109 105 40
111 107 40
115 111 41
116 112 44
117 113 43
120 115 46
122 117 44
124 119 47
124 119 46
129 123 47
129 123 49
130 125 49
133 127 51
134 128 50
137 131 52
134 129 50
137 130 52
140 133 53
140 133 52
141 134 53
142 135 52
140 133 52
146 138 57
146 138 53
144 136 55
146 138 55
148 140 57
150 141 57
149 140 56
150 143 56
150 142 56
149 141 56
151 142 56
152 144 57
151 142 58
152 144 59
150 141 54
153 144 58
154 145 61
155 146 61
153 145 59
154 146 59
157 149 63
154 145 58
154 146 57
155 146 60
155 146 59
156 147 60
153 144 57
157 149 61
157 149 63
156 148 60
154 146 58
155 147 60
157 148 62
157 148 64
155 147 60
157 148 62
156 148 59
155 147 60
157 148 62
157 149 63
157 150 62
158 149 64
156 148 59
155 147 61
157 149 62
159 150 65
156 148 62
158 149 64
157 148 63
158 150 63
158 150 64
159 150 65
159 151 66
160 151 65
157 148 63
158 149 63
158 150 64
158 149 63
158 149 65
160 151 66
159 150 65
158 149 65
159 150 66
159 151 65
158 149 63
158 150 64
161 152 69
162 152 69
159 151 66
160 151 67
159 150 66
159 150 65
159 150 68
160 151 68
157 149 64
159 151 66
159 150 65
159 150 68
158 150 68
159 150 67
158 150 68
159 151 66
158 150 68
158 149 66
154 145 64
156 148 67
156 147 65
154 145 64
155 147 66
155 146 65
154 146 63
156 147 68
155 146 67
153 144 64
152 144 65
154 146 66
156 176 74
157 177 69
156 176 70
156 176 65
154 175 55
155 175 63
155 175 61
153 174 51
153 174 52
153 173 48
154 175 49
153 174 45
152 173 42
152 173 34
152 173 30
151 172 25
152 173 28
151 172 20
151 172 7
151 172 7
151 172 12
151 172 0
150 171 0
150 172 0
150 172 0
150 172 0
151 172 0
151 172 0
150 171 0
150 171 0
150 172 0
151 172 0
150 171 0
151 172 0
150 172 0
151 172 0
150 171 0
150 171 0
150 171 0
150 171 0
150 171 0
149 170 0
150 172 0
150 172 0
149 171 0
150 171 0
149 170 0
149 170 0
150 171 0
149 170 0
150 171 0
150 171 0
150 171 0
149 170 0
149 170 0
149 170 0
149 170 0
149 170 0
148 169 0
148 170 0
148 169 0
148 169 0
149 170 0
149 170 0
148 169 0
148 169 0
148 169 0
148 169 0
147 168 0
147 168 0
147 167 0
147 168 0
148 169 0
148 169 0
147 168 0
147 168 0
147 168 0
146 167 0
146 166 0
145 166 0
146 167 0
144 165 0
145 166 0
145 166 0
145 166 0
144 165 0
143 164 0
144 165 0
144 164 0
142 163 0
143 164 0
141 161 0
142 162 0
140 161 0
142 162 0
141 161 0
141 161 0
138 158 0
139 158 0
139 159 0
135 154 0
136 155 0
134 153 0
134 153 0
133 153 0
133 152 0
129 148 0
128 146 0
129 147 0
126 145 0
125 143 0
123 141 0
119 136 0
117 134 0
118 135 11
111 127 20
106 123 25
99 115 38
97 113 38
88 105 38
84 101 50
74 92 54
65 82 53
63 82 57
51 70 58
54 74 61
43 65 62
41 63 60
41 63 59
38 60 60
37 59 59
36 58 56
36 58 53
35 56 50
34 55 50
34 54 46
33 53 41
38 57 40
49 66 33
62 78 32
80 96 33
97 114 26
114 133 21
137 157 12
146 166 35
144 162 76
164 186 33
169 193 0
169 192 0
169 193 0
165 189 14
54 78 82
45 72 88
48 77 100
49 78 100
50 79 99
50 79 101
52 82 107
50 79 100
52 82 109
52 82 106
52 82 107
52 83 107
52 82 108
52 83 110
53 83 110
53 83 107
53 83 109
53 84 111
54 85 117
53 84 110
53 84 113
54 85 113
53 83 109
53 84 114
53 84 114
54 86 116
54 85 113
54 85 113
55 86 116
54 85 113
54 85 113
53 85 110
53 84 114
54 86 115
54 85 117
55 87 117
54 86 113
54 85 116
55 86 116
54 86 115
54 86 114
55 86 118
55 87 117
55 86 117
55 86 119
55 86 115
54 86 115
54 86 115
54 86 116
55 87 117
54 85 111
55 87 117
55 86 118
54 86 116
55 86 117
54 86 116
54 86 115
55 86 119
55 86 116
53 84 112
54 85 112
53 84 112
54 85 113
54 86 117
54 85 114
54 85 111
53 84 112
54 85 111
53 84 112
54 85 113
54 84 113
53 84 110
54 85 116
53 84 112
54 84 113
53 84 113
53 84 114
52 82 106
52 82 112
53 83 111
52 82 107
52 82 104
52 82 105
52 81 107
51 79 102
52 80 105
51 80 104
51 80 105
50 78 99
51 78 101
50 78 101
49 76 98
49 76 95
48 74 91
48 74 92
46 70 81
44 67 77
52 72 64
165 188 12
169 193 0
169 193 0
169 193 0
160 181 17
98 95 38
81 78 27
75 72 27
69 68 23
62 63 16
61 61 16
59 58 14
60 60 14
59 60 15
59 59 15
62 63 17
61 62 18
64 66 20
63 64 21
70 70 20
71 72 22
72 72 23
75 75 21
84 83 23
83 83 27
85 84 28
91 90 27
92 90 32
98 95 31
97 94 32
105 102 38
105 102 36
109 105 38
105 103 35
112 109 41
115 110 38
114 110 40
117 113 44
120 115 41
122 118 43
122 117 44
124 119 45
129 123 49
129 123 45
129 123 45
128 123 47
129 124 47
132 127 49
133 128 47
136 129 48
137 130 49
139 133 50
142 135 52
140 134 50
140 134 51
143 136 52
144 137 53
143 136 51
145 137 50
149 141 55
147 140 54
151 142 59
151 142 56
148 140 54
148 140 54
149 141 54
150 142 56
152 144 57
154 145 59
152 144 57
151 142 56
152 144 58
153 145 57
151 143 56
152 144 55
154 145 58
152 144 56
152 144 56
154 146 59
154 145 60
153 145 55
156 148 60
155 147 62
153 145 55
154 145 58
155 146 61
152 144 57
156 148 60
156 147 60
156 148 60
154 145 59
155 147 60
156 147 60
155 147 60
158 149 62
156 148 60
154 146 59
156 148 62
157 148 63
157 148 62
155 146 61
156 148 61
157 148 61
156 148 61
156 147 60
157 149 63
156 147 62
155 146 60
159 150 64
158 150 63
157 148 62
158 149 63
160 151 65
158 150 64
157 149 62
157 148 64
156 147 61
159 150 64
156 148 63
157 148 62
158 150 65
158 149 62
158 149 65
158 150 63
160 152 65
158 150 63
161 151 67
159 151 67
160 151 66
159 150 66
159 151 65
156 147 63
156 147 63
157 148 63
155 146 62
156 148 64
157 148 65
157 149 67
158 149 65
157 149 68
157 148 68
153 144 63
156 148 65
155 146 66
155 147 65
157 148 68
154 146 65
153 144 64
154 145 65
155 146 66
152 143 63
154 175 58
154 175 54
153 174 44
152 173 38
153 174 46
153 174 42
153 173 42
152 173 35
153 174 34
151 172 28
151 172 22
151 172 7
151 172 10
151 173 7
151 172 0
150 172 0
151 172 0
151 172 0
151 172 0
150 172 0
150 171 0
151 172 0
151 172 0
150 171 0
151 172 0
150 171 0
150 172 0
150 171 0
151 172 0
150 171 0
151 172 0
150 171 0
150 171 0
150 172 0
150 171 0
151 172 0
149 170 0
150 171 0
150 171 0
150 172 0
150 171 0
150 171 0
149 170 0
150 172 0
149 170 0
149 171 0
149 170 0
150 171 0
149 170 0
150 171 0
149 170 0
149 170 0
148 169 0
148 170 0
149 170 0
149 170 0
148 169 0
148 169 0
148 169 0
148 169 0
148 169 0
147 168 0
147 168 0
148 169 0
147 168 0
148 169 0
147 168 0
149 170 0
148 169 0
147 168 0
148 169 0
146 166 0
145 166 0
147 168 0
146 167 0
146 167 0
146 167 0
146 166 0
144 165 0
146 167 0
146 167 0
143 164 0
144 165 0
145 165 0
145 165 0
144 164 0
143 164 0
145 165 0
142 163 0
143 163 0
143 163 0
142 163 0
141 161 0
139 159 0
139 159 0
140 160 0
138 158 0
139 159 0
136 156 0
137 157 0
134 154 0
136 155 0
134 153 0
133 152 0
133 152 0
131 150 0
130 149 0
127 146 0
123 141 0
126 144 0
123 141 0
121 139 0
119 137 0
118 135 0
113 130 0
114 131 10
104 121 23
100 117 28
93 109 37
89 106 36
84 100 40
76 92 44
72 88 47
64 81 48
57 75 51
51 70 54
49 68 53
47 67 56
43 63 55
40 61 52
37 59 53
36 57 46
38 59 52
37 58 48
38 59 45
39 58 42
44 63 35
50 67 36
61 78 34
80 96 27
91 108 28
112 131 22
130 150 12
141 162 0
144 165 22
147 166 74
169 193 0
169 193 0
169 193 0
169 193 0
168 192 0
98 118 61
45 72 85
47 75 93
49 78 98
50 79 98
50 79 101
51 80 102
51 81 104
51 81 103
52 82 106
52 82 109
52 82 105
52 82 106
52 83 105
53 84 110
53 83 108
53 84 113
53 83 109
53 84 112
54 86 116
54 85 116
52 83 106
54 85 113
53 84 112
54 85 114
53 85 113
53 85 115
54 85 113
54 86 117
54 85 111
54 86 118
54 85 115
54 85 116
53 84 112
54 85 115
54 85 114
54 85 112
54 85 108
54 86 113
54 85 114
55 86 116
55 87 115
54 85 112
55 86 119
54 85 114
55 86 117
54 86 115
54 86 115
55 86 116
54 85 110
54 85 112
55 86 118
54 86 114
54 86 114
54 86 118
54 85 113
55 87 117
54 85 112
53 84 113
54 85 110
53 84 114
54 85 112
54 85 115
55 86 116
54 86 114
53 84 112
54 85 118
53 84 112
53 84 110
54 86 117
53 84 111
53 84 111
53 83 112
54 84 115
53 83 112
52 81 105
53 83 109
52 82 106
53 83 109
51 81 105
52 81 108
52 81 105
51 80 106
52 82 108
51 80 102
51 80 105
51 80 105
51 79 98
51 79 99
51 78 100
49 76 94
50 77 96
49 75 92
49 75 92
48 73 87
46 71 84
44 66 72
97 116 53
169 193 0
169 192 0
170 193 0
169 193 0
168 192 0
123 128 36
93 89 35
81 79 26
71 69 21
65 64 16
65 64 14
63 63 16
60 59 14
62 63 15
61 61 16
61 63 17
63 63 15
67 67 19
67 68 19
68 68 18
71 71 21
77 76 21
76 76 22
79 78 23
82 81 25
87 86 27
91 90 30
90 87 29
97 95 32
97 94 32
102 99 33
104 100 37
104 100 36
108 105 36
109 106 35
113 108 39
115 111 40
116 112 38
119 114 41
121 116 41
122 117 42
123 119 41
125 120 43
126 120 44
125 119 44
129 123 44
131 126 47
130 124 44
135 129 45
136 130 48
135 128 46
138 131 47
141 134 51
140 133 46
142 135 51
141 134 49
142 135 49
146 139 50
143 136 49
145 138 52
146 138 50
146 139 51
149 141 54
149 141 53
149 141 52
150 143 56
149 142 52
149 140 52
151 143 57
152 144 56
152 144 56
152 144 56
151 143 55
149 142 53
152 144 55
151 143 55
150 142 54
153 144 57
154 145 58
153 145 57
154 146 57
155 147 61
152 143 56
155 146 59
151 143 53
154 146 57
155 147 60
153 145 57
156 147 58
156 147 59
156 147 61
153 145 57
156 147 58
154 146 57
155 146 60
155 147 60
154 146 58
156 147 61
157 148 61
155 147 61
155 147 58
156 147 61
157 149 59
156 147 61
157 148 61
156 147 63
159 150 62
157 149 60
158 149 62
157 148 62
156 147 58
157 149 61
159 150 64
155 147 60
158 150 62
159 150 65
159 151 63
158 150 62
159 150 64
157 148 62
157 149 62
159 150 65
157 148 64
159 150 65
158 149 65
157 148 64
161 152 68
157 149 64
156 147 62
158 149 63
158 149 67
156 147 63
157 148 64
157 149 67
155 147 63
158 150 67
157 148 66
157 148 68
156 147 64
156 148 65
156 147 65
155 147 65
154 145 64
155 146 65
156 148 67
154 146 65
153 144 65
152 143 63
153 144 64
153 144 63
155 146 66
152 173 33
152 173 34
152 173 32
152 173 26
151 172 25
152 173 20
151 172 12
151 172 7
151 172 7
151 172 0
150 172 0
150 171 0
150 171 0
151 172 0
150 172 0
150 172 0
150 171 0
150 172 0
150 172 0
151 172 0
150 171 0
150 171 0
151 172 0
150 171 0
150 172 0
150 171 0
150 172 0
150 171 0
150 172 0
150 171 0
150 171 0
150 172 0
149 170 0
150 171 0
149 170 0
150 171 0
149 171 0
149 170 0
149 171 0
149 170 0
150 171 0
149 170 0
150 171 0
150 171 0
149 170 0
148 169 0
149 170 0
149 170 0
149 170 0
149 170 0
149 170 0
149 170 0
148 169 0
149 170 0
148 169 0
148 169 0
148 169 0
148 169 0
148 169 0
148 169 0
147 168 0
147 168 0
148 169 0
148 169 0
147 167 0
146 167 0
147 168 0
147 168 0
147 168 0
147 168 0
147 167 0
146 167 0
144 165 0
146 167 0
145 166 0
146 167 0
146 166 0
145 166 0
144 165 0
144 164 0
143 164 0
143 163 0
144 165 0
143 163 0
144 164 0
143 163 0
142 163 0
142 162 0
142 162 0
141 161 0
141 162 0
140 160 0
140 161 0
140 160 0
140 161 0
139 159 0
138 157 0
138 158 0
137 157 0
137 156 0
136 155 0
135 154 0
132 151 0
132 151 0
131 150 0
129 149 0
127 146 0
125 144 0
126 144 0
123 141 0
120 138 0
120 138 0
118 135 0
117 134 0
113 130 0
109 126 0
108 124 11
99 115 21
94 110 32
90 106 30
85 101 36
76 92 36
75 91 41
66 83 44
62 79 45
54 72 49
50 68 44
47 65 50
50 68 47
46 65 48
43 61 45
42 61 46
45 64 45
41 59 41
45 62 33
49 66 38
58 74 32
66 83 31
77 93 24
89 106 22
107 126 19
122 141 19
138 159 8
142 162 0
141 161 36
158 180 43
168 192 0
169 193 0
169 192 0
169 193 0
169 193 0
141 163 37
44 71 79
48 76 93
49 77 98
48 77 92
50 80 103
50 80 103
52 82 107
52 82 107
51 81 104
51 81 106
51 81 105
53 83 110
52 82 106
53 83 106
52 82 106
52 83 111
52 82 109
52 83 103
53 84 109
53 84 112
53 84 111
52 82 108
54 85 111
53 84 111
53 84 110
52 83 108
53 83 110
53 85 114
55 87 117
54 85 112
54 86 112
53 84 112
54 85 114
54 85 114
54 85 111
54 85 113
54 85 112
54 85 114
54 85 113
54 85 112
55 86 115
55 86 117
55 87 118
54 85 113
54 85 116
55 86 115
54 86 115
54 85 109
54 85 115
55 86 115
54 85 114
54 85 112
53 84 110
54 86 114
54 85 114
54 86 113
54 86 116
54 85 111
54 85 113
53 84 110
54 85 114
54 85 112
54 85 114
53 83 109
54 85 114
53 83 109
53 84 106
54 84 113
54 85 114
53 84 111
53 84 112
53 84 113
54 85 112
53 83 110
53 83 107
53 83 111
52 82 106
52 82 107
52 82 106
52 81 107
52 81 106
52 81 107
51 80 106
52 81 101
51 79 101
52 80 104
51 79 101
50 77 96
50 78 96
48 75 92
48 74 91
48 74 90
48 74 91
47 71 85
45 69 78
43 66 74
140 161 32
169 192 0
169 193 0
169 193 0
168 192 0
169 193 0
151 169 23
98 93 36
86 83 29
74 73 22
71 69 20
67 66 18
70 69 13
65 64 16
66 66 14
63 63 16
61 61 14
63 64 16
66 66 19
68 67 17
72 72 20
75 75 20
74 74 20
74 74 21
79 78 21
81 80 22
82 81 24
90 89 24
90 89 28
94 92 29
97 95 28
101 98 30
105 101 33
104 101 31
106 102 34
113 109 36
113 108 33
112 107 37
114 110 37
119 114 39
117 113 34
120 115 37
121 116 38
125 120 41
128 122 42
128 122 44
127 121 43
129 124 42
130 125 44
131 126 42
135 129 45
136 129 44
136 130 46
139 132 49
138 131 46
141 134 48
141 134 47
142 135 48
145 137 50
143 136 48
145 138 51
144 137 45
145 138 47
145 137 49
149 141 53
150 143 53
149 141 54
149 142 52
150 141 53
150 142 52
148 141 52
150 141 54
151 143 53
150 142 54
151 143 54
149 142 51
152 143 53
152 143 56
152 144 54
152 144 55
152 143 57
152 144 54
152 143 55
154 146 56
151 144 54
153 145 56
153 144 57
153 145 55
155 147 57
155 146 59
154 146 55
154 145 56
153 146 56
155 146 57
153 146 55
153 145 56
157 148 60
155 147 58
156 147 60
153 144 54
155 146 58
155 146 55
155 147 58
153 144 55
154 147 59
157 148 60
154 146 57
155 146 57
156 147 59
156 148 59
157 149 62
156 148 60
156 148 58
157 148 61
156 148 60
158 149 61
157 149 61
156 147 62
157 148 63
157 148 60
159 150 62
158 149 63
158 150 63
158 150 65
156 147 61
159 151 66
157 148 62
156 147 59
158 149 64
157 148 63
157 148 63
157 148 64
157 149 63
157 149 63
155 146 62
158 149 65
158 149 66
155 146 63
153 145 60
154 145 62
156 148 64
155 146 64
154 145 62
154 145 62
154 146 64
153 144 63
154 146 63
155 147 63
154 145 63
153 144 64
153 145 64
150 142 62
151 172 17
150 171 7
150 172 7
150 172 0
151 172 0
151 172 0
150 171 0
152 173 0
150 171 0
150 171 0
151 172 0
150 171 0
151 172 0
151 172 0
150 172 0
151 172 0
150 172 0
150 171 0
150 172 0
150 171 0
150 172 0
150 171 0
149 171 0
150 171 0
150 171 0
149 170 0
150 171 0
150 171 0
151 172 0
149 171 0
150 171 0
150 171 0
150 171 0
151 172 0
149 170 0
150 171 0
149 170 0
149 170 0
150 171 0
149 170 0
149 171 0
149 170 0
149 170 0
149 170 0
148 170 0
149 170 0
148 170 0
148 169 0
148 169 0
149 170 0
148 169 0
149 170 0
149 170 0
149 170 0
148 169 0
149 170 0
147 168 0
147 168 0
147 168 0
147 167 0
147 168 0
147 168 0
148 169 0
146 167 0
148 169 0
146 167 0
146 166 0
145 166 0
147 167 0
146 167 0
146 167 0
144 165 0
145 165 0
145 166 0
145 166 0
144 165 0
145 166 0
144 165 0
144 165 0
145 165 0
143 163 0
144 164 0
142 163 0
143 163 0
142 163 0
140 160 0
142 163 0
142 162 0
140 161 0
142 163 0
139 159 0
139 159 0
140 161 0
137 157 0
140 160 0
139 159 0
138 158 0
136 156 0
135 155 0
135 155 0
134 154 0
132 152 0
133 152 0
133 153 0
128 148 0
126 144 0
127 146 0
122 141 0
122 140 0
123 141 0
119 137 0
120 138 0
116 134 0
116 134 0
111 127 0
106 123 0
105 121 7
100 116 15
97 113 23
91 107 28
89 105 36
84 99 34
75 91 36
69 85 41
63 79 40
63 79 43
58 75 41
54 72 43
51 68 35
50 67 44
46 63 43
46 63 36
47 64 37
49 66 29
53 70 34
60 76 29
66 82 25
75 92 23
93 110 22
103 121 20
118 136 14
132 152 0
138 159 0
143 164 0
141 160 52
168 192 0
170 194 0
168 192 0
168 192 0
169 193 0
169 193 0
167 191 8
64 87 71
46 73 87
49 77 94
49 77 97
49 77 96
51 80 98
49 78 97
51 80 101
50 80 103
50 80 99
52 82 105
52 82 107
52 82 107
52 82 105
52 82 106
52 82 106
53 84 107
52 82 108
53 83 109
53 84 110
54 85 112
53 84 114
54 85 112
53 83 107
54 85 115
53 84 108
54 85 112
54 85 112
52 83 105
54 85 113
54 85 111
54 85 111
54 85 113
54 85 111
53 85 111
54 85 114
54 85 112
54 85 114
54 85 113
53 84 111
54 85 110
54 85 114
54 86 114
54 85 111
54 84 116
54 86 116
54 85 112
53 84 114
54 86 114
54 85 112
54 85 107
54 85 111
54 86 113
55 86 116
55 86 113
54 85 114
55 86 119
53 84 112
54 85 110
54 85 113
54 85 113
54 86 113
54 85 110
53 84 110
54 85 111
53 84 110
53 83 109
53 84 111
53 84 112
54 84 112
53 84 114
53 83 110
53 84 112
53 83 109
53 84 110
52 82 107
51 81 105
51 80 103
52 82 110
52 81 107
52 81 102
51 80 102
51 80 100
51 80 102
51 80 98
51 80 99
50 78 99
49 76 95
49 76 91
49 75 92
48 74 89
49 75 89
46 71 81
46 71 80
45 68 78
62 81 64
167 190 12
169 193 0
169 192 0
168 192 0
169 192 0
169 193 0
168 191 0
114 115 39
92 89 34
81 79 25
76 74 20
70 69 19
70 69 17
66 65 15
65 64 15
67 66 12
64 62 14
64 64 17
72 71 16
72 71 18
68 69 18
70 68 19
73 73 19
75 75 19
79 79 21
83 82 22
86 85 23
89 87 28
93 91 25
99 96 25
94 92 27
102 99 28
100 98 28
103 100 29
105 102 33
107 104 31
109 106 34
111 107 35
115 111 35
116 111 36
116 112 33
119 115 37
121 116 39
124 119 39
123 117 39
123 118 36
128 122 41
129 124 40
129 123 39
134 128 42
133 127 42
135 129 43
135 128 45
134 128 42
138 131 44
138 132 43
139 132 46
139 132 45
141 134 45
142 136 46
142 135 45
144 137 47
146 139 49
144 137 47
146 138 50
145 137 47
145 138 50
146 138 49
146 138 49
149 141 50
148 140 51
148 141 49
149 141 52
149 141 51
148 140 52
148 140 52
151 142 52
152 143 52
150 142 51
150 142 51
150 142 52
151 143 53
151 143 54
150 142 52
152 143 55
152 144 55
151 143 55
151 144 52
153 145 56
152 144 54
152 144 55
153 145 57
154 146 56
152 144 56
155 147 56
153 144 55
153 145 57
155 147 58
153 145 55
155 147 58
153 145 55
154 145 58
153 145 57
155 147 58
154 146 56
155 147 58
154 147 56
155 146 57
156 147 60
156 147 60
155 146 59
155 146 58
155 146 58
154 146 60
155 147 59
156 147 59
155 147 59
157 148 61
157 148 59
159 149 63
156 148 60
159 149 64
159 150 64
157 148 61
157 148 62
158 149 62
157 148 62
154 146 60
157 148 64
157 148 63
156 147 63
155 147 60
156 147 63
156 148 64
158 149 65
156 148 63
156 147 64
155 146 64
155 146 61
156 147 63
151 143 59
156 147 65
152 144 61
153 145 61
152 143 60
152 144 62
152 143 61
153 144 63
153 144 63
152 143 61
153 145 63
153 145 63
151 172 0
151 172 0
150 172 0
151 172 0
151 172 0
150 171 0
150 171 0
150 171 0
150 172 0
150 171 0
151 172 0
150 172 0
151 172 0
151 172 0
150 171 0
151 172 0
150 171 0
150 171 0
151 172 0
150 171 0
150 171 0
150 171 0
149 170 0
150 171 0
150 171 0
150 171 0
150 171 0
149 171 0
150 171 0
150 171 0
150 171 0
149 171 0
149 170 0
150 171 0
149 170 0
149 170 0
149 170 0
149 170 0
149 170 0
148 169 0
150 171 0
148 169 0
148 169 0
147 168 0
148 169 0
148 169 0
148 169 0
148 169 0
147 168 0
148 169 0
148 169 0
148 169 0
148 170 0
147 168 0
147 168 0
147 168 0
148 169 0
147 168 0
147 168 0
147 168 0
146 167 0
147 168 0
146 167 0
146 167 0
146 167 0
147 167 0
145 166 0
145 166 0
146 167 0
145 166 0
143 164 0
145 165 0
145 165 0
144 165 0
145 166 0
144 165 0
143 164 0
144 165 0
142 162 0
141 162 0
143 164 0
143 164 0
143 163 0
143 163 0
141 161 0
142 162 0
141 161 0
141 162 0
139 159 0
139 160 0
139 160 0
140 160 0
139 159 0
138 158 0
138 158 0
136 157 0
136 156 0
135 155 0
134 154 0
132 152 0
133 153 0
132 152 0
129 148 0
129 149 0
129 147 0
126 145 0
124 143 0
125 144 0
122 141 0
119 138 0
119 137 0
116 133 0
113 131 0
114 131 0
112 129 0
110 126 0
105 121 0
102 118 5
97 113 17
94 109 12
92 107 26
83 99 23
79 94 28
76 91 31
68 83 35
66 82 38
61 77 39
61 76 38
55 71 36
53 69 33
51 67 33
53 69 36
54 71 33
57 72 29
63 78 26
73 89 25
80 96 26
87 104 18
100 118 14
113 132 15
129 149 4
133 153 0
139 160 0
136 156 14
154 175 39
168 192 0
168 192 0
169 192 0
169 193 0
169 193 0
169 193 0
168 192 0
115 136 55
45 72 81
47 74 89
48 76 88
48 76 90
50 79 97
51 80 102
51 80 100
52 81 105
52 82 105
51 81 101
51 81 104
51 82 103
51 81 104
52 82 107
53 83 107
51 81 102
52 83 105
53 84 111
53 83 107
53 84 108
52 82 104
53 84 108
53 84 109
53 84 107
53 84 111
53 84 110
52 83 104
52 83 109
54 85 115
53 84 110
53 84 108
54 85 111
54 85 110
53 84 109
53 84 113
54 85 114
53 84 108
54 85 114
54 86 118
54 86 114
54 85 112
53 85 110
53 84 111
54 86 114
55 86 113
54 85 113
53 84 110
53 84 109
54 85 114
54 85 114
53 84 111
53 84 113
54 85 112
53 84 111
54 85 113
54 85 112
54 85 111
53 84 110
54 86 112
53 84 110
53 84 112
53 84 108
53 84 110
53 84 111
52 83 106
53 84 110
53 83 109
52 82 108
52 82 110
53 83 108
53 84 110
53 83 110
52 82 108
52 82 105
52 82 108
52 81 106
51 80 100
52 82 104
52 82 108
50 79 98
51 79 99
51 80 102
51 79 100
51 80 103
50 78 95
50 77 97
50 77 94
50 77 95
49 75 94
49 75 89
47 72 87
47 72 85
44 68 77
44 67 72
118 138 44
167 191 0
169 192 0
168 192 0
169 192 0
168 191 0
168 192 0
168 192 0
147 163 27
98 93 36
87 84 29
79 77 21
75 73 20
69 68 18
71 69 14
70 68 16
68 66 17
69 68 14
70 69 16
70 69 16
68 68 16
67 67 16
72 72 16
74 73 17
75 74 18
79 77 20
83 82 22
84 82 21
91 89 21
90 87 21
92 90 23
94 92 26
98 95 27
102 99 24
102 99 25
104 102 29
107 104 30
108 105 31
112 107 29
114 110 32
113 108 31
116 111 33
119 115 35
119 115 38
123 119 35
121 117 36
125 119 35
125 121 35
128 122 37
128 123 37
129 123 37
132 126 38
134 128 43
134 128 41
135 130 40
137 130 41
138 131 43
139 132 41
138 131 41
142 135 46
140 133 43
141 134 43
142 135 44
140 133 43
140 134 43
146 138 47
145 138 46
145 137 45
146 138 47
146 139 48
145 138 46
148 140 47
149 141 50
148 140 49
148 140 52
149 140 49
149 141 50
150 142 51
150 142 49
148 141 49
150 141 51
148 140 49
151 143 51
150 142 52
150 142 52
151 143 51
150 142 52
148 140 48
152 144 54
151 143 51
153 145 52
149 142 49
149 142 49
153 144 54
151 143 53
156 149 57
153 145 56
152 144 53
151 143 53
154 146 56
150 142 51
152 143 55
154 146 55
153 145 55
153 145 55
151 144 52
154 146 55
154 146 55
156 147 59
156 147 59
154 145 55
155 146 59
153 145 57
155 147 59
156 147 59
155 147 58
154 146 55
157 148 58
158 150 59
155 146 59
155 146 59
158 149 60
157 148 61
155 146 59
156 147 61
158 150 61
156 147 58
156 147 60
157 148 61
155 147 60
157 148 63
156 148 61
155 146 61
157 148 63
154 145 59
157 148 64
152 144 60
155 147 62
156 147 63
153 144 62
153 145 61
154 145 62
153 145 62
153 145 60
151 143 62
153 145 60
151 143 61
150 141 61
152 143 62
152 143 61
153 145 62
153 145 62
151 143 63
150 171 0
150 171 0
151 172 0
150 172 0
150 172 0
151 172 0
151 172 0
150 171 0
151 172 0
150 171 0
150 171 0
150 172 0
150 171 0
149 170 0
150 171 0
149 170 0
151 172 0
150 171 0
149 170 0
150 171 0
150 171 0
150 171 0
150 171 0
149 170 0
149 170 0
150 171 0
150 171 0
149 171 0
149 170 0
149 170 0
149 171 0
149 170 0
149 170 0
149 170 0
149 170 0
149 170 0
148 169 0
149 170 0
149 170 0
149 170 0
148 170 0
148 169 0
148 169 0
148 170 0
149 170 0
148 169 0
148 169 0
148 169 0
148 169 0
148 169 0
148 169 0
148 169 0
148 169 0
148 169 0
148 169 0
148 169 0
147 168 0
146 167 0
146 167 0
146 167 0
146 167 0
146 167 0
147 168 0
147 168 0
145 166 0
145 166 0
145 166 0
144 165 0
146 167 0
145 166 0
144 165 0
144 165 0
145 166 0
144 164 0
144 164 0
145 165 0
144 165 0
144 164 0
143 164 0
142 163 0
143 164 0
140 160 0
142 163 0
143 164 0
141 162 0
141 161 0
140 160 0
140 160 0
139 159 0
138 157 0
140 160 0
137 157 0
138 158 0
135 155 0
136 156 0
135 155 0
135 155 0
134 154 0
133 153 0
132 151 0
131 150 0
129 149 0
129 149 0
126 145 0
127 146 0
125 144 0
125 144 0
122 141 0
121 140 0
120 138 0
117 135 0
117 135 0
115 133 0
113 131 0
113 130 0
109 126 0
105 121 0
99 115 0
93 108 5
95 110 17
89 104 17
84 99 20
79 94 24
77 92 28
76 91 28
71 86 30
62 77 31
60 75 30
61 75 30
61 75 30
57 72 29
58 73 30
64 78 23
71 86 23
77 93 24
77 93 24
92 109 23
98 115 12
110 128 15
122 141 0
129 149 0
134 154 0
140 160 0
138 157 33
168 192 0
169 192 0
167 191 0
168 192 0
168 192 0
168 191 0
168 192 0
168 192 0
158 182 24
49 74 73
47 75 87
48 76 88
48 77 92
50 79 102
50 79 96
51 81 101
50 79 97
52 82 106
51 81 102
51 81 105
51 81 100
51 81 105
52 83 105
52 82 108
51 82 101
52 83 107
52 82 106
53 83 107
52 83 107
53 83 110
53 84 109
52 82 106
53 84 108
52 83 107
52 83 106
52 83 107
52 83 109
53 84 111
54 84 112
53 84 109
54 85 114
53 84 110
53 84 108
54 85 113
53 84 109
54 86 114
53 84 110
54 85 111
54 85 110
53 83 105
54 85 111
53 84 112
53 84 110
53 84 111
53 85 110
54 85 110
54 85 113
53 84 110
53 84 108
53 84 106
53 84 109
54 85 112
54 85 114
54 84 111
54 85 113
54 85 114
53 84 110
53 84 109
54 85 113
53 84 108
53 84 112
53 84 110
53 84 108
53 84 112
53 84 109
53 84 110
52 83 109
53 83 110
53 83 109
52 83 104
53 83 112
53 83 109
52 82 107
53 83 112
52 81 103
52 82 106
52 81 100
52 81 104
51 80 103
51 80 103
50 79 97
51 80 100
50 77 95
50 77 96
50 78 95
49 76 92
50 77 94
47 73 88
48 74 86
47 73 86
47 72 84
44 67 75
47 67 65
158 180 19
168 192 0
167 190 0
167 191 0
167 191 0
168 192 0
168 191 0
168 191 0
168 191 6
114 115 38
94 90 32
84 81 24
80 78 23
78 75 22
73 71 19
71 69 14
66 65 14
69 68 13
68 67 15
69 68 15
69 68 14
69 69 17
72 71 17
76 74 15
77 76 16
80 79 18
88 85 18
85 84 19
88 86 21
89 87 21
90 87 21
94 91 23
101 97 25
100 97 23
101 98 24
106 102 25
105 102 28
111 107 28
112 109 28
115 110 32
114 110 30
117 113 32
117 112 31
118 113 32
121 116 34
121 116 33
122 118 35
126 120 36
124 119 35
125 121 31
127 121 36
128 122 35
130 124 35
132 126 37
137 130 40
132 125 38
137 130 39
137 131 39
137 130 42
138 131 38
141 134 41
140 134 42
142 136 41
142 135 39
142 135 42
143 136 43
144 137 43
143 136 43
145 138 42
143 136 42
146 138 46
145 138 44
147 139 46
147 139 47
149 141 49
148 140 47
146 138 46
147 140 47
149 142 49
149 141 47
149 142 49
149 141 47
149 142 50
149 141 49
149 141 49
148 141 48
150 142 50
150 143 52
149 142 50
150 142 52
152 144 53
152 144 51
152 144 52
151 144 52
151 143 51
151 144 51
151 143 54
153 145 55
151 143 52
153 145 54
153 146 54
152 145 53
152 144 53
153 144 55
155 146 58
153 145 51
151 143 54
152 145 52
155 147 57
153 145 54
155 146 58
154 146 56
153 144 56
156 147 57
153 145 57
155 147 56
152 144 55
157 149 59
154 145 55
158 149 60
154 146 56
155 147 57
157 148 60
156 148 60
155 146 57
157 149 62
156 147 58
155 147 59
155 147 61
155 146 62
155 146 60
155 147 58
156 148 63
155 146 62
155 147 60
156 147 62
154 146 58
155 146 60
154 145 60
155 147 63
153 144 61
153 145 60
151 143 58
150 141 56
153 145 61
153 144 62
152 143 61
153 144 61
152 143 62
152 144 59
150 142 59
150 141 61
149 141 62
150 171 0
151 172 0
151 172 0
150 171 0
151 172 0
150 171 0
150 171 0
150 171 0
151 172 0
150 171 0
150 171 0
150 171 0
150 171 0
150 171 0
150 171 0
150 171 0
150 171 0
150 171 0
150 171 0
150 171 0
149 170 0
149 170 0
149 170 0
149 170 0
149 170 0
149 170 0
150 171 0
150 171 0
149 170 0
150 171 0
149 170 0
149 170 0
148 169 0
148 170 0
150 171 0
149 170 0
149 170 0
148 169 0
148 169 0
149 170 0
148 169 0
148 169 0
148 169 0
149 170 0
147 168 0
147 168 0
147 168 0
147 168 0
146 167 0
147 168 0
147 168 0
147 168 0
147 168 0
147 167 0
147 167 0
145 166 0
146 167 0
146 167 0
146 167 0
145 166 0
147 168 0
146 167 0
147 168 0
146 166 0
145 165 0
144 165 0
145 166 0
144 165 0
146 167 0
144 165 0
143 163 0
143 164 0
145 166 0
143 164 0
144 164 0
143 163 0
143 164 0
142 163 0
141 161 0
141 161 0
141 161 0
143 163 0
141 161 0
141 162 0
141 161 0
140 160 0
140 160 0
140 160 0
139 159 0
137 157 0
137 157 0
140 160 0
136 155 0
136 156 0
135 155 0
136 156 0
134 154 0
133 153 0
132 152 0
131 151 0
130 149 0
130 150 0
129 148 0
127 146 0
129 148 0
125 144 0
122 140 0
122 140 0
120 139 0
119 138 0
117 135 0
115 133 0
116 134 0
114 131 0
112 129 0
106 123 0
106 123 0
103 119 0
99 115 0
97 113 0
94 109 8
92 107 7
86 101 19
80 94 20
77 91 21
75 89 20
68 82 25
70 84 22
65 79 27
66 80 27
68 82 23
70 84 17
74 88 21
77 92 20
83 98 16
90 106 19
96 113 13
108 125 8
119 138 0
124 143 0
130 150 0
138 158 0
135 154 0
155 177 19
168 192 0
168 191 0
168 192 0
167 191 0
168 191 0
167 191 0
167 190 0
167 191 0
168 192 0
103 124 56
46 73 78
47 74 86
48 76 90
49 77 96
49 78 96
49 78 95
50 79 96
51 80 100
50 80 100
50 80 99
52 82 104
51 81 101
51 80 99
50 80 99
52 82 106
52 83 107
52 83 108
52 83 107
53 84 111
53 84 109
52 82 107
53 84 112
52 83 108
52 83 106
53 83 104
53 84 110
53 84 109
53 83 105
54 86 114
53 84 108
53 83 107
53 85 110
54 85 113
53 83 108
53 84 109
53 84 110
54 85 112
54 85 112
54 86 111
54 85 108
53 84 105
53 83 106
53 84 107
53 84 110
54 85 112
54 85 112
54 85 112
53 84 108
54 85 108
53 85 110
53 83 106
54 85 109
53 84 107
53 83 110
53 83 106
53 84 108
53 84 109
53 84 111
54 85 111
53 84 110
54 85 110
53 84 108
53 83 108
53 83 107
54 84 108
53 84 109
53 83 109
53 83 103
52 83 107
53 83 110
52 82 109
52 82 108
52 82 104
51 81 105
52 81 105
52 82 104
52 81 101
51 80 101
51 80 102
51 80 99
51 80 102
51 80 101
50 79 95
49 76 93
50 77 95
49 76 92
48 74 88
48 74 89
48 73 89
46 71 85
46 71 83
43 66 71
103 122 55
166 190 0
167 191 0
167 190 0
167 191 0
167 190 0
167 190 0
167 190 0
167 191 0
167 191 0
150 166 25
99 94 38
92 88 31
84 81 22
79 77 21
74 72 19
75 73 18
70 69 15
72 70 15
73 72 15
76 74 13
72 71 15
72 71 13
75 74 15
75 74 15
79 77 17
80 78 17
82 80 15
84 81 16
86 83 16
89 87 17
92 90 20
92 90 20
99 97 24
100 97 23
105 102 23
105 101 23
107 103 23
108 105 27
106 102 26
112 107 28
112 108 24
113 109 28
118 113 28
116 111 28
120 115 30
121 117 31
121 116 29
121 117 28
123 118 30
123 118 32
127 122 32
127 121 34
131 125 37
131 126 38
131 125 33
134 128 36
133 127 34
134 128 35
138 131 39
136 130 35
138 132 36
138 131 39
140 133 40
141 134 38
141 133 40
141 134 43
143 136 40
141 134 41
143 136 42
144 137 42
145 138 43
144 137 44
142 135 42
147 140 45
145 138 42
144 137 41
144 137 43
147 139 46
147 139 46
146 139 44
147 139 47
150 141 48
147 139 44
145 138 43
147 140 45
147 139 46
148 140 46
147 140 48
149 141 47
150 143 49
150 142 50
152 144 51
149 141 47
150 142 49
152 144 52
149 142 48
150 142 48
151 143 52
151 142 51
149 141 48
151 144 53
150 143 51
152 143 52
149 142 48
152 143 52
152 144 52
151 143 53
150 142 50
153 145 52
153 145 54
154 146 53
153 145 53
152 144 54
153 144 55
156 148 57
154 146 57
155 146 55
156 147 57
156 147 58
155 146 56
156 147 56
156 147 59
155 146 56
155 147 58
155 147 58
156 147 60
153 145 57
154 145 59
156 148 60
155 147 61
155 146 60
155 146 60
154 145 58
153 145 58
155 147 60
152 144 58
153 144 57
153 144 60
150 142 57
152 143 60
153 144 62
152 143 58
150 142 58
151 143 60
150 142 57
152 144 59
151 142 59
151 142 60
151 143 60
148 140 57
148 140 59
146 138 56
150 142 59
150 171 0
150 172 0
150 171 0
150 171 0
151 172 0
150 171 0
150 171 0
151 172 0
150 171 0
150 171 0
150 171 0
151 172 0
151 172 0
150 171 0
150 171 0
150 171 0
149 170 0
150 172 0
149 171 0
150 171 0
150 171 0
149 170 0
149 170 0
150 171 0
149 171 0
149 170 0
148 170 0
149 170 0
149 170 0
149 170 0
148 170 0
149 170 0
148 169 0
148 169 0
148 169 0
148 169 0
149 170 0
149 170 0
147 168 0
149 170 0
147 169 0
148 169 0
148 169 0
147 168 0
147 168 0
148 169 0
147 168 0
148 169 0
146 167 0
148 168 0
147 168 0
146 167 0
146 167 0
147 167 0
146 167 0
146 167 0
146 167 0
146 166 0
146 167 0
145 166 0
147 168 0
145 165 0
145 166 0
145 166 0
146 166 0
143 164 0
144 165 0
144 165 0
145 166 0
143 164 0
144 165 0
144 165 0
144 164 0
141 162 0
144 164 0
142 162 0
141 161 0
141 162 0
143 164 0
141 162 0
141 162 0
140 160 0
139 160 0
141 161 0
138 159 0
139 159 0
140 160 0
139 160 0
138 158 0
137 157 0
138 158 0
137 157 0
137 158 0
135 155 0
134 153 0
135 155 0
135 154 0
132 152 0
132 151 0
130 150 0
130 149 0
130 149 0
127 147 0
126 145 0
125 144 0
125 143 0
123 142 0
122 141 0
120 139 0
117 135 0
117 136 0
114 132 0
115 132 0
113 131 0
108 125 0
108 125 0
108 125 0
105 121 0
103 120 0
99 115 0
100 116 0
89 103 5
88 102 7
90 105 10
79 94 18
78 92 20
74 87 17
73 86 17
71 84 16
72 86 16
72 86 17
74 88 17
78 92 13
82 97 11
87 103 15
96 112 8
103 120 5
116 134 0
122 141 0
127 146 0
132 152 0
137 157 0
138 158 12
167 190 7
167 190 0
167 190 0
165 189 0
167 191 0
168 192 0
166 190 0
168 192 0
168 192 0
165 189 0
153 176 28
46 71 74
46 74 85
48 76 91
48 76 90
48 77 93
48 77 93
49 78 94
50 79 93
49 79 94
51 81 101
51 81 99
52 82 102
51 80 102
51 81 102
52 82 106
51 81 102
52 82 103
52 82 107
51 81 103
53 84 107
53 84 110
53 83 108
53 84 108
53 84 107
53 84 110
53 84 107
52 82 106
53 84 109
53 83 108
53 84 109
53 84 107
53 85 111
53 83 105
52 82 103
53 84 111
54 85 111
52 83 106
54 85 111
52 83 108
53 84 107
54 85 113
53 84 109
53 83 108
54 85 109
53 84 107
53 85 109
53 84 110
53 84 109
53 84 106
53 84 107
54 85 109
53 84 109
53 84 106
53 84 105
53 84 110
53 84 110
54 85 114
53 84 110
52 83 107
53 83 104
53 84 106
52 82 105
53 84 111
54 85 114
53 84 106
52 81 105
52 82 107
53 83 107
52 82 104
51 81 106
52 82 103
51 81 104
51 81 102
52 81 105
51 80 102
51 80 101
51 80 100
51 79 99
50 79 98
52 81 100
50 78 97
50 79 99
51 79 98
50 77 93
49 76 93
48 75 92
48 74 88
47 73 85
48 73 86
47 72 82
44 67 72
44 66 65
154 176 26
166 189 0
166 189 0
166 189 0
166 190 0
167 191 0
167 190 0
167 190 0
166 189 0
166 190 0
167 190 5
121 125 37
98 93 37
87 83 28
83 81 21
79 77 19
75 72 17
75 73 17
73 71 15
70 68 13
73 71 17
73 72 13
74 72 16
76 74 13
75 73 14
81 78 15
80 78 15
82 81 15
87 85 17
89 85 16
87 85 16
94 91 18
94 91 19
96 93 19
99 96 19
99 96 20
105 101 22
101 98 18
103 100 23
105 102 21
112 108 22
110 106 25
113 109 25
115 110 26
112 109 24
119 114 26
117 113 26
119 114 28
123 117 27
124 119 29
124 119 26
124 120 29
128 124 28
127 122 31
131 125 30
130 125 32
131 125 31
132 126 32
134 128 32
134 128 33
135 129 32
137 131 32
136 130 33
139 133 36
137 131 34
140 134 36
139 133 35
140 133 36
141 135 36
141 135 38
141 134 37
142 136 39
142 135 38
144 136 39
143 136 40
145 138 43
146 139 40
142 136 39
147 140 44
145 138 39
146 139 44
147 139 44
147 140 44
146 139 45
145 137 42
147 139 44
148 141 46
147 139 46
146 139 43
147 139 43
148 139 47
148 140 48
144 137 43
149 141 46
149 141 48
151 143 50
150 142 49
150 142 49
151 143 49
151 143 48
150 143 50
151 143 50
150 142 49
152 143 52
152 145 50
152 144 52
152 144 52
150 142 51
152 143 53
152 143 50
152 144 53
154 146 54
150 142 49
153 145 54
153 145 55
152 143 54
154 146 53
152 143 53
153 145 54
155 146 57
154 145 57
155 147 57
153 145 56
155 146 58
155 147 55
155 146 59
154 145 56
152 144 56
153 144 55
154 145 58
154 145 60
153 145 57
154 146 59
154 146 59
154 145 61
154 146 57
153 145 60
153 144 58
153 144 60
153 144 58
153 145 58
152 144 60
151 142 57
151 142 60
151 142 58
149 141 57
150 141 59
151 143 59
150 141 59
148 140 57
149 140 59
148 140 57
149 141 58
149 140 58
149 171 0
150 171 0
150 171 0
149 170 0
150 171 0
151 172 0
150 171 0
149 171 0
150 171 0
150 171 0
150 172 0
149 171 0
149 170 0
149 171 0
150 171 0
149 170 0
149 170 0
149 170 0
150 171 0
149 170 0
150 171 0
149 170 0
149 170 0
150 171 0
149 170 0
149 170 0
148 170 0
149 170 0
149 170 0
149 170 0
149 170 0
148 169 0
148 168 0
148 169 0
148 169 0
147 168 0
147 169 0
148 169 0
149 170 0
147 168 0
147 168 0
148 169 0
147 168 0
148 169 0
146 167 0
146 167 0
147 168 0
148 169 0
147 168 0
146 167 0
145 166 0
146 167 0
145 166 0
147 168 0
145 166 0
146 166 0
147 167 0
146 167 0
145 165 0
145 166 0
145 166 0
144 165 0
145 165 0
144 165 0
145 166 0
144 165 0
144 165 0
145 166 0
143 164 0
143 164 0
144 164 0
144 164 0
141 162 0
142 163 0
143 164 0
142 162 0
141 162 0
141 162 0
140 160 0
140 160 0
141 162 0
141 161 0
140 161 0
139 159 0
140 161 0
137 158 0
139 159 0
139 159 0
139 159 0
137 157 0
136 156 0
137 157 0
137 157 0
134 154 0
134 154 0
132 152 0
134 154 0
131 150 0
129 149 0
132 152 0
129 149 0
127 147 0
127 146 0
125 144 0
124 143 0
125 143 0
122 141 0
122 141 0
120 138 0
120 138 0
115 133 0
116 134 0
115 133 0
114 132 0
109 126 0
113 130 0
110 127 0
103 119 0
98 114 0
101 117 0
99 115 0
95 110 0
88 103 0
88 102 0
89 103 11
81 95 6
79 93 8
78 92 9
78 92 7
74 88 13
80 94 12
81 95 7
87 101 9
90 106 5
99 115 0
104 121 0
108 125 0
116 134 0
123 142 0
128 147 0
136 156 0
130 149 7
157 179 7
167 191 0
166 189 0
166 190 0
167 190 0
166 190 0
166 190 0
167 191 0
166 190 0
166 190 0
166 190 0
166 190 0
106 127 54
45 71 76
47 74 83
47 76 86
48 77 87
48 76 90
49 78 96
50 79 93
50 79 96
51 80 99
50 79 96
50 80 99
51 81 100
51 80 97
52 82 101
51 81 103
50 79 97
52 82 103
52 82 103
52 82 102
53 83 107
52 83 109
53 83 106
54 85 108
53 83 108
52 83 106
53 83 107
53 83 107
53 83 108
53 84 109
52 83 107
53 84 107
53 84 109
53 83 107
53 84 109
54 85 107
53 84 109
53 84 110
52 83 106
53 83 107
53 84 111
53 84 108
54 85 109
53 84 107
53 85 110
53 84 108
53 84 108
53 84 110
53 83 104
53 84 108
54 86 112
52 83 105
54 85 110
54 84 107
53 84 108
53 83 107
52 82 105
53 84 108
53 84 108
52 83 103
53 83 108
53 83 108
52 81 102
52 82 108
52 82 106
52 82 105
52 82 104
52 82 106
52 82 103
51 80 98
52 82 102
52 81 106
51 80 100
53 82 104
51 81 101
51 80 100
51 80 97
51 79 101
51 80 100
50 78 94
50 78 90
51 79 97
49 76 92
49 76 93
49 76 92
48 74 87
48 74 90
47 72 84
46 70 80
45 69 73
44 67 71
107 126 49
166 189 0
165 188 0
166 189 0
166 189 0
166 189 0
166 189 0
165 188 0
166 189 0
166 189 0
166 189 0
166 189 0
156 175 18
101 97 38
95 91 31
87 84 28
81 78 23
79 76 19
75 73 17
74 72 16
75 73 13
75 73 16
78 75 15
79 76 17
79 77 15
77 75 15
78 76 14
78 77 12
84 81 14
84 81 14
87 85 13
92 89 17
92 89 17
95 92 17
95 92 17
99 95 19
99 95 18
100 96 18
106 102 21
106 102 21
106 102 19
110 106 20
108 104 21
115 110 22
111 107 23
116 112 20
113 109 23
117 113 22
119 114 25
122 117 25
121 116 26
125 120 26
125 120 26
125 120 26
125 120 25
128 124 26
130 124 26
128 122 26
129 124 30
132 126 28
133 127 29
134 128 29
135 129 31
135 129 30
135 128 31
137 132 33
139 133 34
139 132 33
137 131 30
140 133 35
140 134 37
143 136 37
142 136 37
141 134 34
140 133 34
142 135 36
142 135 38
140 134 36
143 136 39
143 136 38
143 136 40
144 137 41
144 137 38
143 136 41
146 139 41
145 138 41
146 139 42
143 136 40
145 138 40
147 140 43
144 137 42
146 139 44
147 139 43
147 140 44
148 140 45
148 141 45
148 141 44
149 142 45
148 140 46
150 142 49
149 142 48
148 140 45
149 141 48
148 140 46
151 142 49
151 143 48
151 143 51
149 141 49
151 143 51
153 145 52
150 142 51
150 142 48
152 144 52
150 142 52
152 144 52
153 145 53
153 145 53
153 145 53
152 144 53
153 145 56
153 144 53
152 143 54
153 144 54
153 144 57
153 145 54
152 144 53
154 146 55
156 147 57
152 143 55
152 144 56
154 145 58
154 145 59
154 145 58
154 145 58
152 144 59
150 142 54
151 142 58
153 144 56
150 142 55
152 143 58
150 141 58
152 143 58
150 141 58
151 143 58
151 144 59
150 142 59
148 139 56
150 141 58
147 139 56
149 140 57
148 140 58
149 140 56
149 141 57
146 138 56
149 140 57
150 171 0
150 171 0
150 171 0
150 171 0
150 171 0
151 172 0
150 171 0
150 171 0
149 170 0
150 171 0
149 171 0
149 170 0
150 171 0
150 171 0
149 170 0
150 171 0
149 171 0
149 170 0
149 170 0
149 170 0
149 170 0
148 169 0
149 170 0
149 170 0
150 171 0
148 169 0
149 170 0
148 169 0
148 169 0
148 169 0
148 169 0
148 169 0
148 169 0
148 169 0
148 169 0
147 168 0
148 169 0
148 169 0
148 169 0
148 169 0
148 169 0
148 169 0
147 168 0
146 168 0
147 168 0
146 167 0
147 168 0
146 167 0
146 167 0
146 168 0
146 167 0
146 167 0
146 167 0
145 167 0
146 167 0
144 164 0
145 166 0
145 165 0
146 166 0
146 166 0
144 164 0
144 165 0
145 165 0
143 164 0
144 165 0
143 164 0
143 164 0
143 164 0
143 163 0
143 163 0
142 162 0
141 162 0
142 162 0
142 162 0
143 163 0
141 162 0
142 163 0
141 162 0
140 160 0
141 161 0
140 160 0
140 160 0
140 160 0
138 158 0
137 157 0
136 156 0
137 157 0
137 157 0
137 157 0
137 157 0
136 156 0
135 155 0
136 156 0
134 153 0
133 153 0
132 152 0
130 150 0
131 151 0
131 151 0
130 150 0
127 146 0
127 147 0
127 146 0
125 144 0
125 144 0
123 141 0
122 141 0
123 142 0
119 137 0
120 138 0
120 139 0
114 133 0
115 132 0
113 130 0
109 126 0
109 126 0
107 124 0
106 122 0
103 119 0
100 115 0
97 112 0
97 112 0
96 111 0
93 107 0
88 103 0
85 99 2
82 96 0
83 97 5
82 96 7
84 98 5
84 98 0
90 104 0
91 106 0
96 111 0
103 119 0
105 121 0
111 129 0
116 134 0
124 143 0
131 150 0
133 152 0
142 162 7
166 190 0
165 189 0
165 189 0
166 190 0
165 189 0
167 190 0
165 189 0
166 190 0
165 188 0
164 188 0
165 188 0
166 190 0
154 177 26
52 76 67
46 73 79
47 75 86
47 75 89
48 77 91
49 77 92
49 78 93
49 78 95
50 79 95
50 80 98
51 81 98
52 82 102
52 82 98
51 81 98
51 81 100
51 80 100
51 81 101
52 82 103
51 81 101
52 82 102
52 82 104
52 82 105
52 82 104
52 83 105
53 83 104
52 83 105
53 84 108
53 83 105
53 83 107
53 84 110
53 83 105
53 84 105
52 83 105
52 82 104
53 83 109
52 82 103
52 83 105
53 83 107
53 84 106
53 84 106
52 82 103
53 83 104
52 83 105
52 82 105
53 84 107
53 84 111
53 83 104
53 84 107
52 83 103
52 83 107
53 84 108
52 82 105
52 82 103
53 84 110
53 83 107
53 84 111
52 83 106
52 83 105
53 83 107
53 83 104
53 83 106
52 82 105
52 83 104
53 83 106
53 83 105
52 82 108
52 81 104
52 82 101
52 82 103
51 80 103
52 81 100
51 80 100
51 81 99
51 80 100
51 80 102
51 79 101
50 78 94
50 78 93
51 79 99
50 77 96
49 77 90
49 77 91
49 76 89
48 75 89
49 75 87
48 74 84
46 72 82
45 70 78
45 69 79
49 71 65
155 177 21
164 187 0
165 188 0
165 189 0
164 187 0
165 188 0
164 187 0
165 188 0
165 188 0
165 188 0
165 188 0
166 188 0
166 189 0
134 144 28
98 93 34
92 87 30
91 87 25
84 81 22
80 77 18
79 76 16
75 72 13
77 74 14
74 71 10
75 72 13
75 73 12
77 74 14
79 77 14
82 79 12
83 81 15
86 83 12
85 82 14
92 89 14
90 87 13
92 89 15
94 91 14
100 96 16
100 96 17
100 97 17
102 98 15
105 102 16
109 104 20
107 103 20
106 102 17
111 107 18
113 108 18
114 109 20
117 113 22
118 114 20
117 113 21
119 114 21
119 115 18
122 117 21
121 116 21
126 121 26
126 121 21
126 121 22
128 122 27
129 123 24
131 125 28
131 126 29
129 124 21
132 126 26
135 129 27
134 128 27
136 129 30
134 128 26
135 128 28
137 131 27
136 130 27
138 131 29
139 133 31
138 132 32
139 132 32
141 135 35
139 133 30
142 136 34
143 136 35
141 135 32
140 133 32
141 135 34
145 138 35
144 137 39
142 135 34
143 136 37
143 136 37
145 138 40
145 137 38
146 138 44
144 137 39
144 137 38
145 138 40
146 140 42
147 140 44
145 137 41
147 139 43
147 140 44
148 140 44
146 139 45
147 140 40
148 140 44
149 142 46
148 140 44
150 141 48
146 139 44
148 140 45
149 141 48
150 142 48
150 141 47
150 142 45
150 142 48
152 144 51
149 141 46
151 143 49
150 142 50
151 143 52
151 143 47
152 144 52
150 142 50
151 143 50
154 145 55
153 145 54
150 142 50
152 143 51
151 143 53
152 144 54
152 143 54
154 145 57
151 144 51
152 145 55
152 143 54
153 144 55
153 144 57
152 144 57
151 143 56
152 143 56
149 140 54
151 143 58
152 143 57
150 142 56
149 141 54
149 141 55
151 143 55
150 142 56
152 143 58
149 141 55
152 144 60
146 138 55
148 140 56
149 140 57
149 141 57
148 140 55
148 140 58
145 136 54
147 139 55
148 140 58
150 171 0
150 171 0
150 171 0
150 171 0
151 172 0
150 171 0
149 171 0
149 170 0
149 170 0
150 171 0
150 171 0
150 171 0
150 171 0
149 170 0
149 170 0
149 170 0
150 171 0
149 170 0
149 170 0
149 170 0
149 170 0
148 169 0
149 170 0
149 170 0
148 169 0
149 169 0
149 170 0
147 168 0
148 170 0
148 169 0
148 169 0
149 170 0
148 169 0
147 168 0
148 169 0
147 168 0
147 168 0
147 168 0
148 169 0
146 167 0
147 168 0
147 168 0
147 168 0
147 168 0
147 168 0
147 168 0
147 168 0
145 166 0
146 167 0
146 167 0
145 166 0
145 166 0
145 165 0
145 166 0
144 165 0
145 166 0
143 164 0
145 165 0
144 165 0
143 164 0
144 164 0
144 165 0
143 164 0
144 165 0
142 162 0
143 163 0
143 164 0
142 163 0
142 163 0
142 162 0
142 162 0
142 162 0
141 161 0
142 162 0
140 161 0
140 161 0
142 162 0
140 161 0
139 159 0
140 160 0
139 159 0
139 159 0
139 159 0
140 160 0
137 157 0
139 159 0
136 156 0
137 157 0
135 154 0
136 156 0
137 157 0
133 153 0
135 155 0
132 151 0
134 153 0
131 150 0
129 149 0
130 149 0
131 151 0
129 149 0
128 148 0
127 147 0
127 146 0
125 145 0
124 142 0
124 143 0
120 139 0
119 138 0
120 138 0
118 137 0
117 135 0
117 135 0
115 132 0
112 130 0
113 130 0
113 130 0
108 125 0
106 122 0
104 121 0
102 118 0
99 115 0
98 113 0
98 113 0
94 108 0
93 108 0
91 105 0
91 105 0
85 99 0
87 101 0
87 101 0
90 105 0
91 106 0
94 109 0
98 114 0
103 120 0
110 126 0
114 132 0
123 141 0
126 145 0
132 151 0
130 149 7
164 187 7
166 189 0
164 188 0
165 189 0
164 188 0
165 189 0
165 188 0
163 187 0
164 188 0
164 188 0
163 187 0
163 186 0
163 186 0
164 187 0
116 137 49
45 72 76
46 73 82
47 75 87
48 77 87
49 77 89
50 79 95
49 78 94
50 79 94
49 78 93
50 79 93
50 80 94
51 80 96
51 80 98
51 80 98
50 80 96
51 81 102
52 82 102
51 81 99
52 82 100
51 81 101
53 84 107
51 81 99
52 82 102
52 83 104
52 82 104
53 84 109
52 83 103
52 82 107
52 83 104
52 82 102
53 84 108
51 82 100
52 82 102
53 83 108
52 82 105
53 83 105
53 84 107
52 83 104
52 82 102
53 84 106
53 83 105
52 82 103
53 83 103
53 83 106
53 83 104
53 84 110
53 83 107
52 83 103
52 83 107
53 84 106
52 83 105
53 83 108
53 83 105
53 83 105
52 82 104
52 82 102
52 83 107
52 82 105
52 81 102
53 83 106
52 83 108
52 82 106
52 82 104
52 81 103
51 81 102
52 81 102
50 79 98
52 82 103
51 80 99
51 80 99
52 81 101
51 81 101
51 79 100
50 79 95
50 79 97
50 78 96
50 78 95
49 76 90
50 78 94
49 76 91
49 76 92
49 76 88
48 74 83
48 74 87
46 72 78
45 70 77
45 69 73
43 66 72
116 136 48
164 187 0
164 187 0
164 187 0
164 187 0
163 187 0
164 187 0
164 187 0
163 186 0
164 187 0
164 187 0
164 187 0
164 188 0
164 187 0
163 186 8
111 112 36
97 92 34
89 85 27
83 79 21
81 77 19
77 74 17
76 73 14
76 73 14
77 75 16
79 76 14
74 72 13
78 76 11
81 78 14
79 76 11
82 79 11
85 81 13
87 83 10
89 86 12
90 87 12
90 87 15
92 89 15
97 93 15
102 98 14
100 96 13
106 101 13
106 102 16
108 104 15
106 103 15
109 105 16
105 102 17
109 105 16
113 109 21
115 111 18
116 112 20
116 112 19
118 113 20
119 114 19
121 116 20
123 118 20
124 118 20
125 120 23
125 120 18
125 120 19
129 124 21
127 121 21
128 122 23
132 126 24
133 127 24
134 127 26
132 126 24
134 129 27
134 128 24
134 128 26
135 129 28
134 128 27
137 131 25
138 132 29
137 131 25
139 133 28
139 132 31
139 133 31
139 133 30
138 132 28
139 132 31
137 131 29
141 134 32
141 134 35
140 133 33
140 134 33
141 134 33
142 135 35
142 135 35
144 137 36
142 135 36
144 137 35
143 136 37
143 135 35
144 137 38
144 137 37
144 137 38
143 135 37
144 137 38
145 138 41
146 138 41
144 137 41
145 138 42
147 140 41
147 139 45
148 140 44
148 140 46
147 140 46
148 141 45
149 141 45
149 141 46
150 142 46
149 141 47
148 141 47
151 143 48
148 141 46
150 142 47
150 142 45
150 142 48
150 142 49
149 141 47
151 143 50
150 141 51
148 141 46
153 145 53
150 142 50
151 143 52
152 143 53
150 142 51
152 144 54
152 144 54
152 143 55
149 140 52
152 144 55
150 142 53
149 141 53
150 142 53
151 143 57
151 143 56
151 142 56
149 141 54
151 142 56
150 142 53
150 141 55
148 139 53
147 139 52
149 141 54
147 139 55
148 140 56
148 139 55
150 141 58
151 143 59
148 140 56
144 136 52
148 140 56
145 137 53
147 139 58
146 139 55
150 171 0
149 170 0
151 172 0
149 171 0
151 172 0
150 171 0
149 170 0
150 171 0
148 170 0
150 171 0
150 171 0
149 170 0
150 171 0
150 171 0
149 170 0
149 170 0
149 170 0
149 170 0
149 170 0
150 171 0
149 170 0
148 170 0
149 170 0
147 169 0
148 169 0
147 169 0
149 170 0
148 169 0
147 168 0
147 168 0
147 168 0
147 168 0
147 168 0
147 168 0
147 168 0
148 169 0
147 168 0
147 168 0
147 168 0
146 166 0
146 167 0
147 168 0
146 167 0
147 168 0
146 167 0
146 167 0
146 167 0
145 166 0
145 166 0
146 166 0
146 167 0
145 166 0
145 166 0
144 164 0
145 165 0
144 165 0
144 164 0
145 166 0
144 165 0
143 164 0
143 164 0
143 163 0
142 163 0
143 164 0
142 163 0
142 163 0
142 162 0
142 163 0
141 161 0
141 162 0
141 161 0
142 163 0
142 163 0
142 162 0
141 162 0
140 160 0
140 161 0
141 161 0
140 161 0
138 158 0
138 158 0
137 158 0
137 157 0
136 156 0
137 157 0
136 156 0
138 158 0
136 156 0
134 154 0
134 154 0
135 155 0
134 154 0
133 153 0
133 153 0
131 150 0
132 151 0
132 152 0
131 150 0
130 149 0
128 147 0
127 146 0
126 145 0
125 144 0
124 143 0
122 141 0
120 139 0
121 140 0
119 138 0
122 140 0
120 138 0
118 136 0
116 134 0
115 133 0
117 134 0
110 127 0
110 127 0
112 128 0
106 123 0
105 121 0
101 117 0
101 117 0
100 115 0
97 112 0
98 113 0
93 108 0
96 111 0
91 106 0
92 107 0
92 107 0
94 109 0
91 105 0
97 112 0
97 113 0
101 117 0
105 122 0
109 127 0
116 135 0
125 144 0
129 149 0
127 146 0
154 176 0
164 187 0
163 186 0
163 186 0
164 188 0
164 187 0
162 186 0
164 187 0
163 186 0
162 186 0
163 187 0
163 186 0
161 185 0
163 187 0
163 187 0
159 182 8
69 91 63
45 72 76
47 74 83
48 76 87
48 76 88
48 76 85
49 77 90
49 78 92
49 78 93
50 79 93
51 81 97
49 78 92
50 80 94
52 82 100
51 80 97
51 81 100
51 80 100
51 81 102
52 82 105
51 80 101
52 82 102
52 83 103
50 80 97
52 83 103
52 82 103
52 83 104
51 81 96
53 83 102
52 83 105
52 82 104
53 84 106
52 83 102
53 83 103
52 82 101
52 83 103
53 83 106
53 83 106
53 84 104
52 83 104
52 82 105
52 83 108
52 82 101
51 81 99
52 83 102
52 83 104
53 84 106
52 83 106
52 82 104
52 82 102
53 83 104
53 84 107
52 82 103
52 83 104
52 82 106
53 84 109
53 83 106
53 83 107
52 83 103
52 82 104
52 82 105
52 82 104
52 82 104
52 82 104
51 81 101
52 81 102
52 81 102
51 81 101
51 80 100
51 80 99
51 80 97
51 79 98
51 79 98
51 80 98
50 78 94
50 78 98
50 78 94
50 77 94
49 76 90
49 76 90
48 75 86
48 75 90
47 73 83
47 73 87
47 73 83
46 71 80
46 70 81
45 68 71
69 88 61
159 182 10
163 185 0
162 184 0
162 185 0
163 186 0
163 186 0
162 185 0
162 185 0
161 184 0
164 187 0
162 185 0
162 185 0
163 185 0
163 186 0
165 188 0
151 169 17
101 96 37
97 92 32
93 88 26
88 84 25
85 82 19
80 77 17
78 76 13
81 77 15
75 72 13
82 79 13
81 77 11
81 78 12
82 79 10
85 82 11
84 81 10
91 87 12
88 84 10
91 88 12
92 88 12
94 91 12
96 93 13
94 90 13
100 97 14
100 97 14
104 100 13
100 97 15
107 103 15
110 105 14
108 104 16
111 106 14
112 108 15
115 111 16
116 111 15
117 113 13
118 114 15
118 113 16
121 116 17
120 115 18
124 120 20
123 118 21
123 119 18
127 122 19
127 121 20
128 123 20
129 123 22
129 123 22
131 126 20
132 127 20
132 126 22
131 125 23
129 123 22
133 128 20
134 128 23
136 130 25
135 129 24
134 129 25
135 130 23
136 131 24
137 131 25
137 131 25
138 132 28
139 133 26
140 133 27
139 132 29
140 133 30
139 133 29
139 133 31
138 133 29
139 133 29
140 133 32
141 135 30
140 134 30
140 134 34
143 136 34
145 138 35
141 134 34
144 137 35
142 136 33
143 136 35
145 138 40
144 137 36
145 138 36
142 135 38
145 138 39
145 138 40
144 136 37
144 137 38
143 135 38
148 142 42
146 138 40
147 140 42
145 138 40
147 140 44
146 139 44
148 141 44
147 139 43
149 141 45
149 141 47
148 140 45
149 141 46
152 144 47
149 142 47
151 143 47
150 142 46
151 142 52
151 142 52
150 142 49
151 142 50
150 143 51
151 143 52
151 143 50
150 143 50
149 141 51
149 140 50
149 141 51
151 143 55
149 141 52
149 141 51
150 142 54
149 140 53
149 140 53
149 141 53
153 144 56
150 141 55
150 142 56
151 143 55
148 139 54
150 141 56
148 140 55
149 141 55
148 140 54
146 138 55
146 138 52
147 139 53
146 138 53
147 139 56
148 140 56
147 139 55
146 138 56
146 137 57
149 170 0
150 171 0
149 170 0
150 171 0
149 170 0
149 171 0
149 171 0
149 170 0
149 169 0
149 170 0
149 170 0
148 169 0
150 171 0
150 171 0
149 170 0
149 170 0
149 170 0
149 170 0
148 169 0
150 171 0
147 168 0
148 169 0
147 168 0
148 169 0
147 168 0
148 169 0
148 169 0
147 168 0
147 168 0
148 169 0
148 169 0
147 168 0
147 168 0
147 168 0
147 168 0
147 168 0
147 168 0
146 167 0
148 169 0
146 167 0
147 168 0
147 168 0
145 166 0
146 167 0
146 167 0
146 167 0
146 167 0
145 165 0
145 165 0
145 166 0
145 166 0
145 165 0
145 165 0
146 167 0
144 164 0
145 166 0
143 164 0
142 163 0
145 165 0
143 164 0
143 164 0
142 163 0
143 164 0
142 162 0
142 162 0
142 163 0
141 161 0
142 162 0
142 162 0
142 162 0
141 161 0
140 161 0
141 161 0
139 160 0
139 160 0
141 161 0
139 159 0
138 158 0
138 158 0
139 159 0
137 157 0
138 159 0
137 158 0
137 158 0
137 157 0
136 156 0
135 155 0
133 153 0
135 155 0
134 154 0
134 154 0
133 153 0
132 152 0
132 152 0
131 150 0
131 151 0
130 149 0
129 148 0
127 146 0
128 147 0
125 144 0
129 148 0
126 144 0
123 142 0
124 143 0
123 141 0
123 141 0
121 139 0
121 139 0
119 137 0
118 136 0
118 135 0
114 131 0
113 130 0
109 126 0
115 133 0
108 125 0
107 124 0
107 124 0
105 121 0
101 116 0
102 117 0
97 112 0
97 112 0
94 110 0
96 110 0
94 109 0
95 109 0
95 109 0
95 110 0
95 110 0
96 112 0
100 116 0
104 121 0
108 125 0
114 132 0
121 139 0
126 145 0
127 146 0
143 163 0
163 187 0
164 188 0
163 186 0
163 186 0
163 186 0
162 185 0
162 186 0
161 185 0
162 186 0
162 186 0
162 186 0
162 186 0
161 185 0
160 184 0
161 185 0
161 185 0
136 158 33
45 71 70
46 73 79
47 74 81
48 76 84
48 77 87
50 78 92
48 77 88
48 77 88
49 78 93
50 79 95
51 80 95
50 79 93
49 78 89
51 80 98
50 79 96
51 80 96
50 80 96
51 81 97
51 80 98
51 82 99
51 81 100
52 82 103
52 82 101
51 81 100
52 82 101
52 82 102
52 83 104
52 82 102
52 83 106
51 81 103
52 82 103
52 82 103
53 84 108
52 82 100
52 82 104
52 83 106
52 82 104
52 83 106
52 83 104
53 84 106
52 83 104
52 82 103
52 82 103
53 83 106
52 83 106
53 83 101
52 83 105
52 83 105
52 82 99
52 82 103
52 82 103
53 84 106
53 83 109
52 82 102
52 82 104
52 82 104
52 82 105
52 81 102
52 82 103
52 82 103
51 81 101
52 81 102
52 82 102
53 83 107
52 82 102
51 80 98
50 80 99
51 81 101
51 80 97
50 78 92
49 78 94
50 78 95
49 77 98
51 80 98
49 77 93
49 76 91
48 75 88
49 76 88
49 76 93
49 76 86
47 73 83
47 73 84
46 71 81
46 70 80
44 68 74
43 65 67
137 158 30
161 183 0
159 182 0
160 183 0
160 183 0
161 184 0
161 184 0
162 185 0
161 184 0
162 184 0
163 186 0
162 185 0
162 185 0
162 184 0
162 185 0
163 185 0
164 186 0
133 145 26
95 90 31
95 89 31
91 86 25
88 83 24
82 78 19
79 76 14
79 76 14
79 76 14
82 78 12
80 76 13
80 77 11
82 78 13
82 79 11
86 83 10
85 83 12
87 83 10
89 86 11
92 89 11
94 90 12
93 90 12
96 92 11
97 93 10
101 96 11
102 98 12
103 99 11
104 100 10
107 103 13
111 106 12
109 106 10
109 105 11
112 107 14
113 109 13
117 112 13
117 112 15
119 114 13
117 113 12
120 115 16
121 116 14
122 117 14
122 117 16
125 119 17
124 118 14
127 121 16
127 122 15
127 122 17
128 122 15
130 125 16
130 124 20
131 126 19
132 126 19
133 127 19
130 124 18
134 129 20
135 129 21
133 128 20
134 129 24
135 130 23
136 130 23
135 130 22
137 131 22
136 130 23
135 130 20
138 132 23
135 129 23
138 131 28
139 132 29
138 132 27
139 133 26
137 131 26
139 133 27
139 133 27
138 132 29
142 135 32
141 135 27
141 135 33
140 134 30
141 134 33
143 136 35
143 136 34
142 136 35
143 137 34
142 135 36
144 138 36
143 136 36
145 138 38
144 136 38
146 139 41
145 138 39
144 137 39
147 140 44
148 140 43
146 138 42
145 137 42
146 138 41
146 139 40
148 141 44
146 139 42
148 140 44
148 140 43
149 142 48
149 141 45
148 140 46
150 142 47
148 140 45
150 143 50
147 139 45
151 143 51
149 141 47
149 141 49
149 141 51
149 141 51
149 141 50
148 140 49
149 141 51
150 142 52
150 142 51
149 141 51
149 141 52
149 140 53
148 140 53
149 140 54
148 140 53
149 140 52
147 138 52
147 139 51
150 142 54
150 142 55
146 138 52
147 139 56
149 140 52
148 140 56
147 138 55
143 135 50
147 140 55
142 134 50
146 138 54
146 137 56
144 136 54
145 137 53
149 170 0
150 171 0
150 171 0
150 171 0
148 169 0
150 171 0
150 171 0
149 170 0
150 171 0
149 170 0
149 170 0
149 170 0
148 169 0
149 169 0
149 169 0
147 169 0
148 169 0
147 168 0
148 169 0
149 170 0
148 170 0
148 169 0
148 169 0
147 168 0
148 169 0
148 169 0
147 168 0
148 169 0
147 168 0
148 169 0
148 169 0
147 168 0
147 168 0
147 168 0
146 166 0
146 167 0
147 167 0
147 168 0
147 168 0
146 167 0
145 166 0
146 167 0
145 166 0
145 166 0
146 166 0
145 165 0
144 165 0
145 165 0
144 165 0
143 164 0
144 165 0
145 166 0
144 165 0
144 164 0
145 166 0
143 163 0
144 165 0
143 164 0
144 164 0
143 164 0
141 161 0
142 163 0
143 163 0
142 162 0
142 162 0
142 163 0
141 161 0
141 161 0
141 162 0
141 161 0
140 161 0
138 158 0
141 161 0
140 161 0
139 159 0
137 157 0
139 159 0
138 158 0
138 158 0
137 156 0
138 158 0
135 156 0
136 156 0
137 157 0
137 157 0
134 154 0
136 155 0
134 154 0
135 155 0
135 155 0
134 154 0
133 152 0
134 153 0
129 149 0
132 152 0
131 150 0
131 150 0
129 149 0
128 147 0
127 146 0
126 144 0
126 145 0
125 144 0
124 142 0
123 141 0
122 141 0
120 138 0
120 138 0
121 139 0
118 137 0
118 136 0
119 136 0
112 130 0
114 131 0
115 133 0
113 130 0
111 127 0
108 124 0
105 122 0
106 122 0
105 121 0
101 116 0
101 117 0
100 115 0
96 111 0
95 110 0
95 110 0
96 111 0
96 111 0
96 111 0
95 111 0
96 112 0
105 121 0
105 122 0
109 126 0
117 135 0
121 139 0
127 145 0
131 150 0
162 185 0
161 185 0
163 187 0
161 185 0
162 186 0
161 184 0
162 185 0
161 185 0
161 185 0
161 185 0
161 185 0
161 184 0
160 183 0
160 183 0
159 182 0
161 184 0
159 182 0
158 181 0
103 124 49
45 71 72
45 72 74
46 74 82
48 76 85
48 77 85
49 77 90
48 77 89
49 77 92
50 79 95
50 79 93
50 80 99
50 79 96
50 80 96
51 81 97
51 81 99
50 79 98
51 80 98
51 81 100
51 80 99
51 81 98
51 81 100
51 81 100
51 81 101
51 81 101
52 82 103
52 82 101
52 83 101
52 82 104
53 83 101
51 81 100
52 83 106
52 83 102
51 81 100
52 82 102
52 83 105
52 82 101
51 81 98
52 82 101
52 83 103
52 82 102
52 82 103
51 81 102
52 82 102
52 83 106
52 82 102
51 81 99
52 83 101
52 82 98
52 82 100
51 81 102
52 82 101
52 82 103
52 82 105
52 82 104
52 82 102
52 82 103
50 80 98
51 81 100
52 82 101
51 81 99
51 81 98
51 80 100
51 81 99
50 80 98
51 80 100
50 79 97
51 81 101
50 79 96
49 77 94
50 78 96
50 79 96
50 78 95
50 78 95
49 77 92
50 78 92
49 77 93
48 75 90
47 73 85
48 75 87
46 71 79
47 72 82
45 70 81
46 70 77
43 67 69
101 120 45
160 182 0
159 182 0
159 181 0
161 183 0
161 183 0
160 182 0
159 181 0
160 182 0
161 183 0
158 181 0
160 182 0
161 183 0
161 183 0
161 183 0
161 183 0
161 183 0
162 184 0
162 184 5
117 121 33
98 91 33
94 89 30
85 81 19
90 85 19
82 78 18
84 81 16
82 78 14
81 78 11
81 78 12
82 78 11
82 79 9
84 80 9
85 81 10
84 80 10
89 85 12
91 87 9
91 87 11
92 88 10
94 90 11
97 94 10
100 96 11
98 94 11
101 96 9
103 99 13
104 100 13
108 104 11
108 103 10
107 102 11
108 103 9
111 106 11
111 106 9
113 108 13
112 107 11
115 110 12
117 111 13
122 116 11
118 113 12
118 113 14
119 114 9
123 118 11
125 120 12
125 120 14
123 118 13
126 121 11
127 122 16
129 124 13
128 123 15
128 122 14
129 123 15
130 124 18
131 125 15
131 125 15
132 126 15
131 125 19
131 126 12
133 128 19
133 127 17
133 127 19
135 129 18
134 129 18
137 130 24
137 131 21
135 129 20
136 131 21
137 131 22
138 132 23
139 132 24
136 130 25
135 129 27
138 131 26
140 134 27
138 132 23
140 134 29
140 133 29
141 134 31
139 133 28
141 135 32
142 135 32
142 135 34
144 137 35
141 134 30
142 135 35
144 137 34
144 137 34
145 138 34
145 138 35
146 138 38
145 138 36
144 137 40
146 138 40
147 140 41
148 140 43
147 140 40
147 140 42
145 138 39
147 139 41
146 138 41
145 137 41
146 139 39
145 138 43
145 138 41
147 139 44
149 142 46
146 138 43
148 140 45
147 139 45
148 139 45
150 142 49
148 140 46
150 142 49
146 138 46
147 139 49
148 140 49
145 138 46
146 138 46
148 139 49
147 139 46
150 142 53
148 139 50
148 140 52
147 139 52
149 141 51
148 140 52
147 139 52
146 138 51
147 138 51
147 139 50
146 138 50
147 139 53
147 139 54
146 138 52
147 138 52
145 138 52
144 136 51
143 136 52
144 137 52
145 137 52
144 136 53
150 170 0
149 170 0
149 170 0
149 171 0
150 170 0
149 170 0
149 170 0
149 170 0
149 170 0
147 168 0
149 170 0
148 169 0
149 170 0
148 169 0
147 168 0
149 169 0
148 169 0
149 170 0
148 169 0
148 169 0
147 168 0
148 169 0
148 169 0
147 168 0
147 168 0
147 168 0
148 168 0
146 167 0
147 168 0
147 168 0
147 168 0
147 168 0
147 168 0
148 168 0
147 168 0
145 166 0
146 167 0
146 167 0
147 168 0
146 167 0
145 166 0
146 167 0
145 166 0
144 165 0
145 166 0
146 166 0
145 166 0
144 165 0
143 164 0
144 165 0
143 164 0
143 163 0
144 165 0
144 164 0
143 164 0
144 165 0
144 164 0
141 162 0
143 163 0
142 162 0
142 163 0
142 162 0
142 162 0
142 162 0
140 161 0
142 162 0
140 160 0
140 160 0
140 160 0
140 160 0
140 160 0
139 159 0
139 159 0
139 160 0
138 158 0
138 158 0
138 158 0
137 157 0
139 159 0
137 157 0
136 156 0
137 157 0
137 157 0
135 155 0
136 155 0
136 156 0
135 154 0
132 152 0
135 154 0
135 155 0
134 153 0
133 152 0
130 150 0
132 152 0
131 151 0
130 149 0
129 148 0
130 149 0
128 147 0
129 148 0
125 143 0
127 146 0
127 145 0
124 143 0
123 142 0
119 137 0
123 142 0
120 138 0
118 136 0
119 137 0
119 137 0
114 131 0
117 134 0
115 132 0
110 127 0
109 126 0
110 127 0
109 126 0
108 124 0
106 122 0
102 118 0
104 119 0
105 120 0
100 115 0
96 111 0
98 113 0
97 111 0
94 108 0
98 113 0
96 111 0
100 115 0
100 116 0
105 122 0
107 123 0
111 129 0
119 137 0
123 141 0
122 140 0
158 181 0
161 184 0
161 184 0
161 185 0
161 184 0
162 185 0
161 185 0
160 184 0
161 184 0
159 182 0
158 181 0
158 182 0
159 182 0
157 180 0
159 182 0
159 182 0
156 179 0
159 182 0
159 182 0
152 174 17
71 93 60
45 72 72
46 73 77
47 75 78
48 76 84
48 76 86
48 76 86
49 77 87
48 77 88
50 79 93
48 77 87
48 77 89
50 79 91
50 79 97
49 78 88
51 80 96
51 81 98
50 79 97
51 81 99
50 79 95
51 81 99
51 81 99
51 81 100
51 81 98
51 81 103
52 82 103
52 83 98
52 83 103
52 82 100
52 82 101
51 81 101
51 81 97
52 82 102
52 82 100
52 82 101
51 81 100
53 84 108
51 81 97
52 81 101
51 81 95
52 82 100
52 83 103
52 82 102
52 81 101
51 81 100
52 82 101
51 81 96
52 81 102
52 82 100
52 82 103
52 82 104
52 82 103
51 81 97
52 82 101
52 82 104
51 81 99
52 82 104
52 81 101
51 81 98
50 80 100
51 81 99
51 80 97
51 80 97
50 79 93
51 80 99
50 79 96
50 78 91
50 79 95
50 79 94
49 77 90
49 78 92
49 77 91
49 76 90
49 76 89
49 76 92
49 76 90
48 74 87
47 74 83
47 72 83
46 71 80
46 72 79
44 68 71
44 67 73
70 89 60
152 174 12
157 179 0
157 178 0
158 180 0
155 176 0
159 181 0
157 179 0
159 180 0
158 179 0
159 181 0
159 181 0
159 180 0
159 181 0
159 180 0
160 181 0
161 183 0
158 180 0
161 182 0
160 182 0
157 177 13
107 106 32
96 90 30
89 84 25
93 87 25
90 84 21
81 77 18
83 79 16
82 79 15
85 81 11
79 75 10
82 78 10
83 78 10
85 81 10
87 83 10
86 83 12
94 90 8
91 87 9
94 89 11
94 90 11
96 92 11
101 96 9
99 95 12
100 95 9
102 98 9
101 97 9
102 98 8
106 101 11
105 102 10
109 104 10
109 105 9
111 106 9
114 110 10
114 109 9
115 110 9
117 112 9
116 111 10
120 114 8
120 116 7
120 114 11
122 117 10
124 118 9
121 116 8
127 122 10
124 119 10
124 119 10
127 121 12
125 120 11
128 123 13
129 124 13
128 123 9
131 125 15
128 123 14
129 123 14
131 126 14
131 125 14
133 127 13
134 128 13
132 127 19
134 128 19
134 128 19
134 129 19
131 124 16
134 128 19
138 132 24
133 128 18
138 133 21
138 132 21
135 129 23
138 132 24
138 132 23
137 131 21
137 131 24
139 133 25
140 134 25
138 132 26
140 134 28
140 133 27
140 134 28
138 132 27
140 133 28
142 136 31
142 135 29
142 136 34
141 134 29
141 134 29
143 136 32
143 137 34
141 133 33
144 137 34
144 137 36
146 139 38
144 138 37
145 138 39
145 137 37
146 138 38
146 138 38
145 138 39
148 139 43
147 140 41
146 138 41
147 140 42
146 138 43
146 138 42
148 140 44
148 141 45
146 138 43
145 138 44
147 138 46
147 139 46
149 140 49
147 139 49
147 140 47
147 139 45
146 139 48
148 139 49
148 140 48
144 137 48
147 139 50
147 139 49
146 138 49
146 138 49
144 136 48
149 140 54
144 136 47
145 137 48
144 137 49
144 136 50
144 136 49
146 138 49
146 137 51
144 137 50
143 135 53
145 137 52
142 135 49
145 137 53
144 137 52
140 131 50
142 134 52
150 171 0
149 170 0
148 169 0
149 170 0
148 170 0
148 169 0
149 170 0
149 170 0
149 171 0
149 170 0
148 169 0
148 169 0
148 169 0
149 170 0
148 169 0
149 169 0
149 169 0
148 169 0
148 169 0
148 169 0
148 169 0
149 170 0
147 168 0
147 168 0
148 168 0
147 168 0
147 168 0
147 167 0
147 168 0
147 168 0
146 167 0
146 167 0
145 166 0
146 167 0
146 167 0
146 166 0
145 166 0
146 167 0
145 165 0
146 167 0
145 166 0
145 166 0
145 166 0
145 166 0
144 165 0
144 165 0
144 164 0
145 166 0
145 165 0
143 163 0
143 164 0
142 162 0
142 163 0
143 163 0
142 163 0
143 163 0
143 164 0
142 162 0
142 162 0
143 163 0
141 162 0
141 161 0
141 161 0
140 161 0
141 161 0
140 160 0
143 163 0
140 160 0
139 159 0
140 161 0
141 161 0
140 159 0
138 158 0
139 159 0
139 159 0
139 159 0
139 158 0
140 160 0
138 157 0
137 157 0
135 155 0
136 156 0
137 157 0
134 153 0
135 155 0
135 155 0
136 155 0
134 153 0
134 154 0
133 152 0
132 152 0
134 154 0
132 152 0
129 148 0
130 148 0
128 147 0
130 149 0
129 148 0
128 147 0
128 147 0
126 145 0
128 147 0
125 143 0
123 142 0
125 144 0
122 141 0
119 137 0
118 136 0
120 138 0
116 133 0
114 131 0
114 132 0
112 129 0
117 134 0
109 126 0
109 125 0
110 127 0
107 124 0
107 123 0
106 122 0
106 122 0
102 118 0
102 118 0
105 121 0
97 112 0
101 116 0
99 114 0
101 116 0
100 115 0
101 116 0
101 116 0
103 118 0
109 125 0
111 127 0
119 137 0
124 142 0
120 138 0
152 174 0
161 184 0
161 184 0
159 183 0
160 184 0
160 183 0
161 184 0
159 182 0
159 182 0
159 182 0
158 181 0
159 182 0
158 181 0
157 180 0
156 179 0
157 180 0
156 179 0
156 180 0
155 178 0
156 179 0
155 178 0
137 159 26
48 73 70
44 71 70
47 75 86
47 75 83
47 74 82
48 76 84
48 76 86
48 76 86
49 77 88
48 77 89
49 78 90
50 79 92
50 79 92
50 79 92
51 80 93
50 79 92
50 79 88
51 81 96
51 81 97
51 80 98
52 82 100
52 83 102
52 83 103
50 80 95
51 81 100
51 81 98
51 82 97
52 82 101
51 81 99
52 82 102
51 81 98
51 80 100
50 80 95
52 82 101
51 81 97
52 82 101
52 82 97
52 82 101
51 81 96
51 81 102
52 82 98
50 80 98
52 82 100
51 81 99
52 82 103
51 80 101
51 81 97
51 80 96
51 81 105
52 82 101
52 82 100
51 81 97
52 81 97
51 80 98
51 81 98
52 82 98
50 80 97
51 81 97
51 80 98
51 80 97
50 79 98
49 78 92
49 78 93
51 81 100
50 79 95
50 79 94
49 78 93
49 77 93
49 77 94
49 78 95
50 78 90
49 76 88
48 75 88
48 75 83
47 74 85
48 74 86
47 74 83
46 71 74
46 71 82
45 70 74
43 67 69
46 68 65
137 157 37
157 178 0
155 177 0
156 177 0
156 177 0
156 177 0
157 179 0
157 178 0
156 177 0
158 179 0
156 176 0
156 177 0
157 178 0
158 179 0
157 178 0
158 179 0
158 179 0
159 180 0
160 181 0
159 181 0
157 178 0
147 165 13
99 95 32
93 88 30
89 84 25
89 85 22
89 84 15
84 80 16
86 81 16
84 79 14
90 85 8
82 78 11
86 82 12
84 80 11
89 85 9
86 81 8
90 85 8
90 85 9
91 86 9
91 87 8
91 87 8
96 92 8
96 92 9
100 95 9
102 98 8
103 99 9
106 101 8
103 98 10
105 101 9
108 103 9
109 103 6
110 105 7
110 105 10
114 109 8
113 108 5
115 110 6
118 113 7
119 114 6
117 112 5
121 116 7
119 114 8
122 117 5
123 117 5
122 117 4
123 118 6
123 118 6
127 122 5
123 117 6
127 122 9
127 122 9
128 123 10
127 122 10
128 123 8
131 125 12
127 122 9
131 125 9
131 126 11
132 127 12
132 127 12
131 125 15
134 129 15
132 126 17
136 130 18
131 126 12
134 128 17
134 128 18
134 128 20
135 129 18
135 129 18
136 130 21
137 131 17
136 130 21
137 132 20
138 132 19
139 133 24
138 132 24
139 132 26
140 133 26
138 131 26
139 133 25
141 135 27
141 135 26
140 133 26
142 135 29
140 133 30
144 137 32
140 134 27
144 136 33
142 135 30
141 134 29
144 137 33
145 138 37
145 138 35
145 138 34
144 137 36
144 137 37
143 135 38
145 138 39
145 138 36
146 138 41
144 136 38
145 137 40
145 138 41
146 138 37
145 137 43
146 138 41
146 139 42
148 140 46
148 140 43
147 140 46
146 139 44
144 137 44
146 138 48
144 136 44
148 140 48
147 139 49
145 138 45
147 139 49
148 139 50
146 138 50
146 138 48
145 137 49
146 138 49
146 137 48
144 137 48
145 137 49
146 138 52
147 139 49
144 137 49
141 133 48
145 136 52
142 135 50
146 138 52
143 135 49
141 133 49
143 135 49
142 134 52
143 135 51
143 136 50
149 170 0
149 170 0
150 170 0
150 170 0
149 170 0
149 170 0
148 169 0
149 169 0
148 169 0
148 169 0
149 170 0
148 169 0
149 170 0
147 168 0
148 169 0
147 168 0
148 169 0
147 168 0
148 169 0
148 169 0
147 168 0
148 168 0
146 167 0
147 168 0
147 167 0
147 167 0
148 168 0
146 167 0
147 168 0
146 167 0
147 168 0
146 167 0
145 166 0
145 166 0
145 166 0
146 167 0
144 165 0
145 165 0
146 166 0
144 165 0
145 166 0
145 166 0
145 166 0
145 166 0
144 165 0
145 165 0
144 165 0
142 163 0
145 166 0
143 164 0
144 164 0
143 163 0
143 163 0
144 164 0
142 162 0
142 162 0
141 161 0
141 162 0
142 162 0
141 162 0
141 161 0
142 162 0
140 161 0
141 162 0
141 161 0
139 159 0
140 160 0
138 158 0
140 160 0
140 160 0
139 159 0
139 159 0
140 159 0
137 157 0
136 156 0
137 157 0
137 157 0
137 157 0
137 157 0
134 154 0
136 156 0
137 157 0
136 156 0
136 156 0
135 155 0
134 154 0
135 154 0
134 153 0
134 154 0
131 151 0
133 152 0
130 150 0
132 151 0
129 149 0
130 149 0
130 149 0
129 148 0
126 145 0
126 144 0
124 143 0
127 146 0
126 145 0
123 142 0
122 141 0
122 140 0
120 138 0
120 138 0
121 138 0
118 136 0
116 133 0
118 136 0
116 134 0
113 130 0
114 131 0
112 129 0
112 129 0
112 128 0
108 124 0
105 121 0
104 120 0
107 123 0
105 121 0
101 116 0
102 117 0
102 117 0
100 115 0
99 115 0
100 116 0
101 116 0
100 116 0
103 119 0
107 123 0
109 126 0
114 131 0
120 138 0
120 137 0
144 165 0
159 182 0
160 183 0
158 181 0
159 182 0
156 179 0
158 181 0
159 182 0
157 180 0
158 182 0
157 180 0
157 180 0
159 182 0
156 179 0
155 178 0
156 179 0
156 179 0
155 178 0
155 178 0
154 177 0
154 177 0
153 177 0
154 176 0
117 138 45
44 70 68
45 72 76
45 71 75
46 73 77
47 75 80
48 76 86
47 75 85
48 77 82
48 77 87
49 77 88
49 78 91
50 79 94
49 79 87
50 79 91
50 80 96
50 80 97
50 79 94
50 79 99
50 79 94
50 79 92
51 80 97
50 80 95
50 80 92
50 80 95
52 81 99
50 80 95
51 81 100
51 81 100
50 80 93
51 81 100
51 81 97
51 81 102
51 81 97
51 80 93
51 81 98
51 81 100
51 81 100
51 81 98
50 79 96
51 81 97
51 81 98
52 82 99
51 81 99
51 81 98
51 81 98
51 81 99
51 81 98
52 82 103
51 81 98
52 81 101
51 81 98
51 80 102
51 81 98
51 80 100
51 81 102
52 81 100
50 79 95
52 82 102
50 78 96
50 79 98
49 78 92
50 79 96
50 78 91
49 77 90
49 77 94
49 78 93
50 78 93
49 77 89
49 76 88
48 76 86
48 75 89
47 74 83
48 75 86
46 72 79
47 73 84
46 72 80
45 71 76
44 69 75
45 69 74
42 65 62
116 135 40
153 174 0
152 173 0
153 173 0
154 174 0
154 175 0
153 173 0
154 175 0
154 174 0
155 176 0
156 177 0
155 176 0
155 175 0
155 176 0
156 176 0
157 177 0
155 176 0
156 176 0
157 178 0
158 179 0
158 178 0
156 176 0
157 178 0
140 153 21
95 90 32
96 90 29
90 85 26
84 80 18
87 82 19
83 79 12
83 79 15
89 84 8
87 82 8
84 80 9
87 82 11
85 80 8
87 83 9
92 87 8
92 87 8
94 89 7
95 90 8
94 90 7
93 88 8
98 94 8
97 92 8
101 97 7
100 96 9
103 98 6
104 99 8
106 101 9
106 102 5
110 104 7
108 102 6
113 108 5
111 106 7
114 109 6
114 108 7
115 109 6
119 114 6
117 111 5
119 114 7
119 114 5
121 116 4
125 119 5
124 118 4
120 115 5
123 118 4
122 117 4
124 118 5
127 121 4
128 122 4
127 121 5
127 122 6
127 122 6
129 123 8
129 123 6
131 125 7
129 124 7
129 123 6
130 124 8
131 126 13
133 127 13
131 126 13
132 126 12
133 126 14
133 127 15
134 128 15
133 127 17
135 130 17
133 128 14
132 126 15
134 128 14
134 129 18
135 129 18
137 131 20
134 128 19
136 130 22
138 132 23
138 132 24
140 134 22
139 132 23
140 134 25
139 133 23
138 132 23
141 134 28
140 134 26
141 134 31
139 133 28
139 133 28
139 132 28
140 133 30
142 135 31
142 135 29
142 134 33
142 134 34
142 136 31
144 137 38
142 134 33
143 136 35
145 138 37
144 137 38
143 135 37
143 135 33
144 136 36
142 135 39
144 137 41
144 137 41
141 134 37
143 135 42
147 139 42
145 137 44
145 138 44
144 136 43
146 139 45
145 136 43
145 137 43
144 135 44
146 138 47
144 136 45
143 135 45
144 136 46
145 137 47
145 138 48
145 138 48
146 138 49
145 137 48
142 134 47
143 135 46
143 135 49
142 135 48
142 135 46
141 133 46
142 135 51
141 133 48
144 136 49
142 134 50
145 137 50
143 136 48
143 135 51
141 133 52
149 170 0
149 170 0
148 169 0
148 169 0
147 167 0
149 170 0
149 170 0
148 169 0
148 169 0
148 169 0
148 168 0
148 169 0
148 168 0
149 170 0
147 168 0
148 168 0
148 168 0
148 169 0
148 169 0
147 168 0
148 169 0
146 167 0
147 168 0
148 169 0
146 167 0
147 167 0
147 168 0
146 166 0
146 167 0
146 166 0
145 166 0
145 166 0
145 166 0
146 166 0
146 166 0
146 166 0
144 165 0
145 166 0
144 165 0
145 166 0
144 165 0
145 166 0
144 165 0
144 165 0
143 163 0
144 164 0
144 165 0
143 164 0
142 162 0
142 162 0
144 164 0
143 163 0
143 163 0
142 162 0
143 163 0
142 162 0
142 163 0
142 163 0
139 160 0
140 160 0
140 160 0
141 161 0
141 162 0
140 160 0
140 161 0
139 160 0
140 160 0
140 160 0
138 158 0
139 159 0
138 158 0
138 158 0
138 158 0
137 156 0
138 158 0
137 157 0
135 155 0
136 156 0
137 157 0
138 158 0
135 154 0
135 154 0
136 155 0
136 155 0
135 154 0
135 155 0
134 153 0
131 150 0
133 152 0
133 152 0
131 150 0
132 152 0
129 149 0
129 148 0
129 148 0
129 147 0
128 147 0
130 148 0
125 143 0
126 144 0
126 145 0
125 143 0
125 143 0
122 140 0
123 141 0
121 139 0
119 137 0
119 137 0
119 136 0
117 134 0
114 131 0
115 132 0
113 130 0
113 130 0
110 127 0
113 129 0
111 128 0
109 125 0
109 125 0
109 124 0
107 122 0
106 122 0
104 120 0
103 119 0
101 116 0
101 116 0
101 116 0
101 116 0
101 116 0
102 117 0
104 120 0
108 125 0
113 129 0
117 134 0
119 136 0
140 160 0
158 181 0
158 181 0
158 181 0
158 180 0
157 180 0
155 178 0
155 178 0
156 179 0
157 180 0
157 180 0
155 177 0
155 178 0
154 177 0
155 178 0
155 178 0
154 177 0
151 174 0
153 175 0
153 175 0
154 177 0
152 175 0
152 175 0
153 176 0
150 173 0
95 115 48
43 69 64
46 73 76
46 73 76
47 75 80
46 74 79
47 75 79
47 74 80
48 76 85
48 77 85
49 78 89
49 78 87
49 78 90
49 77 90
50 79 90
51 80 94
49 78 90
50 79 94
50 80 93
51 80 98
50 80 95
51 80 95
51 80 97
50 79 96
51 81 96
51 81 97
51 81 95
51 80 96
50 79 97
51 81 100
51 80 94
51 81 99
51 81 96
51 81 99
50 79 95
51 81 95
51 80 99
51 81 98
51 80 97
52 82 99
50 80 95
52 82 98
52 82 98
51 81 95
50 80 97
50 80 98
51 81 94
50 79 94
52 82 98
51 81 97
51 81 96
50 79 92
50 79 95
51 80 96
50 79 92
51 80 96
50 79 95
51 80 99
50 79 96
50 79 93
49 78 92
50 78 89
49 77 88
49 76 90
49 77 95
49 77 91
49 77 87
48 76 89
48 76 87
48 75 85
48 75 86
47 74 79
47 74 82
47 73 82
47 73 80
46 72 77
45 70 76
44 68 67
43 66 68
97 116 48
150 170 0
150 170 0
149 168 0
149 169 0
150 170 0
151 170 0
150 170 0
152 171 0
153 173 0
153 174 0
152 172 0
152 172 0
153 173 0
154 174 0
155 175 0
153 173 0
155 174 0
152 172 0
154 173 0
156 177 0
153 172 0
156 176 0
156 176 0
155 175 0
130 141 20
92 86 28
94 88 30
86 81 20
89 83 20
88 83 18
87 82 13
88 83 14
86 82 12
85 80 10
86 81 7
87 83 8
88 84 10
86 83 6
94 89 8
93 89 7
91 86 6
95 90 7
94 88 6
99 94 7
100 94 5
97 92 6
101 96 10
101 96 7
104 98 7
105 99 7
106 100 9
108 102 7
109 104 6
108 103 6
112 107 5
111 106 5
113 108 5
115 110 4
116 111 5
119 113 4
118 113 5
120 115 4
122 116 4
119 114 5
122 117 5
122 117 4
124 118 4
123 117 4
125 120 4
124 118 4
127 121 4
125 119 6
125 119 5
127 122 5
126 121 4
129 123 5
129 124 4
130 124 5
129 124 5
130 124 7
133 127 7
130 124 9
132 126 10
130 125 11
129 123 8
132 126 10
133 127 9
133 127 10
134 129 12
135 130 14
136 130 16
135 130 16
133 127 14
135 129 15
136 130 15
135 129 16
134 128 17
135 130 14
137 131 21
135 129 17
138 132 21
139 132 21
139 133 20
138 131 24
138 131 22
138 131 24
138 131 24
139 133 26
140 134 25
141 135 26
140 133 27
138 132 26
139 133 25
139 132 26
140 133 28
140 134 29
141 134 30
143 136 31
141 134 31
140 134 34
143 135 35
144 136 37
144 137 36
142 135 37
143 136 37
143 135 39
143 136 39
143 135 40
142 135 38
143 136 40
145 137 43
143 135 40
145 138 43
145 137 44
143 135 44
144 136 44
145 137 46
142 135 42
142 134 44
145 137 47
143 135 46
143 135 45
143 135 44
146 138 48
145 136 48
143 134 46
143 135 47
142 134 46
140 133 45
142 134 47
142 134 48
143 135 49
139 131 45
141 133 48
146 138 51
140 132 47
143 135 48
140 132 49
141 134 49
141 133 47
150 171 0
149 169 0
149 170 0
149 170 0
149 170 0
149 170 0
149 169 0
148 168 0
148 169 0
148 168 0
148 169 0
148 169 0
148 169 0
148 168 0
147 168 0
148 168 0
148 169 0
148 169 0
147 168 0
147 168 0
146 167 0
147 168 0
147 168 0
146 167 0
147 168 0
146 166 0
147 168 0
147 168 0
147 168 0
146 167 0
146 167 0
146 167 0
146 166 0
145 166 0
144 165 0
144 164 0
145 166 0
144 164 0
144 165 0
145 166 0
145 166 0
143 164 0
143 164 0
143 164 0
143 163 0
143 163 0
144 164 0
143 163 0
143 163 0
144 164 0
141 161 0
144 164 0
142 162 0
142 162 0
143 163 0
142 163 0
142 162 0
141 162 0
141 162 0
140 160 0
141 161 0
142 162 0
141 161 0
140 160 0
141 161 0
140 160 0
140 159 0
139 158 0
138 158 0
138 157 0
138 158 0
138 157 0
139 159 0
137 156 0
135 155 0
137 157 0
137 157 0
135 154 0
135 154 0
134 154 0
136 155 0
133 152 0
135 155 0
134 153 0
133 152 0
134 153 0
133 152 0
133 153 0
131 150 0
131 149 0
129 148 0
132 151 0
128 147 0
130 149 0
129 147 0
130 148 0
127 145 0
127 145 0
126 145 0
124 143 0
125 143 0
122 140 0
122 141 0
124 142 0
120 138 0
119 137 0
120 138 0
119 136 0
120 137 0
117 135 0
114 131 0
115 132 0
114 131 0
110 127 0
111 127 0
110 126 0
108 123 0
111 127 0
106 122 0
106 121 0
104 120 0
102 118 0
102 117 0
104 119 0
103 118 0
102 118 0
100 115 0
101 116 0
103 119 0
107 123 0
107 123 0
110 126 0
117 134 0
118 135 0
133 152 0
156 178 0
157 180 0
156 178 0
155 178 0
156 178 0
156 178 0
155 178 0
153 175 0
157 179 0
155 178 0
153 175 0
155 177 0
154 176 0
153 176 0
154 177 0
151 174 0
153 175 0
152 174 0
148 170 0
151 174 0
151 173 0
150 172 0
150 173 0
148 170 0
147 169 0
146 168 8
84 104 53
43 68 68
44 70 68
47 74 77
46 74 78
48 76 84
46 74 79
48 77 85
48 76 81
48 77 83
48 76 84
49 78 92
49 78 89
49 78 88
50 79 91
50 79 95
49 78 90
49 78 91
50 78 93
50 80 92
50 79 94
50 79 93
50 79 89
50 79 92
51 80 98
49 78 89
50 80 95
51 80 94
50 79 92
51 81 98
51 81 96
52 82 100
50 80 95
50 80 93
50 79 93
51 80 98
51 80 98
51 81 100
51 81 98
51 80 97
51 80 93
51 81 97
51 80 94
51 81 99
50 79 93
52 82 102
50 79 95
50 79 94
50 79 95
51 81 95
50 78 94
51 80 98
50 80 96
50 79 91
50 79 94
50 79 93
51 81 97
50 78 92
49 77 93
50 79 93
49 78 94
48 76 87
49 78 90
49 77 89
49 77 89
48 76 90
48 76 89
48 75 86
47 74 84
48 75 84
47 74 83
46 71 81
47 73 78
45 71 75
46 71 74
43 68 68
43 67 71
79 97 53
145 165 4
144 164 0
144 164 0
150 169 0
146 166 0
148 167 0
151 171 0
148 167 0
148 168 0
149 167 0
151 170 0
150 169 0
149 167 0
152 171 0
152 171 0
153 171 0
150 169 0
153 172 0
153 172 0
152 170 0
152 171 0
153 172 0
152 170 0
154 173 0
153 172 0
153 172 0
123 132 20
94 88 31
90 84 24
91 86 24
87 82 20
88 84 18
86 81 14
86 81 10
88 83 9
89 83 10
88 83 8
85 80 7
90 86 8
90 84 7
93 88 4
93 88 7
97 92 8
97 92 8
97 91 7
96 91 5
99 94 6
102 97 6
101 96 7
100 95 5
103 98 5
103 98 5
103 98 5
106 101 5
107 102 4
111 106 5
110 104 4
114 108 5
113 108 4
113 107 3
115 109 4
120 114 3
120 115 5
117 112 5
118 113 5
121 115 5
120 114 5
119 114 4
123 117 5
122 116 4
122 117 5
125 119 5
125 119 4
126 120 5
126 120 4
127 122 5
126 120 3
126 120 4
128 122 5
128 122 5
130 125 3
128 122 6
130 124 6
130 124 9
130 124 6
131 125 7
130 124 5
132 126 10
134 128 11
133 128 9
132 126 9
132 127 10
131 124 10
133 127 12
133 127 11
132 126 13
133 127 13
136 130 14
135 128 17
135 129 14
137 131 17
135 129 12
137 131 20
136 130 18
136 130 20
139 132 22
138 131 20
138 131 22
138 132 23
139 132 24
140 133 26
138 132 24
139 133 27
139 133 28
140 133 29
141 134 29
137 131 25
140 133 31
140 134 28
139 132 31
139 131 30
140 132 29
138 132 28
141 134 35
139 133 30
141 134 34
140 134 33
141 134 37
143 135 37
141 134 37
142 135 38
142 134 38
144 136 40
144 136 41
143 135 43
144 136 43
144 136 44
142 135 42
144 136 43
140 133 40
142 134 44
144 136 47
139 132 40
143 135 46
146 139 49
144 137 47
139 131 43
142 134 48
141 134 45
141 133 46
142 134 46
142 134 48
142 134 49
141 133 48
142 134 47
140 132 49
140 133 46
142 134 49
138 131 45
141 133 47
137 130 45
148 169 0
148 169 0
149 170 0
149 170 0
148 169 0
148 170 0
148 169 0
147 168 0
148 168 0
148 169 0
148 169 0
147 168 0
147 168 0
147 168 0
147 168 0
147 168 0
148 169 0
148 169 0
148 168 0
147 168 0
147 168 0
147 168 0
147 168 0
146 167 0
146 167 0
147 167 0
147 167 0
146 166 0
146 166 0
147 167 0
145 166 0
144 165 0
145 165 0
145 165 0
144 165 0
144 164 0
145 166 0
146 166 0
144 164 0
143 163 0
144 165 0
144 165 0
143 163 0
143 164 0
144 164 0
143 163 0
142 162 0
143 164 0
143 163 0
143 163 0
142 162 0
143 163 0
141 161 0
141 161 0
141 162 0
142 162 0
141 161 0
142 162 0
141 161 0
141 161 0
140 160 0
142 162 0
140 160 0
140 161 0
138 157 0
138 157 0
139 159 0
139 159 0
138 157 0
137 157 0
139 159 0
136 156 0
136 156 0
137 157 0
137 156 0
137 156 0
136 155 0
136 155 0
137 156 0
135 154 0
137 156 0
133 152 0
135 154 0
132 151 0
134 153 0
133 152 0
133 152 0
131 151 0
131 150 0
132 150 0
130 149 0
133 152 0
128 147 0
128 146 0
128 146 0
128 146 0
126 144 0
126 145 0
126 144 0
125 143 0
125 143 0
124 142 0
123 141 0
121 139 0
121 139 0
121 139 0
119 136 0
116 133 0
117 134 0
117 134 0
116 133 0
116 133 0
109 125 0
110 126 0
111 127 0
110 126 0
109 125 0
107 123 0
108 124 0
105 120 0
105 120 0
104 119 0
104 119 0
104 119 0
105 121 0
103 118 0
99 114 0
103 118 0
106 121 0
108 124 0
111 127 0
115 131 0
116 133 0
131 150 0
155 177 0
155 177 0
153 175 0
154 176 0
153 175 0
153 175 0
153 175 0
154 176 0
151 173 0
152 174 0
152 175 0
151 173 0
150 172 0
153 175 0
153 175 0
151 173 0
150 172 0
150 172 0
149 171 0
150 172 0
148 170 0
147 170 0
147 169 0
146 168 0
148 170 0
146 168 0
145 167 0
138 160 17
74 95 59
44 70 70
45 72 76
46 74 78
46 73 77
46 74 80
47 74 77
47 74 80
49 78 87
48 76 86
48 76 84
48 77 83
48 77 83
49 78 92
49 77 87
48 77 87
50 79 92
49 77 90
49 78 90
50 79 93
50 79 91
50 80 94
50 80 93
50 79 93
50 79 95
50 80 95
50 79 91
50 79 92
50 80 94
50 79 90
50 79 92
51 80 97
50 79 94
50 80 92
50 80 93
50 79 92
51 80 94
50 79 97
49 78 92
51 80 98
50 79 95
51 80 94
50 79 90
51 81 94
50 80 98
51 81 97
50 79 93
50 79 90
50 79 93
50 79 93
50 79 92
50 79 91
51 80 96
51 80 94
50 79 91
50 79 94
49 78 91
49 77 91
50 79 92
50 78 91
48 76 89
48 76 83
49 77 88
49 76 89
48 76 85
47 73 79
47 73 82
47 74 84
47 74 82
47 74 83
46 72 77
45 69 72
45 69 75
45 70 69
44 69 68
75 93 55
137 156 12
142 161 0
146 165 0
146 165 0
144 163 0
144 163 0
145 164 0
146 164 0
147 166 0
147 166 0
147 165 0
148 166 0
148 167 0
147 165 0
150 169 0
148 166 0
150 168 0
151 168 0
149 167 0
150 168 0
152 170 0
150 167 0
150 167 0
149 166 0
152 170 0
152 170 0
151 169 0
152 171 0
122 129 24
98 91 30
91 84 26
91 84 21
88 82 18
84 79 14
85 80 10
89 83 11
90 84 8
91 85 9
90 84 9
88 83 8
89 85 7
89 85 7
89 86 6
91 85 4
91 86 4
97 92 7
95 90 6
98 93 5
99 94 5
101 96 6
103 98 4
102 96 6
104 98 6
107 102 5
105 99 5
108 103 7
109 104 4
111 105 5
113 108 4
109 104 4
114 109 3
117 112 4
115 110 4
119 113 3
118 112 5
118 112 4
119 113 5
119 113 4
118 112 4
120 115 5
122 117 4
123 117 5
124 119 4
124 118 5
126 120 4
128 122 5
126 120 4
126 121 5
127 121 5
128 122 3
128 123 5
130 124 5
130 123 5
129 122 5
128 123 5
129 123 5
132 127 5
131 125 6
130 124 5
132 127 5
131 125 6
132 127 7
132 126 7
132 125 10
133 127 10
135 129 9
135 129 13
134 128 9
133 127 13
134 129 11
133 127 16
132 127 11
135 129 15
135 129 15
135 128 17
135 129 14
138 132 18
136 130 18
138 132 20
136 130 20
137 130 22
137 131 23
139 132 24
137 130 18
136 130 23
137 131 21
140 133 25
137 130 24
138 131 24
139 133 27
140 133 29
141 135 29
140 133 29
138 131 30
141 134 30
140 134 31
141 133 34
141 133 34
138 131 32
140 133 34
143 135 38
140 132 33
140 133 35
142 134 38
142 134 40
143 135 39
141 134 39
141 133 40
139 131 40
141 133 43
142 135 41
140 132 40
140 132 43
143 135 44
142 135 43
142 133 45
140 132 41
141 133 42
140 131 43
139 132 42
138 130 43
140 132 42
141 133 47
140 133 45
142 134 46
138 131 47
137 130 43
139 131 46
138 130 48
139 131 48
136 128 45
138 130 48
149 170 0
148 169 0
148 169 0
148 169 0
148 168 0
148 169 0
148 169 0
148 169 0
148 169 0
148 168 0
147 168 0
148 169 0
147 168 0
147 168 0
147 168 0
147 168 0
147 168 0
147 168 0
147 168 0
147 167 0
147 168 0
147 167 0
146 166 0
147 168 0
146 167 0
147 168 0
145 166 0
146 166 0
146 167 0
146 167 0
145 166 0
145 165 0
146 167 0
144 165 0
144 165 0
145 166 0
144 164 0
143 164 0
145 166 0
144 164 0
144 164 0
143 163 0
144 164 0
143 163 0
143 164 0
142 162 0
143 163 0
141 162 0
141 161 0
142 162 0
143 163 0
142 162 0
143 163 0
140 160 0
142 162 0
142 162 0
140 160 0
140 160 0
140 160 0
140 160 0
141 161 0
140 160 0
140 159 0
138 158 0
139 159 0
139 159 0
139 159 0
139 159 0
138 157 0
136 155 0
136 156 0
138 157 0
136 156 0
135 154 0
136 156 0
136 155 0
137 157 0
136 156 0
137 156 0
135 153 0
133 152 0
134 153 0
132 152 0
130 149 0
134 153 0
132 151 0
131 150 0
133 151 0
130 149 0
131 150 0
130 149 0
130 148 0
127 146 0
129 147 0
128 146 0
129 147 0
126 144 0
125 144 0
125 143 0
126 144 0
125 143 0
122 140 0
121 139 0
119 136 0
119 136 0
118 135 0
118 135 0
118 135 0
116 133 0
116 133 0
116 133 0
114 131 0
115 131 0
111 127 0
111 127 0
112 128 0
110 126 0
108 124 0
106 122 0
109 125 0
104 120 0
104 119 0
103 118 0
106 121 0
100 115 0
103 118 0
104 119 0
105 120 0
105 120 0
110 125 0
114 130 0
116 132 0
131 149 0
156 178 0
155 176 0
153 175 0
154 176 0
152 174 0
153 175 0
151 173 0
152 174 0
152 173 0
150 171 0
150 172 0
150 172 0
149 171 0
149 171 0
150 171 0
150 172 0
149 171 0
148 169 0
146 167 0
146 167 0
144 166 0
145 167 0
145 166 0
146 167 0
145 167 0
142 163 0
144 167 0
145 167 0
140 162 0
136 157 12
68 89 59
44 70 69
45 72 76
46 73 77
46 74 77
46 74 77
47 75 80
47 75 82
47 74 79
48 77 85
48 77 84
48 77 85
48 77 88
50 79 88
49 77 87
49 78 87
49 78 89
49 77 91
50 79 94
48 77 86
49 78 91
50 79 90
50 79 88
50 79 90
49 78 90
51 80 94
51 80 95
50 79 93
50 79 91
49 78 88
50 80 96
49 78 89
50 80 95
50 79 92
50 79 92
50 79 94
50 79 93
50 79 94
49 78 90
50 80 92
50 80 93
50 78 93
51 81 93
49 78 88
50 79 92
50 79 91
49 77 90
50 79 92
49 78 88
51 80 95
49 78 91
50 79 92
49 78 92
50 78 92
50 78 92
50 79 93
49 77 92
49 77 87
49 77 88
48 76 87
48 76 89
48 75 85
47 74 81
48 75 85
47 73 82
47 74 81
47 74 84
47 73 81
45 71 75
45 70 76
45 70 71
44 69 70
42 66 63
69 88 56
134 152 15
136 155 0
141 159 0
141 160 0
140 157 0
138 156 0
142 160 0
141 159 0
141 158 0
144 161 0
143 160 0
145 163 0
145 163 0
146 164 0
145 163 0
146 163 0
147 163 0
146 164 0
147 165 0
147 164 0
147 163 0
148 164 0
149 165 0
149 166 0
147 163 0
149 165 0
149 165 0
148 164 0
149 165 0
149 165 3
125 131 22
91 85 27
92 86 23
93 87 22
90 84 18
87 81 14
88 82 14
88 82 11
85 79 11
87 82 11
88 83 8
91 86 5
94 88 5
93 87 6
90 85 6
93 87 6
96 91 5
92 86 6
97 92 5
98 93 5
102 96 5
99 93 4
102 97 4
105 98 4
105 99 4
106 100 3
108 103 5
105 100 3
108 103 4
109 103 4
112 106 3
110 105 5
113 107 5
115 110 4
119 112 6
116 110 5
118 112 5
121 114 4
119 114 4
119 113 4
120 114 4
123 116 5
120 115 4
125 119 4
122 117 4
123 118 4
124 119 4
123 117 3
125 119 4
126 119 6
126 120 4
126 121 4
128 122 4
128 123 4
129 123 4
130 124 3
130 125 3
128 122 5
129 123 5
130 125 4
130 124 5
132 127 5
134 129 5
130 124 5
131 125 7
131 125 7
133 126 8
132 125 4
132 126 9
132 126 11
132 126 8
134 127 10
132 126 10
134 129 13
134 128 13
134 127 14
133 128 16
136 130 15
136 130 16
135 128 16
134 128 18
138 132 18
136 130 19
135 129 19
137 131 20
138 132 21
137 130 22
138 131 21
139 132 23
139 132 26
137 131 26
140 133 28
137 130 29
138 132 29
138 131 26
137 130 28
138 131 30
137 131 30
138 131 32
139 132 31
140 133 32
140 133 37
139 132 33
139 131 36
140 133 37
141 134 37
141 133 37
141 134 38
140 133 39
138 131 37
140 133 40
140 133 41
140 133 41
140 132 41
142 135 44
142 134 44
138 131 41
141 134 45
136 129 40
138 131 39
139 132 45
139 133 39
137 130 44
138 130 42
140 132 45
138 131 44
139 132 45
140 132 47
140 132 46
138 130 45
140 133 48
139 132 45
138 131 47
148 168 0
149 169 0
148 169 0
149 169 0
148 169 0
149 170 0
147 168 0
147 168 0
148 168 0
148 169 0
147 168 0
148 168 0
147 168 0
147 168 0
147 168 0
147 168 0
146 167 0
147 168 0
147 168 0
146 166 0
146 167 0
147 168 0
147 168 0
146 166 0
145 166 0
146 167 0
146 166 0
145 166 0
145 166 0
144 165 0
146 166 0
145 165 0
145 165 0
146 166 0
145 166 0
143 164 0
144 165 0
144 164 0
144 164 0
144 164 0
144 164 0
143 163 0
143 163 0
143 163 0
143 163 0
143 163 0
142 162 0
142 162 0
142 162 0
141 161 0
141 161 0
142 162 0
140 159 0
141 161 0
141 161 0
142 162 0
141 161 0
140 160 0
140 159 0
140 160 0
139 159 0
139 159 0
138 158 0
139 158 0
138 158 0
138 158 0
138 157 0
137 156 0
136 155 0
138 157 0
138 157 0
137 157 0
136 155 0
136 155 0
136 156 0
135 154 0
134 153 0
136 155 0
134 153 0
134 153 0
134 153 0
133 152 0
134 153 0
132 151 0
133 152 0
132 150 0
129 148 0
132 152 0
132 151 0
130 149 0
128 147 0
127 146 0
130 148 0
129 148 0
127 145 0
126 144 0
127 145 0
124 142 0
126 143 0
123 141 0
123 141 0
121 138 0
121 138 0
120 138 0
120 137 0
121 138 0
117 134 0
118 135 0
116 133 0
117 133 0
116 132 0
114 131 0
112 128 0
110 126 0
110 126 0
113 129 0
110 126 0
108 124 0
108 123 0
105 120 0
105 120 0
105 120 0
105 120 0
106 121 0
104 119 0
103 118 0
104 119 0
108 123 0
107 122 0
113 128 0
110 126 0
130 148 0
152 173 0
152 172 0
152 173 0
151 173 0
152 173 0
150 171 0
149 170 0
148 169 0
149 170 0
149 170 0
147 168 0
149 171 0
148 169 0
147 169 0
148 169 0
147 168 0
146 167 0
147 168 0
146 168 0
141 162 0
144 166 0
142 163 0
143 165 0
141 162 0
140 160 0
141 162 0
139 161 0
143 165 0
137 159 0
139 160 0
140 162 0
131 152 17
65 86 56
44 70 68
44 71 67
44 71 72
46 73 72
46 73 80
45 73 73
48 76 82
47 74 79
47 75 83
48 76 83
48 76 83
49 78 89
47 76 84
48 77 85
49 78 86
48 77 83
49 78 90
50 79 92
49 78 90
49 78 88
49 78 88
49 78 92
48 77 86
50 79 91
49 78 92
50 79 89
49 78 88
49 78 93
49 78 89
49 78 88
49 78 89
50 79 95
50 79 91
49 78 91
49 78 92
50 79 94
49 78 90
50 79 92
49 78 91
48 77 87
50 79 94
50 79 91
50 79 91
49 77 92
49 78 89
50 79 91
50 80 93
49 78 90
49 77 89
50 78 93
50 78 93
48 76 89
49 77 90
49 77 91
49 77 88
49 77 89
49 77 88
48 75 81
47 75 81
48 76 82
47 75 81
47 74 82
46 73 79
46 72 80
45 71 79
45 71 74
46 71 80
43 68 68
43 67 67
42 65 62
70 88 49
131 149 22
138 156 0
136 154 0
138 156 0
138 155 0
137 155 0
139 157 0
139 156 0
139 156 0
138 156 0
140 157 0
142 159 0
143 161 0
142 159 0
145 162 0
143 160 0
144 160 0
144 160 0
145 161 0
143 160 0
146 162 0
146 161 0
146 163 0
145 160 0
144 159 0
145 161 0
149 165 0
149 164 0
146 161 0
146 162 0
148 164 0
150 165 0
119 126 19
88 82 24
91 85 24
90 85 19
88 82 16
88 83 14
87 82 9
90 85 10
88 81 10
91 85 12
92 86 7
89 84 2
91 85 5
93 85 5
93 87 3
95 89 6
95 89 4
96 90 2
99 93 4
98 92 4
99 93 4
100 95 4
103 96 4
99 93 4
103 98 4
107 100 5
107 101 5
110 104 4
109 104 4
110 105 5
112 106 3
113 107 6
111 105 4
113 108 4
114 108 5
115 109 4
117 111 4
119 114 5
119 113 3
120 114 3
121 115 4
120 114 5
118 112 3
123 118 4
122 116 5
124 118 4
124 119 3
125 119 5
125 119 4
127 121 4
125 119 6
124 117 5
124 118 6
128 122 4
127 121 5
129 123 5
128 122 6
129 124 3
129 123 5
130 124 5
129 123 5
128 123 4
129 122 5
131 125 4
131 126 4
131 125 5
131 125 6
133 127 5
133 127 6
134 129 6
134 128 10
135 128 12
131 126 9
131 125 10
134 127 12
134 128 14
135 128 18
134 129 12
133 126 13
135 129 15
134 128 17
135 129 14
134 128 16
135 129 21
135 129 18
135 129 19
136 130 21
137 131 20
138 132 25
136 130 22
135 129 20
136 129 21
139 132 28
136 129 26
138 131 29
138 131 29
138 131 28
139 132 31
137 130 29
136 129 32
139 131 34
138 131 32
139 132 32
139 132 33
140 133 36
139 131 34
138 131 35
135 128 34
140 132 39
136 129 36
139 132 39
140 132 41
141 133 41
137 130 36
139 131 41
139 132 41
138 130 37
139 132 43
141 134 45
137 129 42
136 129 39
138 130 43
139 131 45
138 131 39
138 130 45
137 129 42
140 132 46
140 132 47
140 132 48
138 130 45
141 133 48
136 129 44
148 169 0
148 168 0
148 169 0
148 169 0
148 169 0
148 169 0
147 168 0
147 168 0
148 169 0
147 167 0
148 169 0
148 168 0
147 168 0
146 166 0
146 166 0
146 167 0
147 168 0
147 167 0
146 167 0
147 167 0
146 166 0
146 167 0
146 166 0
146 167 0
145 165 0
144 165 0
146 166 0
146 166 0
144 164 0
145 165 0
145 165 0
143 163 0
145 165 0
143 163 0
144 164 0
143 164 0
144 164 0
144 164 0
144 164 0
144 164 0
144 164 0
143 163 0
144 164 0
142 162 0
142 162 0
142 162 0
143 163 0
142 163 0
142 162 0
141 160 0
140 160 0
141 161 0
141 161 0
140 160 0
140 160 0
140 160 0
140 160 0
140 160 0
142 161 0
140 159 0
140 160 0
139 158 0
139 159 0
139 158 0
137 156 0
139 158 0
138 157 0
137 156 0
139 158 0
137 156 0
136 155 0
135 154 0
136 156 0
137 156 0
135 154 0
135 155 0
135 153 0
134 153 0
135 155 0
135 153 0
133 152 0
133 152 0
133 152 0
132 151 0
132 151 0
130 148 0
133 152 0
133 151 0
130 149 0
129 147 0
129 147 0
128 147 0
127 145 0
127 145 0
125 143 0
127 145 0
126 144 0
125 143 0
122 140 0
124 141 0
123 140 0
121 139 0
122 139 0
121 138 0
118 135 0
121 138 0
117 134 0
116 133 0
116 133 0
112 128 0
114 129 0
112 129 0
110 126 0
111 127 0
112 128 0
108 123 0
108 123 0
105 120 0
111 126 0
104 120 0
105 120 0
106 121 0
104 119 0
101 115 0
104 119 0
103 118 0
105 120 0
107 122 0
111 126 0
109 124 0
131 149 0
151 172 0
151 172 0
150 171 0
149 170 0
149 169 0
149 169 0
146 167 0
148 168 0
149 170 0
149 170 0
144 165 0
147 168 0
144 165 0
147 168 0
144 165 0
146 167 0
143 163 0
141 162 0
141 161 0
143 163 0
142 163 0
140 161 0
140 161 0
140 161 0
140 161 0
136 157 0
140 161 0
138 159 0
140 161 0
136 157 0
135 155 0
138 159 0
132 153 0
129 150 19
72 93 53
43 68 61
44 70 68
45 72 71
45 72 72
47 74 76
45 72 75
47 74 79
48 76 81
48 76 82
47 75 80
47 75 79
47 75 84
48 76 83
48 77 82
49 77 87
48 77 83
47 75 81
49 77 89
48 77 88
50 79 94
49 79 89
49 78 90
49 78 91
48 77 86
48 76 84
49 78 88
49 78 90
49 77 88
50 79 87
49 78 90
49 78 90
49 79 91
49 78 88
50 80 93
49 78 88
48 76 88
50 79 95
50 79 90
50 79 93
50 79 92
48 77 86
49 77 85
50 79 91
49 77 88
49 78 89
49 77 92
50 78 89
50 79 92
48 76 85
49 77 87
48 76 84
49 77 89
48 76 86
48 76 88
47 75 82
47 75 81
48 76 86
46 73 81
47 74 81
47 74 79
46 72 75
46 72 77
45 70 75
45 70 74
45 70 69
44 68 67
42 66 68
42 66 63
71 90 52
126 142 8
130 147 0
131 148 0
131 148 0
133 150 0
133 149 0
131 148 0
135 153 0
137 153 0
136 153 0
139 156 0
137 153 0
137 153 0
138 154 0
138 154 0
141 156 0
139 155 0
142 158 0
141 157 0
143 158 0
141 157 0
141 156 0
142 157 0
142 157 0
145 160 0
145 160 0
143 157 0
144 158 0
145 160 0
145 160 0
145 159 0
145 160 0
147 161 0
146 161 0
125 133 20
89 83 26
87 81 22
90 84 18
91 85 17
89 84 10
89 83 12
89 84 10
86 81 8
87 82 2
90 85 3
92 86 4
93 87 3
96 90 5
94 88 3
96 90 5
96 90 5
95 88 4
99 93 5
99 93 4
100 93 4
101 95 5
104 98 3
100 94 4
107 101 4
105 99 4
107 100 4
110 104 3
111 105 4
112 105 4
109 104 3
112 106 4
116 110 5
116 110 4
114 109 4
117 111 5
115 110 4
117 111 5
117 111 5
119 113 4
119 113 4
119 114 3
121 115 4
121 115 3
121 115 4
123 117 4
124 119 3
123 117 5
125 118 3
124 118 4
124 119 4
126 120 4
126 120 4
124 118 4
129 123 4
128 122 4
128 122 3
127 121 6
127 121 5
129 123 4
128 121 6
131 125 5
131 125 4
130 123 5
130 124 6
132 125 7
130 124 4
130 124 4
129 123 5
132 125 5
131 125 7
133 127 8
133 127 4
132 126 8
134 127 10
134 128 10
133 127 9
133 127 11
133 127 16
134 127 17
133 127 14
133 127 16
135 129 14
136 130 17
134 128 18
133 126 18
133 127 20
136 130 20
136 130 22
136 130 24
137 131 22
134 128 20
137 131 24
135 128 25
138 131 26
136 129 27
135 128 26
135 128 27
134 127 26
136 129 30
136 129 30
137 130 32
138 132 32
139 132 35
137 130 34
138 131 34
138 131 35
139 132 35
138 131 38
138 131 37
139 131 39
138 131 36
137 130 38
137 129 37
140 132 39
139 131 38
138 131 41
136 128 39
140 132 43
137 129 39
138 130 41
136 129 41
136 129 42
138 131 46
137 130 43
136 129 44
135 128 43
138 131 46
137 129 45
133 126 40
135 127 43
148 168 0
148 168 0
149 170 0
148 169 0
148 169 0
147 168 0
147 168 0
146 167 0
147 168 0
148 168 0
147 168 0
146 167 0
147 168 0
146 166 0
147 168 0
147 167 0
147 167 0
148 168 0
146 167 0
147 167 0
146 167 0
146 166 0
146 166 0
146 166 0
147 167 0
145 165 0
145 165 0
146 166 0
146 166 0
145 165 0
145 166 0
145 166 0
144 164 0
145 165 0
143 162 0
144 165 0
144 163 0
144 164 0
144 164 0
143 162 0
144 164 0
143 163 0
142 162 0
143 163 0
142 162 0
142 162 0
143 162 0
141 160 0
140 160 0
141 161 0
141 160 0
140 159 0
141 161 0
141 161 0
141 160 0
139 159 0
138 157 0
140 160 0
139 159 0
139 159 0
139 159 0
138 158 0
139 158 0
139 159 0
138 157 0
138 158 0
138 157 0
138 158 0
138 157 0
137 157 0
135 154 0
136 156 0
137 156 0
137 156 0
135 154 0
134 153 0
134 153 0
135 153 0
135 153 0
132 151 0
133 152 0
134 153 0
133 151 0
132 150 0
131 150 0
131 150 0
129 147 0
130 149 0
131 149 0
129 147 0
128 147 0
130 148 0
125 143 0
125 143 0
127 145 0
126 144 0
126 144 0
122 140 0
124 142 0
122 140 0
123 140 0
122 139 0
122 139 0
120 137 0
119 136 0
117 133 0
120 137 0
115 131 0
117 134 0
114 130 0
113 129 0
113 129 0
112 128 0
109 125 0
108 124 0
109 124 0
107 122 0
105 120 0
103 118 0
104 119 0
106 121 0
103 118 0
101 116 0
101 115 0
103 118 0
104 119 0
108 123 0
109 124 0
106 121 0
133 151 0
149 170 0
148 168 0
148 168 0
146 166 0
147 168 0
145 166 0
147 168 0
146 167 0
144 164 0
142 162 0
142 162 0
144 164 0
144 164 0
144 165 0
141 161 0
140 161 0
140 161 0
140 161 0
140 160 0
141 162 0
136 156 0
137 158 0
136 157 0
136 157 0
135 155 0
136 157 0
134 154 0
136 156 0
135 156 0
135 156 0
132 152 0
135 155 0
130 150 0
129 150 0
125 145 0
127 147 11
81 101 46
41 66 59
44 70 66
44 71 68
45 72 73
44 71 69
46 73 75
46 73 78
46 74 76
46 73 77
46 73 77
48 76 83
48 76 81
47 75 78
49 77 86
48 76 82
48 76 88
47 75 80
49 78 83
48 76 84
49 77 88
48 77 86
48 77 85
48 77 86
50 79 91
49 78 89
49 78 84
48 76 86
48 77 86
48 77 86
49 77 88
50 79 89
49 78 85
49 77 91
50 79 91
50 79 91
50 79 92
48 76 86
48 77 85
48 76 86
49 77 87
48 76 80
49 77 86
49 77 87
50 78 89
49 77 86
49 78 89
48 76 83
48 76 89
48 76 85
48 75 84
47 74 79
47 75 84
48 76 87
47 75 82
47 75 81
47 74 78
47 74 80
47 74 80
47 73 82
46 72 77
45 71 75
46 72 77
45 71 74
44 69 68
42 66 65
41 65 60
76 93 44
126 143 9
127 143 0
127 144 0
126 143 0
132 149 0
132 149 0
129 145 0
129 146 0
132 148 0
132 148 0
133 149 0
133 149 0
132 148 0
133 150 0
136 151 0
135 150 0
135 151 0
137 152 0
138 152 0
140 156 0
138 153 0
140 156 0
139 153 0
137 152 0
137 151 0
141 155 0
143 157 0
143 157 0
141 155 0
142 156 0
144 157 0
141 155 0
141 154 0
143 156 0
142 155 0
145 159 0
125 132 13
88 83 21
90 83 21
86 79 13
90 84 13
91 85 12
89 83 12
92 85 11
87 81 6
88 82 3
90 83 4
91 85 2
92 86 4
94 88 4
95 89 3
98 91 3
98 91 4
99 93 4
96 90 3
103 96 3
96 90 4
98 92 4
102 96 4
104 99 5
106 99 4
106 100 4
105 98 4
107 101 3
110 105 3
114 108 3
113 107 4
112 106 4
111 105 4
114 108 4
115 109 4
115 109 4
116 110 3
117 111 4
118 112 4
120 114 5
117 112 4
119 113 3
119 113 4
123 117 3
122 115 5
120 114 5
125 118 4
125 119 4
125 120 5
121 116 3
125 119 5
124 118 4
124 118 5
126 120 4
127 120 4
125 120 4
127 121 5
127 120 4
127 120 5
128 121 6
130 124 4
130 123 5
128 122 5
131 125 5
129 123 5
131 124 4
131 124 6
129 123 6
128 122 4
130 124 5
130 125 4
131 125 5
130 123 6
132 126 9
132 126 10
133 127 8
132 126 11
132 126 12
132 126 12
132 126 11
133 127 12
132 126 13
135 128 13
133 127 16
134 128 17
134 128 14
134 128 20
135 128 16
136 129 22
133 126 20
134 127 24
133 127 21
134 127 24
136 130 22
134 127 25
136 129 27
134 128 25
133 127 26
136 129 30
136 129 29
134 127 27
137 129 33
139 132 33
137 130 33
137 130 33
139 132 36
137 129 31
135 128 33
135 128 33
137 129 36
135 127 33
135 128 33
139 131 40
137 129 41
137 130 38
135 127 39
134 127 39
135 127 38
135 129 37
134 127 37
135 128 37
136 128 39
137 129 45
134 126 39
135 127 42
136 128 43
133 125 41
135 127 43
136 128 42
134 128 41
148 168 0
148 169 0
147 167 0
148 168 0
148 168 0
147 168 0
148 168 0
146 167 0
147 167 0
147 167 0
147 167 0
146 167 0
146 166 0
146 167 0
147 168 0
147 168 0
146 167 0
147 167 0
145 165 0
146 166 0
146 166 0
146 166 0
146 166 0
146 166 0
145 165 0
145 165 0
145 166 0
144 164 0
144 164 0
144 164 0
144 164 0
145 165 0
144 164 0
144 164 0
144 164 0
143 163 0
144 164 0
143 162 0
142 162 0
143 163 0
142 162 0
143 163 0
142 161 0
143 163 0
142 162 0
141 161 0
141 161 0
141 161 0
140 160 0
140 160 0
141 161 0
140 160 0
142 162 0
140 159 0
139 159 0
139 158 0
138 158 0
138 158 0
138 157 0
139 158 0
139 158 0
138 157 0
137 156 0
138 157 0
137 157 0
137 156 0
136 155 0
136 155 0
137 157 0
136 154 0
136 155 0
134 153 0
135 154 0
134 153 0
134 153 0
135 153 0
135 154 0
135 154 0
133 152 0
133 152 0
132 150 0
130 148 0
132 150 0
131 149 0
132 150 0
132 151 0
128 146 0
130 148 0
129 147 0
130 148 0
129 147 0
127 145 0
127 145 0
123 141 0
125 142 0
127 144 0
127 145 0
123 141 0
123 140 0
122 139 0
122 139 0
122 139 0
118 135 0
118 134 0
118 135 0
117 134 0
115 131 0
114 130 0
113 129 0
113 129 0
112 128 0
111 127 0
111 127 0
107 122 0
106 121 0
108 123 0
102 117 0
108 123 0
102 116 0
105 120 0
102 117 0
103 117 0
101 116 0
105 119 0
105 120 0
109 123 0
108 123 0
105 119 0
136 154 0
144 164 0
145 165 0
143 162 0
144 163 0
144 164 0
145 165 0
142 162 0
143 163 0
142 161 0
140 159 0
142 162 0
142 162 0
142 162 0
140 160 0
139 159 0
139 159 0
139 159 0
139 159 0
139 159 0
137 157 0
139 159 0
135 156 0
136 156 0
136 155 0
133 153 0
132 152 0
132 152 0
133 153 0
130 150 0
130 150 0
129 149 0
125 144 0
129 150 0
127 147 0
125 145 0
126 145 0
124 144 0
123 142 9
85 104 36
43 68 59
43 69 65
43 70 64
44 70 71
45 72 70
45 72 76
45 72 72
46 73 77
46 74 75
46 74 78
47 76 82
47 75 77
47 75 82
47 75 78
48 77 84
48 76 82
47 75 81
48 76 83
48 76 87
48 77 85
47 75 81
48 77 84
49 78 90
48 76 86
49 77 89
48 76 84
48 76 85
48 77 83
48 76 84
47 75 80
48 76 83
48 76 85
49 77 84
48 76 86
48 77 82
48 76 78
48 77 89
48 76 83
49 77 86
49 77 86
49 77 89
49 78 90
48 77 88
48 76 85
48 76 89
47 75 82
48 76 85
47 75 85
47 74 85
47 75 83
47 75 81
47 74 81
47 74 82
47 75 78
46 73 80
45 71 79
44 70 72
44 70 69
44 69 69
44 69 70
44 69 67
43 68 68
42 65 59
41 64 53
83 100 42
120 136 5
119 134 0
121 137 0
123 138 0
126 142 0
125 142 0
128 144 0
126 143 0
128 144 0
128 144 0
129 144 0
131 148 0
132 148 0
127 142 0
130 145 0
129 143 0
131 146 0
136 151 0
135 149 0
136 151 0
134 149 0
133 148 0
136 151 0
133 147 0
139 152 0
136 150 0
137 151 0
136 150 0
141 155 0
138 152 0
140 154 0
137 150 0
139 152 0
142 155 0
141 153 0
140 153 0
141 153 0
143 154 0
130 139 12
95 91 23
86 79 19
84 79 15
87 80 15
87 81 13
87 80 8
86 80 5
86 81 6
88 81 4
91 84 4
92 86 3
92 85 4
91 85 3
95 89 3
94 88 4
94 88 3
97 90 3
99 93 3
99 93 3
98 92 3
103 97 4
103 96 5
102 96 3
104 98 3
105 98 4
109 102 4
106 100 3
108 101 5
112 105 4
111 105 3
110 104 4
115 108 3
115 109 5
116 110 4
118 112 4
116 109 4
119 112 4
122 116 4
117 111 3
118 112 4
116 110 3
117 111 4
121 115 4
122 115 3
122 116 4
120 114 3
122 116 5
122 116 4
125 118 6
125 119 3
124 117 3
124 118 4
126 119 6
124 118 3
125 119 5
126 120 4
127 121 4
127 121 5
126 120 5
129 123 4
128 122 5
127 121 5
130 124 5
131 125 4
126 119 5
129 122 5
127 121 4
129 123 5
130 124 6
128 121 6
131 125 5
129 123 5
130 124 4
132 126 6
128 122 8
130 124 9
132 126 6
130 123 11
131 125 10
132 126 10
132 126 14
132 125 14
133 127 16
132 125 15
132 126 16
132 126 16
134 127 19
132 125 18
134 127 19
134 127 23
133 125 22
135 128 25
135 128 25
136 129 27
135 128 27
133 126 24
135 128 24
133 126 28
132 125 25
136 129 29
135 128 30
133 126 31
137 130 30
135 128 33
137 130 34
138 131 34
135 128 33
136 128 35
137 129 36
136 129 33
131 125 34
136 129 34
134 127 34
137 129 36
134 127 36
134 126 37
134 127 37
134 127 40
134 127 37
134 127 42
134 126 40
135 128 40
135 128 40
132 125 39
132 125 39
136 128 43
136 129 45
135 127 43
147 168 0
148 168 0
147 168 0
147 167 0
147 168 0
147 167 0
146 167 0
147 167 0
147 168 0
147 167 0
147 168 0
147 167 0
147 167 0
147 167 0
146 167 0
145 165 0
146 166 0
145 165 0
145 165 0
146 167 0
146 167 0
146 166 0
146 166 0
145 166 0
145 166 0
145 165 0
144 164 0
144 164 0
146 166 0
144 164 0
144 164 0
144 164 0
144 164 0
144 163 0
143 163 0
144 164 0
144 164 0
143 163 0
143 162 0
142 162 0
142 161 0
143 162 0
141 161 0
142 162 0
142 162 0
141 161 0
140 160 0
141 160 0
141 160 0
141 160 0
141 160 0
140 160 0
141 160 0
141 161 0
140 159 0
139 158 0
141 160 0
138 157 0
138 157 0
140 159 0
137 156 0
138 157 0
137 156 0
137 156 0
137 156 0
136 155 0
138 157 0
135 154 0
136 155 0
136 155 0
136 155 0
136 154 0
136 155 0
134 153 0
133 152 0
132 150 0
132 151 0
134 153 0
133 151 0
132 151 0
132 150 0
133 152 0
131 150 0
130 148 0
131 149 0
130 148 0
129 147 0
129 147 0
129 147 0
127 145 0
126 144 0
128 146 0
125 142 0
127 144 0
123 141 0
123 140 0
124 141 0
121 139 0
123 141 0
120 137 0
121 137 0
121 137 0
119 135 0
116 133 0
118 134 0
115 131 0
115 131 0
113 129 0
111 127 0
113 129 0
112 128 0
112 128 0
110 126 0
110 125 0
105 120 0
109 124 0
104 119 0
104 119 0
104 119 0
102 117 0
103 118 0
103 118 0
103 117 0
103 117 0
108 123 0
104 119 0
108 123 0
139 157 0
144 163 0
143 162 0
141 161 0
141 161 0
141 160 0
140 159 0
141 160 0
140 160 0
139 158 0
141 160 0
137 157 0
137 156 0
136 156 0
135 154 0
136 156 0
135 155 0
135 154 0
133 153 0
134 154 0
136 156 0
133 153 0
130 149 0
131 151 0
132 152 0
134 153 0
128 148 0
129 148 0
129 148 0
128 148 0
127 147 0
124 143 0
127 146 0
126 145 0
123 143 0
123 143 0
120 139 0
118 137 0
119 138 0
118 137 0
118 137 0
97 115 35
48 71 55
43 68 62
44 70 68
44 71 70
44 70 69
45 72 70
46 73 73
45 72 72
46 73 76
46 73 79
46 73 73
46 73 74
47 75 81
48 76 81
46 74 76
48 77 85
46 74 78
47 75 83
47 75 76
47 75 81
47 75 82
48 76 81
48 76 83
47 75 84
48 76 84
48 77 85
47 75 83
48 76 83
48 76 83
48 77 85
46 74 76
47 75 82
48 77 86
47 74 80
48 76 84
49 78 84
48 77 85
48 76 82
48 77 83
47 75 81
48 76 81
48 76 85
48 75 84
48 75 84
46 74 77
48 76 85
46 73 78
46 73 75
46 73 75
47 74 82
47 74 78
46 73 77
46 73 77
47 73 78
44 69 69
45 71 74
44 70 68
45 70 70
44 69 73
42 66 63
41 64 58
46 67 52
92 108 32
115 131 0
115 131 0
118 134 0
119 135 0
124 139 0
118 134 0
121 136 0
120 136 0
122 138 0
123 139 0
122 136 0
124 138 0
123 139 0
128 144 0
127 143 0
127 142 0
130 145 0
129 144 0
129 144 0
132 146 0
130 145 0
132 146 0
133 147 0
132 146 0
133 146 0
134 147 0
136 150 0
136 150 0
133 146 0
133 145 0
136 149 0
137 150 0
137 150 0
134 146 0
135 147 0
138 150 0
137 148 0
138 150 0
140 151 0
138 149 0
135 145 9
93 92 18
86 79 20
83 76 15
84 77 11
87 80 10
86 80 9
91 84 5
88 82 5
91 83 4
90 83 3
90 83 4
88 82 4
94 88 2
96 89 4
94 88 3
97 90 4
95 88 4
97 90 3
98 91 4
101 95 3
101 94 3
101 95 3
105 97 4
104 97 5
107 99 4
107 101 3
108 101 4
109 103 4
111 104 3
111 104 5
110 104 4
113 106 3
117 110 4
113 107 4
114 107 2
116 110 2
118 111 6
116 109 3
118 111 2
117 111 4
118 111 2
120 114 3
120 113 4
119 113 4
124 117 5
120 114 4
123 116 4
125 118 5
122 115 5
121 115 4
123 116 4
123 117 4
125 118 4
125 119 3
127 120 4
124 117 4
126 119 3
125 119 4
126 119 5
127 120 4
128 122 4
128 121 5
127 122 4
127 120 5
128 121 5
128 121 5
128 123 4
130 124 5
128 121 4
128 122 5
129 122 5
130 124 5
130 124 5
130 124 5
130 124 6
130 124 5
129 122 9
130 124 12
132 125 12
132 126 13
130 124 14
131 125 13
132 125 13
131 124 16
133 126 17
133 126 17
132 126 14
134 128 20
133 127 20
135 128 21
133 127 20
132 126 21
134 128 24
134 127 24
132 125 22
132 125 23
133 126 28
134 127 28
134 127 26
133 126 26
133 126 28
135 128 30
133 125 28
134 127 29
135 128 33
136 129 35
136 128 33
133 126 29
135 128 35
135 128 33
133 126 32
136 128 35
135 127 37
135 128 35
134 126 38
135 128 38
133 126 37
135 128 39
132 125 36
134 126 38
133 125 39
131 124 35
132 125 40
134 126 43
133 125 43
134 126 41
132 124 43
148 169 0
147 168 0
148 168 0
148 168 0
147 167 0
146 166 0
146 166 0
146 166 0
147 168 0
148 168 0
146 166 0
147 167 0
146 166 0
146 167 0
146 166 0
146 167 0
148 168 0
147 167 0
145 165 0
146 166 0
145 165 0
146 166 0
146 166 0
145 165 0
146 166 0
144 164 0
144 164 0
145 165 0
145 165 0
144 164 0
143 163 0
144 164 0
145 164 0
144 163 0
145 164 0
142 162 0
143 163 0
144 164 0
143 163 0
142 162 0
142 161 0
142 162 0
141 160 0
141 160 0
141 160 0
141 160 0
141 161 0
141 160 0
141 161 0
139 159 0
139 159 0
140 159 0
140 159 0
139 159 0
138 157 0
139 158 0
138 158 0
138 158 0
139 158 0
138 157 0
139 158 0
136 155 0
137 156 0
136 155 0
137 156 0
136 155 0
135 154 0
135 154 0
135 153 0
134 153 0
135 154 0
134 152 0
134 153 0
134 153 0
133 151 0
135 153 0
132 150 0
132 151 0
132 151 0
133 151 0
133 151 0
131 149 0
132 150 0
129 147 0
132 150 0
130 148 0
130 148 0
128 146 0
127 145 0
126 143 0
125 143 0
126 143 0
126 143 0
124 141 0
125 142 0
121 138 0
122 140 0
122 139 0
123 140 0
121 138 0
120 137 0
120 137 0
119 135 0
119 135 0
115 131 0
114 129 0
114 129 0
114 130 0
112 127 0
114 130 0
112 127 0
108 123 0
108 123 0
111 126 0
106 121 0
104 119 0
105 119 0
103 117 0
102 117 0
103 118 0
104 118 0
101 115 0
104 118 0
104 118 0
103 117 0
114 130 0
139 157 0
140 159 0
140 159 0
137 155 0
140 158 0
139 158 0
133 152 0
138 157 0
138 157 0
137 156 0
138 157 0
138 157 0
135 154 0
129 148 0
137 156 0
136 156 0
132 151 0
131 150 0
132 151 0
133 152 0
133 153 0
130 149 0
131 150 0
131 150 0
131 150 0
130 149 0
129 148 0
126 146 0
126 145 0
123 142 0
123 142 0
120 138 0
120 138 0
121 140 0
120 139 0
119 138 0
118 136 0
117 135 0
117 135 0
113 131 0
113 132 0
113 131 0
114 132 0
105 123 17
58 79 48
41 66 57
42 67 55
43 69 65
44 70 66
45 71 73
45 72 67
45 71 71
45 72 72
46 73 74
46 73 77
46 73 74
46 74 75
45 72 76
46 73 75
47 75 79
47 75 81
47 74 78
46 73 73
46 73 75
47 75 83
47 74 78
47 75 78
47 74 79
47 75 81
47 75 78
48 77 81
47 75 79
47 74 78
48 76 82
48 76 79
47 75 82
47 75 80
47 75 78
48 76 86
46 74 78
46 73 75
47 74 78
47 74 81
46 74 78
47 75 79
48 76 80
48 75 83
47 74 80
46 72 78
47 74 81
46 73 77
47 74 83
46 73 74
46 72 71
46 72 71
44 70 73
47 73 79
43 69 65
43 69 67
43 67 63
43 67 62
41 65 61
41 64 58
61 79 48
103 118 16
108 122 0
109 124 0
109 122 0
114 129 0
114 129 0
114 129 0
115 130 0
117 132 0
118 132 0
115 130 0
120 134 0
118 132 0
118 133 0
122 136 0
122 136 0
124 138 0
125 139 0
125 139 0
126 140 0
129 142 0
126 140 0
127 140 0
126 139 0
126 139 0
130 144 0
129 143 0
128 141 0
130 143 0
132 144 0
132 144 0
131 144 0
135 147 0
132 144 0
133 144 0
131 143 0
134 146 0
132 143 0
135 146 0
133 144 0
134 145 0
136 146 0
135 144 0
136 145 3
101 102 14
83 76 16
84 78 12
81 75 10
85 78 9
83 77 6
85 79 5
87 80 2
87 80 3
89 82 3
96 89 3
91 84 2
96 89 3
95 88 3
95 88 4
99 92 3
96 90 2
100 93 4
101 94 5
103 97 4
102 94 3
103 95 4
105 98 3
104 98 3
106 99 3
108 101 3
110 103 3
108 102 3
111 104 4
110 104 4
114 108 4
111 105 3
110 103 4
114 106 4
117 110 5
115 107 4
114 108 5
116 110 5
116 110 3
115 108 3
114 108 5
118 111 5
120 114 4
121 114 3
120 113 4
121 114 3
119 113 4
124 117 4
122 115 4
125 119 4
124 118 5
125 118 4
122 115 4
125 118 4
127 120 4
125 118 4
125 118 5
128 121 4
126 119 4
124 118 5
126 119 4
126 119 5
124 118 5
126 120 3
128 121 4
127 121 4
127 120 7
128 122 5
129 123 5
129 122 4
130 124 4
131 124 5
130 123 5
130 124 6
128 123 5
129 123 7
131 125 8
129 123 7
131 124 10
129 122 11
130 124 10
131 124 11
132 125 14
129 123 11
130 123 16
130 124 16
131 123 17
130 124 16
131 124 19
131 124 19
131 125 20
133 125 19
129 122 20
132 126 23
131 124 24
132 125 25
132 125 27
134 126 31
131 124 24
134 127 29
131 124 23
132 126 25
131 125 27
132 125 28
133 126 28
132 125 30
132 125 35
131 124 31
133 126 30
135 128 33
134 127 32
134 126 37
135 127 33
133 125 36
133 125 34
133 126 38
133 126 39
133 126 40
132 125 36
131 124 39
130 123 36
132 125 37
132 125 39
131 124 42
132 124 42
130 123 42
147 168 0
148 168 0
147 167 0
147 168 0
147 167 0
147 167 0
147 167 0
148 168 0
146 166 0
146 167 0
147 167 0
147 167 0
146 167 0
145 165 0
147 167 0
146 166 0
145 166 0
146 167 0
146 166 0
146 166 0
146 166 0
146 165 0
144 164 0
144 164 0
147 167 0
144 164 0
144 164 0
144 164 0
144 163 0
144 164 0
143 163 0
144 163 0
145 164 0
143 163 0
144 164 0
143 163 0
143 163 0
143 162 0
142 161 0
143 163 0
143 162 0
141 160 0
141 161 0
141 160 0
140 159 0
142 161 0
142 162 0
140 160 0
140 159 0
140 159 0
140 159 0
140 159 0
138 157 0
140 159 0
139 157 0
138 157 0
139 158 0
138 157 0
138 157 0
138 157 0
138 156 0
137 156 0
138 157 0
138 157 0
137 155 0
135 154 0
136 154 0
135 154 0
136 154 0
134 153 0
136 154 0
134 152 0
135 153 0
134 152 0
134 152 0
134 152 0
134 152 0
131 149 0
134 153 0
129 147 0
133 151 0
131 149 0
131 149 0
130 148 0
128 146 0
128 147 0
127 145 0
126 144 0
128 146 0
127 144 0
124 141 0
128 145 0
122 140 0
124 141 0
123 141 0
123 140 0
122 139 0
119 135 0
118 134 0
117 133 0
118 135 0
117 134 0
116 133 0
117 133 0
116 132 0
114 129 0
114 130 0
110 126 0
111 126 0
111 126 0
110 125 0
106 121 0
107 122 0
107 121 0
104 119 0
103 117 0
105 119 0
103 118 0
100 114 0
103 117 0
101 115 0
102 116 0
102 116 0
98 112 0
123 139 0
137 155 0
137 155 0
136 154 0
135 153 0
138 156 0
136 154 0
135 153 0
135 154 0
132 150 0
133 151 0
134 153 0
134 153 0
132 150 0
131 150 0
131 149 0
131 150 0
131 149 0
130 149 0
130 148 0
128 146 0
127 145 0
131 150 0
126 145 0
128 147 0
126 144 0
128 146 0
122 141 0
122 141 0
121 140 0
122 140 0
121 139 0
119 137 0
119 137 0
120 139 0
119 137 0
117 135 0
114 132 0
111 129 0
111 129 0
111 129 0
109 127 0
109 126 0
107 125 0
106 124 0
106 123 0
105 122 5
79 97 34
45 68 54
41 67 61
43 68 61
44 70 67
43 69 66
44 70 71
43 69 70
44 71 72
45 71 69
46 73 78
44 71 66
45 72 71
46 74 77
45 73 72
45 73 74
46 73 78
47 75 77
46 74 77
47 75 78
46 73 73
47 74 75
46 73 76
46 73 75
48 76 79
46 74 75
46 74 77
47 75 80
46 74 78
46 73 75
47 75 77
48 76 80
46 74 76
47 74 80
47 75 78
46 73 78
47 75 81
45 72 75
46 74 75
46 73 74
46 73 77
47 74 78
45 72 69
47 75 78
46 73 79
46 73 73
45 72 78
45 71 71
45 71 76
44 70 72
44 70 68
44 70 69
42 67 64
43 68 64
43 68 63
42 67 64
42 64 48
80 95 32
103 118 0
107 121 0
107 122 0
109 123 0
105 119 0
108 121 0
115 129 0
113 127 0
111 125 0
112 127 0
116 131 0
116 130 0
113 126 0
117 132 0
113 126 0
115 128 0
119 133 0
117 131 0
122 136 0
124 137 0
121 133 0
125 139 0
125 138 0
122 135 0
124 138 0
123 136 0
124 137 0
125 138 0
128 141 0
126 138 0
128 139 0
130 141 0
127 138 0
128 139 0
128 139 0
129 140 0
130 141 0
129 140 0
131 141 0
129 138 0
129 139 0
129 137 0
132 140 0
131 140 0
134 142 0
131 139 0
114 118 11
85 79 17
82 75 10
85 78 13
83 76 8
86 80 7
83 77 2
87 81 3
90 82 4
91 83 3
91 84 3
93 86 4
91 84 1
93 86 1
94 88 3
94 88 3
97 90 3
97 89 5
99 92 4
100 93 3
103 96 5
105 98 5
103 95 5
104 97 3
107 100 3
108 100 2
109 101 4
108 102 4
109 103 3
110 103 4
111 103 3
111 104 4
114 107 4
112 105 4
114 107 3
114 107 2
115 109 3
117 110 4
115 108 3
118 111 4
117 110 4
117 110 3
118 112 4
118 111 5
119 112 3
118 111 3
122 115 4
121 114 5
119 112 3
123 117 3
119 113 3
122 115 6
124 117 5
123 116 5
122 115 5
125 118 4
122 115 4
126 120 5
126 119 3
125 119 4
124 118 5
127 120 4
124 117 6
126 120 3
126 120 4
126 119 5
127 120 5
129 123 4
128 122 4
127 121 5
128 122 5
126 119 4
125 119 5
129 122 6
128 121 6
129 122 7
127 121 6
129 122 9
130 124 9
130 123 9
128 122 12
128 122 11
130 124 13
131 125 14
128 121 13
132 125 15
131 125 15
131 125 18
131 124 18
133 125 20
128 122 18
133 126 21
130 124 21
133 126 21
129 122 21
131 124 22
130 123 21
130 122 25
132 125 23
131 124 23
129 122 25
129 122 26
132 125 28
132 126 29
132 125 29
132 125 30
131 124 32
132 125 31
129 121 32
134 126 34
128 121 31
133 125 35
133 125 36
130 123 34
131 124 35
133 126 36
132 124 37
131 124 36
131 124 36
132 124 37
131 124 34
129 122 38
129 122 37
131 124 42
130 123 39
147 168 0
148 168 0
147 167 0
147 167 0
147 168 0
147 167 0
147 168 0
147 167 0
147 168 0
146 166 0
146 166 0
147 167 0
144 164 0
146 166 0
145 165 0
146 166 0
146 167 0
146 166 0
145 165 0
145 165 0
145 164 0
145 165 0
146 166 0
144 163 0
144 164 0
145 165 0
145 165 0
144 164 0
144 164 0
145 164 0
143 162 0
144 163 0
144 163 0
143 162 0
142 162 0
143 162 0
143 162 0
141 160 0
143 162 0
142 161 0
142 162 0
141 160 0
143 162 0
140 159 0
142 161 0
140 159 0
142 161 0
141 160 0
141 160 0
139 158 0
139 158 0
138 156 0
139 158 0
139 158 0
138 157 0
137 156 0
138 157 0
138 156 0
139 158 0
136 154 0
136 154 0
136 155 0
138 157 0
136 155 0
135 154 0
137 155 0
135 154 0
134 153 0
135 153 0
133 152 0
133 152 0
134 152 0
133 152 0
132 151 0
131 149 0
133 151 0
131 149 0
131 149 0
132 151 0
131 149 0
131 149 0
130 148 0
128 146 0
128 146 0
129 147 0
128 146 0
127 144 0
126 143 0
126 144 0
126 143 0
124 141 0
125 142 0
123 140 0
120 137 0
124 140 0
121 138 0
123 139 0
121 137 0
121 137 0
116 132 0
119 135 0
116 132 0
117 133 0
119 135 0
112 127 0
115 131 0
114 129 0
108 124 0
112 127 0
107 121 0
108 123 0
106 121 0
107 122 0
105 120 0
103 118 0
102 116 0
101 114 0
101 115 0
101 114 0
102 115 0
100 114 0
102 115 0
103 116 0
128 145 0
132 149 0
135 152 0
134 152 0
132 150 0
133 151 0
137 155 0
130 148 0
131 149 0
131 148 0
130 148 0
132 150 0
131 150 0
130 148 0
129 147 0
132 150 0
131 149 0
128 146 0
130 148 0
125 143 0
126 144 0
126 144 0
124 142 0
125 143 0
124 142 0
123 141 0
122 140 0
123 141 0
119 137 0
124 142 0
119 138 0
117 136 0
121 139 0
115 134 0
117 135 0
115 133 0
115 133 0
111 129 0
114 133 0
112 130 0
112 130 0
109 127 0
108 126 0
104 121 0
107 124 0
107 124 0
103 120 0
100 117 0
97 113 0
92 108 16
59 78 39
41 66 54
42 67 54
42 67 59
42 67 60
43 68 65
43 69 68
43 70 65
44 71 69
45 72 69
44 71 70
43 70 67
45 72 75
45 72 69
45 72 77
45 71 73
45 72 71
47 75 74
46 74 75
45 72 73
45 72 73
46 74 75
47 74 79
46 73 78
47 75 78
46 74 75
46 73 74
46 74 77
46 74 75
45 72 70
46 73 79
45 72 73
45 72 73
46 73 75
45 71 73
46 73 74
46 72 74
45 72 72
45 72 69
45 72 70
45 72 75
44 70 67
45 72 71
44 71 73
45 72 76
43 69 67
44 71 66
43 68 71
44 70 70
43 68 66
42 66 61
40 63 50
39 62 53
56 73 42
91 104 18
97 110 0
100 113 0
103 116 0
102 116 0
104 117 0
105 118 0
107 120 0
110 123 0
109 122 0
107 120 0
107 121 0
112 125 0
108 121 0
117 131 0
114 128 0
113 126 0
115 129 0
120 134 0
118 132 0
118 131 0
115 128 0
119 133 0
120 132 0
119 131 0
123 136 0
122 135 0
119 131 0
123 136 0
124 136 0
123 136 0
126 138 0
126 138 0
127 138 0
125 136 0
124 134 0
124 134 0
125 135 0
126 135 0
127 137 0
127 136 0
128 136 0
127 136 0
126 134 0
124 132 0
127 135 0
126 133 0
130 138 0
126 132 0
122 129 6
91 88 14
86 79 15
81 73 11
83 75 5
83 76 7
86 79 5
86 80 2
88 81 3
86 79 3
89 81 5
90 82 4
90 84 2
92 85 4
95 87 5
98 90 2
99 92 3
96 88 4
102 94 4
101 94 4
101 93 4
103 96 2
102 95 3
104 97 3
103 95 2
105 97 4
109 101 4
109 101 3
107 99 3
109 102 3
110 103 4
112 104 3
113 107 4
113 106 4
111 105 4
113 106 4
114 106 4
115 109 3
118 111 3
118 111 5
116 108 4
120 113 4
117 110 4
116 109 3
120 113 4
120 113 5
120 114 4
119 112 4
121 115 5
120 114 4
122 116 4
123 116 4
121 115 5
121 114 3
123 116 4
123 116 4
123 116 4
126 119 4
122 116 4
125 118 3
124 117 5
124 118 4
126 120 4
124 117 5
125 118 5
127 120 6
128 121 4
126 119 4
127 121 5
126 120 5
126 120 4
127 120 5
127 120 5
128 121 6
127 121 5
129 123 4
130 123 7
129 122 5
126 120 5
126 120 8
128 121 6
130 123 12
128 122 11
129 122 13
130 124 13
129 123 14
129 123 16
128 121 14
129 123 18
129 122 18
132 125 18
130 124 19
130 122 21
133 126 22
132 125 22
130 122 23
130 123 24
128 122 20
130 122 26
131 124 25
130 123 25
130 123 23
132 125 29
130 123 29
129 122 28
131 124 28
130 123 29
130 122 30
132 125 35
128 121 30
128 121 32
129 123 31
131 123 36
133 126 32
130 123 36
130 123 34
131 123 37
129 122 34
131 124 38
126 118 35
132 125 40
130 123 40
129 122 36
126 119 38
147 168 0
147 167 0
147 167 0
147 167 0
146 167 0
148 168 0
148 168 0
146 167 0
145 165 0
146 167 0
146 166 0
146 167 0
145 165 0
146 166 0
146 165 0
145 165 0
144 164 0
144 164 0
145 165 0
145 165 0
144 164 0
143 163 0
145 165 0
145 164 0
144 164 0
145 165 0
143 162 0
144 164 0
144 164 0
144 163 0
143 163 0
143 162 0
143 162 0
143 163 0
143 162 0
143 162 0
142 161 0
142 161 0
142 162 0
143 162 0
141 160 0
142 161 0
141 160 0
140 159 0
142 161 0
140 159 0
141 160 0
140 159 0
140 158 0
139 157 0
141 159 0
139 158 0
139 158 0
139 158 0
139 157 0
138 156 0
138 156 0
137 155 0
137 155 0
138 157 0
135 154 0
138 156 0
134 153 0
136 155 0
135 154 0
135 153 0
135 153 0
134 152 0
136 154 0
133 152 0
134 152 0
134 153 0
133 151 0
132 150 0
130 148 0
131 149 0
132 150 0
130 148 0
129 147 0
128 146 0
130 148 0
128 145 0
128 146 0
130 148 0
126 144 0
127 145 0
126 143 0
124 141 0
124 141 0
125 142 0
122 139 0
124 141 0
123 140 0
122 139 0
123 139 0
121 138 0
116 132 0
121 137 0
120 137 0
116 132 0
119 135 0
117 133 0
114 130 0
114 129 0
113 128 0
113 129 0
110 125 0
109 124 0
110 125 0
107 121 0
104 119 0
105 120 0
105 119 0
104 118 0
104 118 0
100 114 0
97 111 0
98 111 0
98 111 0
99 112 0
94 106 0
110 123 0
131 147 0
132 148 0
131 148 0
130 146 0
130 147 0
130 147 0
132 149 0
129 146 0
130 147 0
126 144 0
127 144 0
125 142 0
127 144 0
128 146 0
125 143 0
125 142 0
127 145 0
127 144 0
126 143 0
123 141 0
126 144 0
121 139 0
120 138 0
119 136 0
121 139 0
123 141 0
120 138 0
122 140 0
119 137 0
118 136 0
118 136 0
117 135 0
113 130 0
114 132 0
113 131 0
113 131 0
111 129 0
113 131 0
116 133 0
109 126 0
109 127 0
111 128 0
105 122 0
103 120 0
105 122 0
100 117 0
103 120 0
97 113 0
97 113 0
96 112 0
90 106 0
94 110 0
78 94 20
49 70 46
41 65 50
41 66 55
41 66 60
43 69 65
43 69 62
43 69 67
43 70 62
44 70 64
43 70 63
45 71 68
44 70 69
45 71 70
44 71 66
44 71 68
45 72 72
45 72 71
44 71 69
45 72 68
43 69 65
45 72 73
45 72 74
45 71 72
45 72 74
45 72 73
45 71 70
45 72 72
45 72 71
45 71 73
44 71 71
44 70 69
45 72 70
44 70 66
45 72 73
44 70 69
45 71 68
44 70 70
44 70 67
44 71 70
44 70 67
45 71 70
44 70 66
43 68 64
43 68 68
41 66 58
42 67 60
42 67 58
41 65 59
39 62 50
48 66 43
73 87 26
89 101 0
91 103 0
91 103 0
98 111 0
102 115 0
100 113 0
101 114 0
103 116 0
101 115 0
105 117 0
108 122 0
109 123 0
106 120 0
109 123 0
110 123 0
113 127 0
111 124 0
112 126 0
115 128 0
112 126 0
114 127 0
113 125 0
114 126 0
117 130 0
116 128 0
115 127 0
123 135 0
118 130 0
115 127 0
120 131 0
118 129 0
120 131 0
122 134 0
122 132 0
120 130 0
120 130 0
120 130 0
123 133 0
122 131 0
123 132 0
121 130 0
120 128 0
124 133 0
124 133 0
122 128 0
125 133 0
126 132 0
119 126 0
127 133 0
124 129 0
124 128 0
121 125 0
97 96 11
83 76 13
76 69 9
82 76 9
84 76 6
83 76 4
85 78 4
85 79 2
87 80 4
89 82 2
93 85 4
89 81 2
94 86 3
92 85 3
95 87 3
95 88 3
96 89 1
98 90 4
101 93 4
98 91 3
102 94 3
100 93 4
104 96 3
105 97 4
103 96 4
105 97 3
109 101 4
108 101 3
109 102 4
109 102 3
113 105 4
112 104 5
117 110 4
111 104 4
113 106 3
114 107 3
112 104 3
115 107 5
115 107 5
115 108 4
117 110 4
117 109 3
116 109 3
117 109 4
120 113 3
118 110 3
118 111 3
118 111 4
120 113 3
121 115 5
119 113 4
122 115 4
121 114 5
123 116 4
122 115 4
124 118 5
121 114 4
123 116 5
123 116 4
127 121 4
125 119 4
125 119 4
124 117 5
124 117 4
125 118 3
126 119 4
126 120 6
125 118 5
127 120 3
126 119 5
125 118 5
127 120 6
127 120 4
126 119 4
128 122 4
127 121 6
128 121 7
128 121 8
128 121 8
129 123 11
127 120 9
127 121 9
131 124 14
128 122 13
126 119 14
129 122 17
131 124 19
127 120 16
128 121 19
127 121 16
132 125 20
131 124 22
129 123 18
127 121 17
129 122 22
127 120 21
129 122 24
131 124 27
128 122 23
130 123 25
130 123 24
130 124 28
130 123 29
132 126 28
130 123 30
130 123 30
130 123 32
131 124 31
131 123 35
130 123 33
131 123 33
130 122 34
128 120 36
130 122 36
131 123 34
130 123 34
130 122 38
129 121 36
127 121 37
129 122 37
131 124 39
127 120 38
147 167 0
147 167 0
146 167 0
146 166 0
146 166 0
147 167 0
145 165 0
147 167 0
145 165 0
146 166 0
146 166 0
145 165 0
147 167 0
145 164 0
145 165 0
145 165 0
145 165 0
145 165 0
144 164 0
145 165 0
144 163 0
145 164 0
144 164 0
143 163 0
145 165 0
143 163 0
143 163 0
145 164 0
142 162 0
144 163 0
144 164 0
143 162 0
145 164 0
142 161 0
143 162 0
141 160 0
141 160 0
142 161 0
140 159 0
142 161 0
141 160 0
141 160 0
141 160 0
140 159 0
141 160 0
141 160 0
141 159 0
139 157 0
140 159 0
140 159 0
140 159 0
138 157 0
139 158 0
138 156 0
139 157 0
136 155 0
138 156 0
137 155 0
137 156 0
137 156 0
136 155 0
137 155 0
135 153 0
137 155 0
135 154 0
135 154 0
135 154 0
135 154 0
133 150 0
133 151 0
133 151 0
131 149 0
134 152 0
131 149 0
131 149 0
131 149 0
131 148 0
130 147 0
129 146 0
129 147 0
128 145 0
129 146 0
127 145 0
127 144 0
128 145 0
127 144 0
126 143 0
127 144 0
125 142 0
123 140 0
123 139 0
124 141 0
123 139 0
121 138 0
121 137 0
121 136 0
121 137 0
118 134 0
116 132 0
117 133 0
115 131 0
113 128 0
114 129 0
113 128 0
110 125 0
110 125 0
112 127 0
109 123 0
107 122 0
105 119 0
106 120 0
105 119 0
102 116 0
100 114 0
99 113 0
101 114 0
99 112 0
98 111 0
93 106 0
95 107 0
120 134 0
128 144 0
128 144 0
128 144 0
125 142 0
128 144 0
124 140 0
125 141 0
127 144 0
125 142 0
127 143 0
124 141 0
124 142 0
123 140 0
123 140 0
125 142 0
122 139 0
126 143 0
123 140 0
124 142 0
122 140 0
123 141 0
118 135 0
121 139 0
120 137 0
120 137 0
118 136 0
117 135 0
118 136 0
118 136 0
117 135 0
112 129 0
112 129 0
114 132 0
113 131 0
111 129 0
113 131 0
106 123 0
113 130 0
108 126 0
109 127 0
104 121 0
106 123 0
102 119 0
104 121 0
102 118 0
104 121 0
102 118 0
98 114 0
100 116 0
94 110 0
95 110 0
90 105 0
91 106 0
85 99 0
85 99 0
70 85 28
46 67 36
40 65 52
40 65 51
41 66 54
41 66 59
43 69 65
42 68 60
43 69 64
43 69 63
44 70 67
43 69 65
43 69 61
44 71 70
44 71 65
43 69 66
44 70 67
44 70 65
43 69 65
45 71 68
44 70 65
44 70 68
44 70 65
44 71 66
43 69 67
44 71 67
45 72 69
45 71 73
44 70 62
42 68 64
44 71 68
44 70 67
42 67 59
44 70 69
43 68 66
43 68 66
44 70 66
43 68 64
43 69 66
42 67 62
41 66 55
42 67 60
41 66 59
40 65 52
41 64 60
38 61 48
45 65 44
68 81 20
82 93 9
86 97 0
88 99 0
88 99 0
92 104 0
94 106 0
95 108 0
96 108 0
103 116 0
103 115 0
101 113 0
96 109 0
103 115 0
106 119 0
104 116 0
106 119 0
107 119 0
108 120 0
108 121 0
109 122 0
109 121 0
109 122 0
109 121 0
110 123 0
113 124 0
114 126 0
113 125 0
114 126 0
114 126 0
115 125 0
118 130 0
118 129 0
116 127 0
116 126 0
114 124 0
116 126 0
118 128 0
118 127 0
121 130 0
117 126 0
120 129 0
121 130 0
118 125 0
118 126 0
118 124 0
121 128 0
120 127 0
117 123 0
116 121 0
120 125 0
120 125 0
120 125 0
119 123 0
121 124 0
121 125 0
112 114 6
85 80 6
79 72 8
77 70 4
78 71 5
87 79 5
83 76 3
82 75 2
87 80 2
85 77 4
89 81 3
88 81 2
91 84 4
94 86 2
97 89 2
99 90 4
96 89 3
95 86 2
99 91 3
102 93 3
101 93 3
103 95 3
104 96 4
105 98 3
107 99 5
106 99 2
107 100 3
107 99 4
110 103 5
107 100 4
111 104 3
114 106 3
113 105 3
114 106 4
114 106 4
114 105 3
113 106 4
116 108 4
117 110 4
119 112 3
115 108 3
118 111 4
118 110 6
115 108 4
118 111 4
118 111 4
119 112 3
120 112 5
123 115 4
120 113 3
122 114 5
118 112 5
123 116 4
120 114 2
122 115 3
123 115 3
122 115 3
123 116 4
124 117 5
124 118 4
124 116 3
122 115 4
125 118 5
122 116 4
124 117 6
125 118 3
125 118 5
125 118 4
124 117 4
126 120 4
124 117 5
129 123 4
127 119 6
125 117 5
127 121 4
125 119 4
126 120 3
124 118 6
126 119 7
127 121 12
127 121 13
128 121 13
128 121 13
127 120 15
125 119 13
128 122 14
127 121 17
126 120 18
130 123 18
128 120 19
126 119 17
126 119 18
128 121 20
130 124 25
129 122 22
129 122 22
131 124 25
127 120 22
126 119 24
126 119 22
130 123 27
128 121 25
126 119 25
130 123 26
131 124 33
131 123 31
130 123 29
129 121 31
125 118 28
130 123 31
128 121 32
128 121 32
128 121 33
128 121 31
129 122 34
129 121 37
126 119 34
126 120 35
129 121 40
127 120 36
129 122 42
147 167 0
147 168 0
147 167 0
147 167 0
146 166 0
147 167 0
146 165 0
145 165 0
146 166 0
146 166 0
145 165 0
145 165 0
146 166 0
145 165 0
146 165 0
145 165 0
145 165 0
145 165 0
144 163 0
145 164 0
144 163 0
144 164 0
144 164 0
144 163 0
144 164 0
144 164 0
144 163 0
143 162 0
144 163 0
143 163 0
143 162 0
142 161 0
144 163 0
142 161 0
142 161 0
143 162 0
142 161 0
142 161 0
141 160 0
140 159 0
141 160 0
141 160 0
140 159 0
141 159 0
140 159 0
140 159 0
141 159 0
141 159 0
139 157 0
139 158 0
139 158 0
138 157 0
139 157 0
138 156 0
138 156 0
137 155 0
138 156 0
136 154 0
136 154 0
136 155 0
135 153 0
135 154 0
135 153 0
133 151 0
135 153 0
135 153 0
134 152 0
132 150 0
132 150 0
134 151 0
132 150 0
132 150 0
130 148 0
130 148 0
130 148 0
131 149 0
130 148 0
129 147 0
129 146 0
128 145 0
128 145 0
127 144 0
127 145 0
127 144 0
127 144 0
124 141 0
125 142 0
126 142 0
124 140 0
123 140 0
120 137 0
122 139 0
122 139 0
121 138 0
120 137 0
117 133 0
118 133 0
118 134 0
116 132 0
119 135 0
117 132 0
115 131 0
111 126 0
111 126 0
108 122 0
110 125 0
108 122 0
106 121 0
106 120 0
105 118 0
102 115 0
101 114 0
100 113 0
99 112 0
97 110 0
97 111 0
91 104 0
93 105 0
105 119 0
124 139 0
124 139 0
123 138 0
123 138 0
125 140 0
123 139 0
123 139 0
123 139 0
121 137 0
121 137 0
124 140 0
123 139 0
122 139 0
121 137 0
121 138 0
123 139 0
124 141 0
125 142 0
120 137 0
121 138 0
121 138 0
120 138 0
117 134 0
118 136 0
120 138 0
118 135 0
118 135 0
123 140 0
117 134 0
114 132 0
116 133 0
115 132 0
111 129 0
111 128 0
111 128 0
112 129 0
110 128 0
109 126 0
109 127 0
107 124 0
107 124 0
105 122 0
105 121 0
103 120 0
103 119 0
105 122 0
105 121 0
103 120 0
99 115 0
98 113 0
96 112 0
91 107 0
92 107 0
89 104 0
93 108 0
84 98 0
84 98 0
85 99 0
81 94 8
63 77 24
45 64 36
38 62 43
40 65 49
41 66 53
41 65 56
41 66 54
40 65 55
42 67 60
41 66 57
42 68 60
42 68 63
42 68 61
42 68 61
42 67 62
43 69 62
43 69 64
44 71 69
43 69 62
43 69 62
44 70 65
43 68 61
42 68 63
43 68 63
42 68 59
43 69 66
43 70 65
43 68 60
43 69 64
43 68 64
43 69 62
43 69 60
42 67 62
41 66 56
42 67 59
42 67 64
41 65 59
39 63 54
41 66 55
40 64 52
37 60 42
37 59 47
45 63 42
68 80 18
79 90 5
81 92 0
84 95 0
79 90 0
86 97 0
89 101 0
90 100 0
90 101 0
95 107 0
92 104 0
94 105 0
100 112 0
98 111 0
106 118 0
100 112 0
100 113 0
102 114 0
104 117 0
106 117 0
107 119 0
109 122 0
107 119 0
108 120 0
109 121 0
108 119 0
110 122 0
110 122 0
113 125 0
112 124 0
112 123 0
114 125 0
113 124 0
114 125 0
113 124 0
114 124 0
111 122 0
114 123 0
116 126 0
115 124 0
115 124 0
113 122 0
118 127 0
118 127 0
118 127 0
117 126 0
116 124 0
118 126 0
121 129 0
115 122 0
116 123 0
117 122 0
117 122 0
118 123 0
118 122 0
116 120 0
115 118 0
116 119 0
114 116 0
110 112 0
96 93 7
77 69 8
78 71 2
78 70 4
81 73 2
82 75 2
85 77 3
85 77 4
86 79 3
90 82 2
90 82 3
92 84 3
92 84 3
92 85 4
91 83 2
95 87 4
95 86 2
100 91 3
101 93 3
100 92 5
103 95 3
103 95 3
103 95 2
105 97 4
104 96 5
106 99 4
107 100 4
109 101 4
108 100 3
109 102 2
110 103 2
111 104 3
113 105 3
113 105 4
112 105 4
115 107 2
114 106 3
113 106 3
116 109 3
115 107 3
115 108 3
116 109 4
116 108 4
117 110 4
115 107 3
117 110 4
118 111 3
118 110 4
122 114 4
117 110 3
120 112 5
120 113 3
121 114 5
120 113 4
120 112 4
121 113 5
119 111 5
123 116 5
124 117 4
123 116 4
123 115 5
123 116 4
122 115 4
123 116 3
124 118 6
124 116 5
125 118 5
126 119 4
124 117 4
124 117 3
124 117 3
127 120 5
125 118 5
124 117 5
128 121 6
124 118 6
127 120 6
126 119 9
127 121 9
125 118 8
127 120 14
126 119 11
127 121 13
128 121 15
127 120 15
125 118 16
127 121 18
126 119 15
128 121 15
127 121 16
127 120 19
126 119 19
127 120 20
129 121 23
128 121 22
130 123 24
129 121 25
127 119 24
126 119 23
128 121 26
127 120 28
125 118 26
125 118 26
127 120 27
129 121 29
129 122 30
126 119 29
125 118 30
128 120 32
127 119 31
126 119 30
128 121 35
124 117 33
127 120 35
125 118 34
124 117 35
124 117 33
125 117 34
127 118 39
148 168 0
146 166 0
146 166 0
146 166 0
146 166 0
147 167 0
146 166 0
145 165 0
145 165 0
145 165 0
145 165 0
146 166 0
147 166 0
146 166 0
145 165 0
146 166 0
145 164 0
145 164 0
144 163 0
144 163 0
145 164 0
144 164 0
144 163 0
143 162 0
143 162 0
144 163 0
143 162 0
144 163 0
143 162 0
143 162 0
143 163 0
144 163 0
142 161 0
142 161 0
142 161 0
141 160 0
143 161 0
141 160 0
142 160 0
140 159 0
141 159 0
140 158 0
140 159 0
141 160 0
140 158 0
139 158 0
140 159 0
139 158 0
140 159 0
140 158 0
138 156 0
138 156 0
139 157 0
135 153 0
135 153 0
138 156 0
137 155 0
136 154 0
136 154 0
136 154 0
134 152 0
135 153 0
135 153 0
134 152 0
134 151 0
132 150 0
133 150 0
133 151 0
132 150 0
131 148 0
129 147 0
132 150 0
129 147 0
127 144 0
130 148 0
129 146 0
130 148 0
128 146 0
129 146 0
127 144 0
128 145 0
125 142 0
127 144 0
126 143 0
123 139 0
124 141 0
125 141 0
124 141 0
122 138 0
123 139 0
122 138 0
119 135 0
119 135 0
118 134 0
118 134 0
119 135 0
117 133 0
117 133 0
116 131 0
114 129 0
111 126 0
112 127 0
111 125 0
106 121 0
107 121 0
108 122 0
106 120 0
106 119 0
102 116 0
104 118 0
100 114 0
101 114 0
96 109 0
95 108 0
96 109 0
92 104 0
97 109 0
115 128 0
119 134 0
118 133 0
120 135 0
117 131 0
120 135 0
117 131 0
119 134 0
121 137 0
117 133 0
119 135 0
120 136 0
117 133 0
118 134 0
121 137 0
119 135 0
121 137 0
115 132 0
119 135 0
119 135 0
119 136 0
115 131 0
119 136 0
118 135 0
119 136 0
120 137 0
119 137 0
117 134 0
117 134 0
115 132 0
114 131 0
114 131 0
114 132 0
115 132 0
112 129 0
112 130 0
113 131 0
110 128 0
106 123 0
111 128 0
107 125 0
110 128 0
107 123 0
103 120 0
104 121 0
107 124 0
101 117 0
100 116 0
101 117 0
98 114 0
97 112 0
97 113 0
94 109 0
92 107 0
91 106 0
87 102 0
90 105 0
85 99 0
80 93 0
80 93 0
81 94 0
78 90 0
74 86 0
63 76 17
48 65 28
40 62 41
38 61 46
39 63 43
39 63 46
40 65 48
41 66 51
41 66 51
40 64 53
41 66 54
42 67 56
41 67 53
42 67 59
41 66 53
42 67 56
41 66 50
42 68 60
42 68 62
41 67 56
42 67 55
41 67 55
42 67 59
42 67 61
41 66 56
42 68 56
42 67 54
41 66 53
41 66 56
40 64 53
40 64 54
40 64 51
40 64 54
39 63 51
39 63 51
39 62 47
38 62 48
38 58 38
49 64 35
62 73 17
73 82 0
77 87 0
81 91 0
81 90 0
81 91 0
84 95 0
89 99 0
86 98 0
90 101 0
91 102 0
90 101 0
95 107 0
93 104 0
95 106 0
100 112 0
98 110 0
99 111 0
101 112 0
103 115 0
104 116 0
104 116 0
107 119 0
111 123 0
106 118 0
106 117 0
111 123 0
109 121 0
111 122 0
112 123 0
112 124 0
110 120 0
114 125 0
109 120 0
112 123 0
114 125 0
111 122 0
112 121 0
113 123 0
112 123 0
114 123 0
111 121 0
114 123 0
112 122 0
114 122 0
112 120 0
113 121 0
112 119 0
114 121 0
114 121 0
113 119 0
115 121 0
113 118 0
113 119 0
112 116 0
112 116 0
112 115 0
111 115 0
112 115 0
111 113 0
109 111 0
111 112 0
109 110 0
101 101 1
85 80 7
74 66 5
80 72 3
78 70 3
82 74 3
84 76 1
81 72 2
85 77 3
88 80 3
90 82 3
89 80 3
93 83 4
93 85 3
96 88 3
95 86 2
100 91 3
95 87 3
100 91 4
99 91 3
100 92 3
102 93 4
100 92 2
103 95 3
103 95 4
103 95 3
105 97 5
108 100 4
109 101 5
109 101 4
109 100 3
111 103 3
111 103 4
112 104 3
111 102 4
114 105 4
112 104 4
114 106 5
113 105 4
116 108 4
115 108 2
117 109 5
116 108 4
117 109 3
118 110 3
118 110 3
119 111 5
117 110 4
119 111 3
118 111 3
119 112 4
118 111 4
119 112 4
120 113 5
122 114 3
119 111 4
122 115 4
120 112 5
123 116 4
121 114 4
122 114 4
121 115 4
122 115 4
123 116 3
122 115 3
124 116 4
123 115 5
123 115 5
125 118 5
123 115 5
123 117 5
124 116 4
123 116 5
126 119 4
124 116 4
124 118 5
126 119 6
124 117 8
124 116 8
126 119 8
126 119 8
125 118 11
124 117 14
125 118 14
125 118 16
125 118 14
129 122 18
127 120 18
125 118 17
125 119 17
127 119 21
128 120 19
123 116 19
124 117 22
125 118 20
124 117 21
126 119 23
128 120 25
127 120 25
129 121 29
125 119 25
125 118 25
126 120 28
126 119 28
125 118 29
125 117 29
128 121 33
125 119 30
125 118 29
127 119 31
125 118 29
126 119 33
126 119 33
126 118 38
128 120 34
125 117 36
124 117 33
121 114 35
147 167 0
146 166 0
146 167 0
146 166 0
146 165 0
145 165 0
146 166 0
145 165 0
145 165 0
145 164 0
145 165 0
145 165 0
145 165 0
145 165 0
145 165 0
144 164 0
145 164 0
145 164 0
143 162 0
144 163 0
144 163 0
143 162 0
145 164 0
143 162 0
143 162 0
143 162 0
142 161 0
143 162 0
143 162 0
144 163 0
143 162 0
143 162 0
143 162 0
142 161 0
142 161 0
141 159 0
143 162 0
141 160 0
141 160 0
139 158 0
140 158 0
140 159 0
140 158 0
139 157 0
139 158 0
138 157 0
140 158 0
138 156 0
138 156 0
137 156 0
138 156 0
137 155 0
136 154 0
137 156 0
137 155 0
134 152 0
136 154 0
134 152 0
136 154 0
136 154 0
134 152 0
135 153 0
135 153 0
134 152 0
133 151 0
134 152 0
133 150 0
132 150 0
132 150 0
131 148 0
130 147 0
131 149 0
130 147 0
128 145 0
129 146 0
129 146 0
131 149 0
127 144 0
128 145 0
126 143 0
125 142 0
125 141 0
125 142 0
126 143 0
124 140 0
124 140 0
126 142 0
124 141 0
123 139 0
120 136 0
121 137 0
121 137 0
119 134 0
118 133 0
118 133 0
117 132 0
115 130 0
113 128 0
112 127 0
111 125 0
113 128 0
111 126 0
110 124 0
107 121 0
108 122 0
107 120 0
103 116 0
105 118 0
101 114 0
97 110 0
97 110 0
96 109 0
92 104 0
91 102 0
89 100 0
103 115 0
114 128 0
114 128 0
116 131 0
117 131 0
115 129 0
117 132 0
114 129 0
123 138 0
114 130 0
114 129 0
117 133 0
117 132 0
118 134 0
115 131 0
120 136 0
119 134 0
117 133 0
118 134 0
120 137 0
119 135 0
117 134 0
116 132 0
116 132 0
116 132 0
118 135 0
118 135 0
111 127 0
112 129 0
114 131 0
114 131 0
117 134 0
115 132 0
113 130 0
113 130 0
113 129 0
110 127 0
112 129 0
113 130 0
115 132 0
106 123 0
110 127 0
106 123 0
108 125 0
106 123 0
105 122 0
103 119 0
105 121 0
102 118 0
103 120 0
96 112 0
98 114 0
100 116 0
96 112 0
93 108 0
94 109 0
91 106 0
90 104 0
87 100 0
86 100 0
88 101 0
82 95 0
80 94 0
75 87 0
79 92 0
72 84 0
70 81 0
65 76 0
57 71 18
47 64 37
39 60 37
36 59 41
37 60 42
40 64 50
38 62 44
39 64 49
40 64 44
39 62 46
40 64 50
40 64 48
40 65 52
41 66 53
41 65 54
40 64 48
39 63 50
40 65 51
40 64 52
40 65 51
40 64 48
40 64 47
39 63 50
39 63 44
40 64 52
39 63 49
39 62 49
39 62 50
37 60 44
38 61 43
37 60 42
36 57 39
45 61 33
53 64 22
66 73 0
66 74 0
66 74 0
70 79 0
71 82 0
74 83 0
78 88 0
81 91 0
81 90 0
88 98 0
87 97 0
88 99 0
91 103 0
91 102 0
97 109 0
98 109 0
92 103 0
96 108 0
95 107 0
101 112 0
102 113 0
99 111 0
102 113 0
103 115 0
102 114 0
106 118 0
107 118 0
109 120 0
105 117 0
109 121 0
111 123 0
108 119 0
109 120 0
112 123 0
108 119 0
112 123 0
110 121 0
110 120 0
113 124 0
112 122 0
112 121 0
112 123 0
107 116 0
113 123 0
113 121 0
114 122 0
115 123 0
113 120 0
108 115 0
113 120 0
116 123 0
112 119 0
109 116 0
111 117 0
108 113 0
113 119 0
112 117 0
112 116 0
110 114 0
110 112 0
109 110 0
107 110 0
106 108 0
104 106 0
103 104 0
106 107 0
104 104 0
96 93 1
78 70 6
73 66 4
75 67 3
81 72 2
80 72 2
81 73 3
83 75 1
85 77 2
89 81 2
91 83 2
89 80 2
92 84 2
94 85 2
91 82 2
95 86 3
96 87 4
98 89 4
100 91 3
99 91 4
102 94 3
100 92 4
103 94 3
104 96 4
104 95 4
105 97 3
108 99 3
109 100 4
107 98 4
111 102 4
109 100 4
112 104 4
111 103 4
111 102 4
113 105 4
112 104 3
111 103 4
112 104 3
116 109 3
115 107 3
112 104 3
116 108 4
117 109 2
114 105 5
119 111 4
118 109 3
116 108 4
115 108 3
118 110 3
119 111 5
119 112 3
116 108 5
120 113 4
120 112 3
121 113 4
120 112 3
119 112 3
119 111 4
122 114 4
122 114 5
121 113 4
121 113 4
120 113 4
119 111 4
121 114 5
124 117 5
121 114 5
123 116 4
122 115 4
121 114 5
124 118 3
122 115 3
121 114 5
125 118 6
122 115 4
126 119 8
122 115 7
121 114 9
122 114 12
126 118 11
126 119 13
127 121 12
124 117 17
123 117 14
125 117 16
126 120 17
124 117 18
126 119 21
125 118 17
125 118 20
123 116 21
125 119 20
125 117 20
125 118 22
125 118 22
127 120 23
127 119 26
124 117 25
125 118 28
125 118 24
126 119 27
126 119 27
125 118 28
124 117 33
128 121 30
125 118 27
125 117 30
127 120 35
124 116 32
124 117 34
123 116 33
121 113 30
124 117 33
124 116 35
124 116 37
123 116 34
146 166 0
146 166 0
147 166 0
146 166 0
146 166 0
145 165 0
146 166 0
146 166 0
146 165 0
146 166 0
145 165 0
145 165 0
145 165 0
144 164 0
144 164 0
143 163 0
144 163 0
143 162 0
145 164 0
143 162 0
144 163 0
144 163 0
144 163 0
144 163 0
144 163 0
144 162 0
143 161 0
142 161 0
142 161 0
143 162 0
143 161 0
143 161 0
143 162 0
142 160 0
141 160 0
141 160 0
141 159 0
141 159 0
140 159 0
141 160 0
139 157 0
139 158 0
140 159 0
139 157 0
139 158 0
139 157 0
138 156 0
138 156 0
137 155 0
137 155 0
137 155 0
138 156 0
136 154 0
136 154 0
136 154 0
135 153 0
136 154 0
134 152 0
134 152 0
134 152 0
134 152 0
134 152 0
133 151 0
133 151 0
133 151 0
132 150 0
131 148 0
132 149 0
131 149 0
130 147 0
131 148 0
130 147 0
130 147 0
130 147 0
128 145 0
128 144 0
128 145 0
129 145 0
127 143 0
127 143 0
126 142 0
124 141 0
124 140 0
125 141 0
126 143 0
125 141 0
123 139 0
121 137 0
121 137 0
120 136 0
119 135 0
120 135 0
118 134 0
116 131 0
114 129 0
113 128 0
116 131 0
114 129 0
110 124 0
112 126 0
109 123 0
108 122 0
107 120 0
107 121 0
106 120 0
103 116 0
100 113 0
99 112 0
98 111 0
95 108 0
94 106 0
88 100 0
85 95 0
97 109 0
107 120 0
110 123 0
110 124 0
111 125 0
113 126 0
113 127 0
111 125 0
113 128 0
116 131 0
114 128 0
115 130 0
113 128 0
115 130 0
113 129 0
115 130 0
112 128 0
114 130 0
116 132 0
114 129 0
115 132 0
116 132 0
119 135 0
115 132 0
117 133 0
117 133 0
118 134 0
115 132 0
117 133 0
114 131 0
116 132 0
115 131 0
113 129 0
112 129 0
116 133 0
116 134 0
112 129 0
110 127 0
110 127 0
109 126 0
109 126 0
110 127 0
109 126 0
108 126 0
106 123 0
107 123 0
108 125 0
108 125 0
101 118 0
104 121 0
99 115 0
101 117 0
102 118 0
101 117 0
98 113 0
92 107 0
97 112 0
91 106 0
92 107 0
90 104 0
86 101 0
86 100 0
84 97 0
80 93 0
81 94 0
77 90 0
74 86 0
71 83 0
71 83 0
71 82 0
65 76 0
59 69 0
57 67 5
50 62 16
39 55 22
38 57 31
35 56 32
35 57 35
35 57 38
37 60 41
37 59 40
37 60 41
37 60 40
37 60 44
37 60 41
37 60 44
37 60 45
37 60 43
37 61 45
38 61 42
37 61 43
37 60 42
38 61 38
37 60 43
37 59 42
35 57 39
35 57 35
35 56 38
40 56 31
42 55 23
52 61 15
56 65 9
57 65 0
62 69 0
62 70 0
69 78 0
69 77 0
73 82 0
71 81 0
78 87 0
79 89 0
83 94 0
82 93 0
85 95 0
81 92 0
88 100 0
90 101 0
86 97 0
92 104 0
95 106 0
99 110 0
101 113 0
97 107 0
98 109 0
100 112 0
102 112 0
103 115 0
100 112 0
99 110 0
109 121 0
105 116 0
106 117 0
104 115 0
107 119 0
104 115 0
107 118 0
109 119 0
111 122 0
108 119 0
107 117 0
108 119 0
108 118 0
111 121 0
113 123 0
108 118 0
114 123 0
110 120 0
115 125 0
114 124 0
108 116 0
111 119 0
110 119 0
107 115 0
109 116 0
110 116 0
110 116 0
116 123 0
110 116 0
108 113 0
110 115 0
110 113 0
106 109 0
106 109 0
107 111 0
106 108 0
106 108 0
101 102 0
109 110 0
106 107 0
99 98 0
104 104 0
102 103 0
96 95 0
84 82 2
75 68 2
74 66 4
76 68 0
78 69 3
81 72 2
83 73 3
82 73 3
86 77 3
89 80 3
90 81 3
90 82 3
90 80 3
94 85 2
95 86 3
96 88 3
93 84 3
96 87 3
99 90 3
102 92 2
100 92 3
102 94 3
102 94 3
105 96 4
103 94 2
106 96 4
105 97 4
105 97 2
108 99 4
108 99 4
111 102 3
108 99 3
111 102 4
112 103 4
108 100 4
112 103 4
114 105 5
111 102 3
115 108 4
115 106 2
114 106 3
113 105 2
118 110 3
116 108 3
115 107 4
117 109 4
117 108 4
117 109 4
122 114 3
118 111 3
116 109 4
119 111 4
119 112 2
118 111 4
119 111 4
119 112 3
119 112 5
122 115 4
120 113 4
119 111 5
119 111 5
122 114 2
120 112 3
120 113 5
121 115 4
122 114 3
121 114 3
120 114 3
119 112 4
121 114 5
121 114 4
122 116 5
122 115 6
121 114 7
123 116 9
123 115 10
124 117 13
124 117 10
123 116 12
121 114 11
124 117 9
125 117 13
123 116 14
125 118 16
123 116 19
123 116 14
121 114 17
124 116 21
127 120 17
126 119 19
124 116 23
124 116 20
123 116 21
124 116 22
124 116 24
125 117 22
124 117 23
125 118 26
122 115 27
123 115 28
124 116 30
124 116 28
125 117 30
123 116 30
122 115 27
123 115 31
123 115 30
124 116 34
124 117 36
125 117 36
125 118 34
121 114 31
122 114 36
120 113 32
146 166 0
146 166 0
146 166 0
146 166 0
145 165 0
145 164 0
145 165 0
146 166 0
145 165 0
145 164 0
145 165 0
144 164 0
145 164 0
143 162 0
145 164 0
143 163 0
144 164 0
146 165 0
144 163 0
144 162 0
144 163 0
143 162 0
144 163 0
143 162 0
143 162 0
140 158 0
143 161 0
142 161 0
143 162 0
141 160 0
142 160 0
142 160 0
141 160 0
141 160 0
141 159 0
141 159 0
140 159 0
140 159 0
141 160 0
140 158 0
139 157 0
140 158 0
139 157 0
139 157 0
140 158 0
138 155 0
138 157 0
136 154 0
137 155 0
135 153 0
136 154 0
136 154 0
137 155 0
136 154 0
136 154 0
136 154 0
134 152 0
134 151 0
134 151 0
134 151 0
133 151 0
133 150 0
134 152 0
133 150 0
133 150 0
131 148 0
130 147 0
131 148 0
131 148 0
131 148 0
130 147 0
129 146 0
130 147 0
127 144 0
129 146 0
129 146 0
127 144 0
126 143 0
125 141 0
126 142 0
125 141 0
124 140 0
123 139 0
123 139 0
124 140 0
123 139 0
122 138 0
119 134 0
119 134 0
120 136 0
117 132 0
118 133 0
119 134 0
116 131 0
113 127 0
114 129 0
112 127 0
113 127 0
111 125 0
110 124 0
109 123 0
109 123 0
106 119 0
103 116 0
100 113 0
101 114 0
101 114 0
96 108 0
94 106 0
88 99 0
83 93 0
92 104 0
101 113 0
103 116 0
106 119 0
104 118 0
108 121 0
111 125 0
109 123 0
109 123 0
107 121 0
113 128 0
112 127 0
111 126 0
113 127 0
113 128 0
114 129 0
113 128 0
113 128 0
113 129 0
113 129 0
116 132 0
114 130 0
113 129 0
117 133 0
115 132 0
114 131 0
117 134 0
114 131 0
116 133 0
115 131 0
112 128 0
113 130 0
113 131 0
114 131 0
113 130 0
115 132 0
112 129 0
114 131 0
114 131 0
112 129 0
112 128 0
110 126 0
112 129 0
106 123 0
106 123 0
106 123 0
110 127 0
110 127 0
107 124 0
104 121 0
104 121 0
105 122 0
104 120 0
103 119 0
102 118 0
98 113 0
99 115 0
100 116 0
94 109 0
92 107 0
88 103 0
88 102 0
89 103 0
84 98 0
86 99 0
80 93 0
81 94 0
82 95 0
78 91 0
77 90 0
69 81 0
68 79 0
65 76 0
61 72 0
62 72 0
58 68 0
54 64 0
54 63 0
52 61 0
43 54 11
43 55 9
39 52 23
37 53 28
34 52 29
33 52 29
34 55 34
33 54 31
34 55 27
34 55 35
34 55 30
33 54 33
33 54 30
35 54 34
35 54 24
35 52 22
35 50 21
38 52 21
44 55 12
47 55 9
44 51 8
56 62 0
53 60 0
57 65 0
60 68 0
63 72 0
61 69 0
72 81 0
71 80 0
70 79 0
73 83 0
76 85 0
77 87 0
83 93 0
84 93 0
82 93 0
84 94 0
88 98 0
92 102 0
92 103 0
91 103 0
94 105 0
94 105 0
94 106 0
100 111 0
97 109 0
98 109 0
100 111 0
104 116 0
101 112 0
104 115 0
102 113 0
105 116 0
107 119 0
109 121 0
109 121 0
106 117 0
106 118 0
110 121 0
110 121 0
109 119 0
107 118 0
112 123 0
109 119 0
107 116 0
110 120 0
112 122 0
113 123 0
106 116 0
108 117 0
112 122 0
113 123 0
111 119 0
111 119 0
110 119 0
108 115 0
109 117 0
109 116 0
107 113 0
108 114 0
110 116 0
110 115 0
108 113 0
107 111 0
106 110 0
106 110 0
108 112 0
106 108 0
106 107 0
100 102 0
102 104 0
102 103 0
98 99 0
102 102 0
98 97 0
98 97 0
98 95 0
96 94 3
82 77 3
72 64 4
71 62 2
78 69 3
81 72 3
77 69 1
84 75 2
81 72 2
89 81 3
88 79 2
91 82 2
89 80 1
91 83 2
93 84 4
91 82 3
95 85 4
97 89 2
96 87 3
97 88 3
100 91 3
101 92 4
101 91 3
100 91 4
104 94 3
100 91 4
105 96 4
106 96 4
105 96 2
105 96 3
107 98 4
108 100 3
110 102 4
108 100 4
112 104 3
112 103 4
114 105 3
113 105 3
109 100 5
112 104 4
112 103 3
114 105 3
112 103 3
115 108 4
113 106 3
115 107 3
116 108 2
118 110 4
116 108 2
114 106 3
119 110 4
116 108 3
119 110 5
119 111 4
116 108 4
119 112 5
119 111 4
117 109 6
118 110 4
118 110 3
123 114 3
118 109 5
121 114 3
124 117 4
121 113 4
121 114 4
121 114 4
122 115 3
121 114 3
121 114 3
122 115 5
120 113 6
121 114 6
122 114 7
121 114 9
124 117 12
121 115 12
122 116 12
122 115 9
120 112 13
121 113 15
122 115 14
123 116 13
122 115 16
124 117 15
124 117 17
122 115 16
125 118 18
125 118 17
124 117 22
123 116 20
123 116 18
123 116 20
124 116 25
122 115 26
122 115 22
124 117 24
121 113 25
121 114 26
119 112 24
121 114 24
121 113 26
124 117 30
124 117 30
124 116 31
123 116 31
123 115 34
125 117 33
123 115 34
121 113 33
120 112 35
121 112 34
118 110 33
147 166 0
146 166 0
146 166 0
146 166 0
146 166 0
145 165 0
146 166 0
144 164 0
145 165 0
145 164 0
144 164 0
144 163 0
145 164 0
144 163 0
144 163 0
144 163 0
143 162 0
144 163 0
143 162 0
145 163 0
142 161 0
143 162 0
144 162 0
143 162 0
144 163 0
142 161 0
142 161 0
142 161 0
142 161 0
143 161 0
142 160 0
141 160 0
141 160 0
142 160 0
141 159 0
141 159 0
140 159 0
139 157 0
139 158 0
140 158 0
140 158 0
138 156 0
140 158 0
137 156 0
138 156 0
138 155 0
136 154 0
136 154 0
136 154 0
136 154 0
134 152 0
136 153 0
137 154 0
136 153 0
135 152 0
137 154 0
134 151 0
133 150 0
133 150 0
132 149 0
134 152 0
133 150 0
132 149 0
131 148 0
133 150 0
132 149 0
131 148 0
130 147 0
130 147 0
131 148 0
128 145 0
127 143 0
128 145 0
127 144 0
128 144 0
128 144 0
125 141 0
128 144 0
124 140 0
124 140 0
123 139 0
122 138 0
122 138 0
123 139 0
120 135 0
120 135 0
119 135 0
121 136 0
119 135 0
119 134 0
116 130 0
117 132 0
116 131 0
113 127 0
114 128 0
114 128 0
111 125 0
109 123 0
111 124 0
107 121 0
106 119 0
104 117 0
103 116 0
100 113 0
98 111 0
97 109 0
92 103 0
88 99 0
83 94 0
87 98 0
98 110 0
98 110 0
98 111 0
107 120 0
103 116 0
105 118 0
104 117 0
109 123 0
107 121 0
105 119 0
109 124 0
107 121 0
108 123 0
111 126 0
109 123 0
111 126 0
114 129 0
113 128 0
114 130 0
113 129 0
113 129 0
111 127 0
113 129 0
118 134 0
114 131 0
114 130 0
114 131 0
113 130 0
111 128 0
113 130 0
114 131 0
113 130 0
117 133 0
116 132 0
114 131 0
113 130 0
115 132 0
116 133 0
114 131 0
115 132 0
109 126 0
109 126 0
110 127 0
105 122 0
112 129 0
113 130 0
108 124 0
108 125 0
106 123 0
110 127 0
107 124 0
104 120 0
106 123 0
106 122 0
104 120 0
102 118 0
99 115 0
101 117 0
93 108 0
95 110 0
97 112 0
95 110 0
93 108 0
90 104 0
88 102 0
82 96 0
81 94 0
83 97 0
81 95 0
79 92 0
74 86 0
72 84 0
71 82 0
71 82 0
67 79 0
65 76 0
61 72 0
61 72 0
57 66 0
58 67 0
57 66 0
51 60 0
51 59 0
43 51 0
52 60 0
42 49 0
46 53 0
42 50 0
43 50 0
41 48 5
41 49 8
40 48 2
44 51 0
46 53 0
45 51 0
49 56 0
48 55 0
53 60 0
49 57 0
50 58 0
54 62 0
53 61 0
60 68 0
64 72 0
67 76 0
70 78 0
69 78 0
70 79 0
77 87 0
74 84 0
77 87 0
74 84 0
80 90 0
82 93 0
83 93 0
84 95 0
87 98 0
90 101 0
90 101 0
93 104 0
92 102 0
96 107 0
96 107 0
94 105 0
96 107 0
94 105 0
100 111 0
102 113 0
99 111 0
102 113 0
102 113 0
104 115 0
105 116 0
107 117 0
103 114 0
111 123 0
107 118 0
107 119 0
108 120 0
110 121 0
110 120 0
109 120 0
110 120 0
111 120 0
109 119 0
111 121 0
110 120 0
111 121 0
111 120 0
111 121 0
114 123 0
110 118 0
108 117 0
111 120 0
110 117 0
107 114 0
109 116 0
108 115 0
110 117 0
109 115 0
106 112 0
111 117 0
105 111 0
106 110 0
107 111 0
105 108 0
106 110 0
103 106 0
101 103 0
101 102 0
100 101 0
99 101 0
99 98 0
94 94 0
99 99 0
96 95 0
94 93 0
94 92 0
89 86 0
87 84 0
77 72 0
71 63 1
71 63 2
73 64 2
76 66 4
80 71 3
83 74 1
83 74 4
85 77 3
88 78 2
86 77 2
92 83 2
91 82 1
92 82 3
95 86 1
97 88 4
98 89 4
98 89 3
103 94 3
99 89 2
99 90 2
100 91 2
100 90 4
102 92 4
102 93 3
105 96 2
102 92 3
106 98 3
106 97 3
108 99 3
108 99 3
107 98 4
106 97 3
110 101 4
110 101 3
112 104 2
114 105 4
114 105 3
112 103 4
112 105 3
113 104 5
113 105 4
114 107 4
114 106 3
116 109 4
113 105 4
114 106 3
116 109 3
116 107 4
116 108 4
115 107 4
115 107 4
118 109 5
117 109 4
117 108 4
119 112 4
120 112 4
117 109 4
120 112 4
118 110 5
119 111 3
121 114 4
118 110 5
122 115 4
119 111 3
120 111 4
121 113 3
118 110 5
120 113 8
119 112 7
121 113 6
122 115 7
120 113 11
123 115 7
122 115 10
121 114 13
120 112 12
119 112 12
122 115 14
119 112 15
119 112 14
121 114 15
123 115 15
124 116 20
121 114 19
123 116 17
118 112 18
121 113 20
119 111 22
119 112 20
124 116 25
120 113 21
121 115 25
123 116 25
123 115 29
123 115 28
121 113 27
119 111 27
121 114 26
120 113 30
121 113 31
122 115 31
122 114 30
122 114 36
120 112 33
118 110 30
120 112 34
122 114 33
119 111 34
121 113 35
145 165 0
145 165 0
147 166 0
146 166 0
146 166 0
145 165 0
145 164 0
146 165 0
145 165 0
145 164 0
144 163 0
145 164 0
144 164 0
143 162 0
145 164 0
143 162 0
144 163 0
144 163 0
143 162 0
143 162 0
143 162 0
143 162 0
143 162 0
142 161 0
142 161 0
142 160 0
142 161 0
141 160 0
142 160 0
140 158 0
141 159 0
141 159 0
141 159 0
139 158 0
140 158 0
139 158 0
139 157 0
141 159 0
140 157 0
139 157 0
140 158 0
138 156 0
138 156 0
136 154 0
138 155 0
137 155 0
139 158 0
135 153 0
135 153 0
136 154 0
135 153 0
134 152 0
135 153 0
134 152 0
135 153 0
134 151 0
133 150 0
134 152 0
134 152 0
131 148 0
132 149 0
132 149 0
132 149 0
132 150 0
131 148 0
131 147 0
130 146 0
128 144 0
131 148 0
129 145 0
127 144 0
126 142 0
128 145 0
129 145 0
127 143 0
126 142 0
125 141 0
126 142 0
124 139 0
125 141 0
123 138 0
125 140 0
122 138 0
120 135 0
121 136 0
118 133 0
118 133 0
118 133 0
117 131 0
115 129 0
115 129 0
116 131 0
112 126 0
111 125 0
110 124 0
110 124 0
106 119 0
107 120 0
107 120 0
105 118 0
106 118 0
102 114 0
100 112 0
97 109 0
93 105 0
87 98 0
80 90 0
84 94 0
92 103 0
96 107 0
97 109 0
98 110 0
98 110 0
102 115 0
104 117 0
105 118 0
107 120 0
105 119 0
105 118 0
105 119 0
105 120 0
111 125 0
109 124 0
110 125 0
108 123 0
110 125 0
110 126 0
116 132 0
112 128 0
112 128 0
114 130 0
113 129 0
115 131 0
113 130 0
117 133 0
115 132 0
118 134 0
115 132 0
117 134 0
117 133 0
112 129 0
115 131 0
116 133 0
114 131 0
115 132 0
111 128 0
114 131 0
114 131 0
112 129 0
113 130 0
113 130 0
112 129 0
111 128 0
113 130 0
109 126 0
111 128 0
111 128 0
108 125 0
110 127 0
107 124 0
107 123 0
104 121 0
107 124 0
103 119 0
106 122 0
99 115 0
98 114 0
102 118 0
101 117 0
97 112 0
91 107 0
94 109 0
95 110 0
91 106 0
91 106 0
90 104 0
84 98 0
86 100 0
83 97 0
80 94 0
78 91 0
79 92 0
76 89 0
71 83 0
69 80 0
72 84 0
62 73 0
65 76 0
63 74 0
64 75 0
56 66 0
60 70 0
56 65 0
57 67 0
54 63 0
58 67 0
54 63 0
51 60 0
53 62 0
54 62 0
55 63 0
49 57 0
54 62 0
55 64 0
58 66 0
55 64 0
62 70 0
63 72 0
59 68 0
58 67 0
59 68 0
63 72 0
69 79 0
73 82 0
64 74 0
69 77 0
73 83 0
74 84 0
76 86 0
78 88 0
82 93 0
82 93 0
83 94 0
84 95 0
85 96 0
85 96 0
91 102 0
89 101 0
92 103 0
90 101 0
95 106 0
95 107 0
97 108 0
95 106 0
101 114 0
102 114 0
101 112 0
98 110 0
100 111 0
104 115 0
101 113 0
106 117 0
105 116 0
104 115 0
107 118 0
104 115 0
111 122 0
108 119 0
112 123 0
108 119 0
107 117 0
107 118 0
111 121 0
109 119 0
112 122 0
108 118 0
110 120 0
109 118 0
112 121 0
110 119 0
108 117 0
113 122 0
108 117 0
109 118 0
109 118 0
110 118 0
112 119 0
111 118 0
109 116 0
108 115 0
106 112 0
109 115 0
106 111 0
106 111 0
109 115 0
107 112 0
103 107 0
105 108 0
104 108 0
101 103 0
105 108 0
103 105 0
98 100 0
102 102 0
100 100 0
96 94 0
96 96 0
91 88 0
88 86 0
86 83 0
89 86 0
85 81 0
76 69 0
69 61 2
73 64 2
76 67 2
76 67 3
78 69 2
82 73 4
81 73 2
86 75 3
86 77 2
87 77 2
90 80 3
90 80 3
91 81 2
95 86 2
97 88 2
95 86 3
95 85 3
101 91 3
101 91 4
101 92 2
99 90 4
102 93 3
103 94 4
103 93 3
105 95 2
107 98 4
104 95 4
103 94 4
107 98 3
108 99 3
110 100 5
112 102 4
112 102 4
111 102 3
110 102 4
111 103 4
111 103 2
113 105 3
114 106 3
113 105 4
115 106 3
113 104 4
114 105 3
116 108 4
115 106 4
113 105 4
115 106 4
118 109 4
117 108 4
113 105 4
114 107 5
115 107 5
117 109 4
119 111 3
117 108 3
119 110 4
116 108 5
118 110 4
118 110 3
116 108 4
119 111 4
120 112 4
118 110 4
117 110 4
118 110 3
120 112 7
117 110 5
119 111 6
118 110 4
119 112 7
120 113 9
119 112 11
120 112 14
120 113 8
120 113 14
118 111 12
120 113 12
122 114 12
119 111 15
118 110 15
119 112 16
118 111 17
120 113 20
122 114 16
116 109 19
119 111 19
121 113 20
122 114 21
123 115 22
124 116 26
119 112 25
121 114 26
120 113 26
123 115 29
120 113 24
120 112 30
123 115 32
120 112 31
120 112 31
121 113 32
122 113 32
118 110 33
116 108 30
115 107 33
118 110 32
116 109 32
118 111 32
142 161 0
145 165 0
145 165 0
146 166 0
147 166 0
145 164 0
145 164 0
144 163 0
145 164 0
145 164 0
145 164 0
145 164 0
145 164 0
143 162 0
145 163 0
143 161 0
145 164 0
143 162 0
143 162 0
142 161 0
144 162 0
144 162 0
142 160 0
142 160 0
141 160 0
143 161 0
142 160 0
142 161 0
141 159 0
141 159 0
140 158 0
142 161 0
141 159 0
141 159 0
139 157 0
139 157 0
140 158 0
139 157 0
138 156 0
138 156 0
138 156 0
137 155 0
138 156 0
137 155 0
135 153 0
135 153 0
138 155 0
136 153 0
136 154 0
135 153 0
135 152 0
135 152 0
134 151 0
135 151 0
133 150 0
135 153 0
134 151 0
134 151 0
133 150 0
130 147 0
131 149 0
129 146 0
130 147 0
130 147 0
130 146 0
131 147 0
130 147 0
129 145 0
129 146 0
128 145 0
126 142 0
127 143 0
129 144 0
126 142 0
125 141 0
125 140 0
126 142 0
121 137 0
123 139 0
123 139 0
122 137 0
122 137 0
122 137 0
120 135 0
119 134 0
119 133 0
118 133 0
115 130 0
114 128 0
113 126 0
116 130 0
109 123 0
111 125 0
111 125 0
106 119 0
109 122 0
104 117 0
106 119 0
101 114 0
100 112 0
101 113 0
98 110 0
92 103 0
84 95 0
78 88 0
83 93 0
89 100 0
91 102 0
93 104 0
97 109 0
100 112 0
99 111 0
105 118 0
102 114 0
106 119 0
105 118 0
108 123 0
108 122 0
106 119 0
107 121 0
108 122 0
106 120 0
112 126 0
110 125 0
110 124 0
113 128 0
112 127 0
108 124 0
113 128 0
115 130 0
115 131 0
117 133 0
114 130 0
115 131 0
117 134 0
114 131 0
115 132 0
112 128 0
112 129 0
114 131 0
116 133 0
117 134 0
116 133 0
114 131 0
116 134 0
117 135 0
113 130 0
114 132 0
114 131 0
116 133 0
116 132 0
115 132 0
111 128 0
109 126 0
115 132 0
114 131 0
112 129 0
111 128 0
108 124 0
111 128 0
108 125 0
106 123 0
107 124 0
106 123 0
105 122 0
104 120 0
102 118 0
101 117 0
98 114 0
100 116 0
96 112 0
98 113 0
92 108 0
90 105 0
92 108 0
87 101 0
88 102 0
88 102 0
86 101 0
89 103 0
83 96 0
83 96 0
80 93 0
75 88 0
70 82 0
78 90 0
75 87 0
69 81 0
71 83 0
71 83 0
66 77 0
65 76 0
67 78 0
68 79 0
63 73 0
63 73 0
61 71 0
64 74 0
63 73 0
64 73 0
56 66 0
61 71 0
60 70 0
64 73 0
62 72 0
63 73 0
61 70 0
63 73 0
62 71 0
65 74 0
71 80 0
64 74 0
72 82 0
69 79 0
73 83 0
74 84 0
74 85 0
75 86 0
74 84 0
79 90 0
82 93 0
81 92 0
85 96 0
88 100 0
89 100 0
87 99 0
92 104 0
93 104 0
93 104 0
96 108 0
96 108 0
98 109 0
99 111 0
98 110 0
100 112 0
99 111 0
102 113 0
101 113 0
105 117 0
106 119 0
106 118 0
106 118 0
107 120 0
111 123 0
106 118 0
107 118 0
111 123 0
111 122 0
111 122 0
112 124 0
110 121 0
110 121 0
114 125 0
110 121 0
110 120 0
111 121 0
114 125 0
112 123 0
112 122 0
113 123 0
111 120 0
112 121 0
114 123 0
114 122 0
108 117 0
112 120 0
111 118 0
110 118 0
108 116 0
110 116 0
109 115 0
108 115 0
110 116 0
103 109 0
106 111 0
106 111 0
106 110 0
107 111 0
106 110 0
103 105 0
100 102 0
103 106 0
101 102 0
97 98 0
95 95 0
96 97 0
94 92 0
96 96 0
92 90 0
91 88 0
87 85 0
85 82 0
81 78 0
77 72 0
73 67 0
69 62 2
69 59 3
69 60 0
76 66 1
77 67 3
81 71 2
82 72 3
84 75 2
87 77 3
86 76 4
93 82 2
90 80 3
90 79 2
91 81 2
94 85 2
95 85 3
95 86 3
98 90 3
98 88 3
99 90 3
99 90 3
105 95 2
101 92 2
102 92 3
103 94 3
102 93 2
107 97 3
105 96 2
108 99 3
106 97 3
111 102 3
106 97 4
110 100 3
108 100 3
110 101 3
112 103 2
108 98 3
111 102 3
113 104 3
112 103 4
111 103 3
115 106 4
112 104 3
114 105 3
112 104 4
114 105 4
113 105 1
116 108 4
116 108 2
115 106 4
114 106 3
113 104 2
115 107 4
116 107 3
114 106 3
117 109 4
116 108 4
116 108 4
118 110 5
119 111 5
117 109 4
119 112 2
118 109 4
118 109 5
117 110 3
117 109 7
119 112 7
119 112 7
117 110 8
116 109 11
116 109 13
119 111 12
117 109 12
118 110 16
120 112 13
120 113 14
117 110 14
119 112 14
118 111 15
114 107 16
118 111 18
119 111 18
117 110 16
120 112 19
118 110 22
120 112 22
119 110 24
120 113 27
121 113 26
119 111 25
120 112 26
117 109 30
120 112 27
115 107 28
119 112 27
120 112 31
120 112 33
116 108 32
116 108 28
117 109 31
113 105 31
115 108 32
117 109 36
117 110 34
116 108 34
133 151 0
136 155 0
140 159 0
141 160 0
144 164 0
145 164 0
145 164 0
145 164 0
145 165 0
145 164 0
145 163 0
144 164 0
143 161 0
143 162 0
143 162 0
144 162 0
142 161 0
143 161 0
142 161 0
144 162 0
143 161 0
143 161 0
141 160 0
141 160 0
141 160 0
142 160 0
141 159 0
140 158 0
140 158 0
141 159 0
141 159 0
140 158 0
139 157 0
140 158 0
140 158 0
138 156 0
140 158 0
138 155 0
138 156 0
136 154 0
137 154 0
137 154 0
136 153 0
137 154 0
137 154 0
135 152 0
135 152 0
134 151 0
134 151 0
135 152 0
134 152 0
133 150 0
134 151 0
133 150 0
134 151 0
132 149 0
133 149 0
132 149 0
134 150 0
132 149 0
130 147 0
132 148 0
128 144 0
130 147 0
129 146 0
127 144 0
130 146 0
128 144 0
128 144 0
127 143 0
126 142 0
129 144 0
126 141 0
124 139 0
124 139 0
125 140 0
124 139 0
124 139 0
122 137 0
121 136 0
120 135 0
121 136 0
120 135 0
120 134 0
118 132 0
115 129 0
114 128 0
117 131 0
112 126 0
115 129 0
113 126 0
109 123 0
108 121 0
106 119 0
105 118 0
102 115 0
102 114 0
101 113 0
98 110 0
93 105 0
87 98 0
78 88 0
76 85 0
81 90 0
87 98 0
89 99 0
89 100 0
94 106 0
98 110 0
95 107 0
101 114 0
100 112 0
99 112 0
103 116 0
105 118 0
105 119 0
108 122 0
107 120 0
110 124 0
109 123 0
110 125 0
109 124 0
109 124 0
112 127 0
110 125 0
115 130 0
112 128 0
116 132 0
110 126 0
111 127 0
115 131 0
115 131 0
114 130 0
116 133 0
115 132 0
117 133 0
115 132 0
117 134 0
114 131 0
115 132 0
117 134 0
115 132 0
117 134 0
118 135 0
118 135 0
117 134 0
116 133 0
111 127 0
113 130 0
117 134 0
112 129 0
113 131 0
114 132 0
115 133 0
111 129 0
113 130 0
109 126 0
112 129 0
111 128 0
108 125 0
108 124 0
109 126 0
106 123 0
105 121 0
108 125 0
103 120 0
102 118 0
100 116 0
101 117 0
102 118 0
95 111 0
97 113 0
97 113 0
93 108 0
89 104 0
94 110 0
90 104 0
87 102 0
83 98 0
86 100 0
84 99 0
86 99 0
84 98 0
82 95 0
76 89 0
80 93 0
77 90 0
76 89 0
73 86 0
76 88 0
70 81 0
68 80 0
71 83 0
72 83 0
71 82 0
72 83 0
70 81 0
72 83 0
68 78 0
68 79 0
68 78 0
68 79 0
64 74 0
70 80 0
69 79 0
68 79 0
71 81 0
70 80 0
69 79 0
74 85 0
69 79 0
74 85 0
73 84 0
71 82 0
78 89 0
78 89 0
83 94 0
81 92 0
82 93 0
83 94 0
86 98 0
83 95 0
88 100 0
92 104 0
86 98 0
91 104 0
91 103 0
95 107 0
98 111 0
97 110 0
97 110 0
95 108 0
97 109 0
104 117 0
104 117 0
101 114 0
104 117 0
105 117 0
99 111 0
103 115 0
107 119 0
108 120 0
109 121 0
104 116 0
110 121 0
107 119 0
109 120 0
110 122 0
106 118 0
106 117 0
110 121 0
110 122 0
110 122 0
115 126 0
112 123 0
112 123 0
114 124 0
114 124 0
110 120 0
111 122 0
110 120 0
114 124 0
111 121 0
112 122 0
112 121 0
112 121 0
109 118 0
110 119 0
108 115 0
109 115 0
109 116 0
110 117 0
105 112 0
107 113 0
110 117 0
105 110 0
103 108 0
106 111 0
102 105 0
104 108 0
102 105 0
98 100 0
103 105 0
101 102 0
100 102 0
97 98 0
95 95 0
93 92 0
96 96 0
93 92 0
91 88 0
87 85 0
83 81 0
84 81 0
77 73 0
76 71 0
69 63 0
66 57 1
70 60 1
73 63 1
73 63 3
77 68 2
78 68 3
81 71 1
82 72 2
87 76 3
85 75 0
87 77 2
88 78 3
94 85 1
91 80 2
94 83 3
97 88 2
96 87 1
96 86 2
100 91 3
100 90 2
99 89 3
101 91 4
100 91 2
104 94 3
106 96 3
105 95 3
103 94 3
103 94 3
104 94 3
105 95 3
107 98 4
109 99 3
109 100 4
107 98 3
111 102 4
107 98 3
108 99 2
109 100 2
110 102 4
111 102 3
108 100 3
114 106 4
110 102 2
113 104 3
113 104 3
113 105 4
113 104 5
113 105 3
111 103 3
115 107 4
113 104 3
115 108 2
114 107 4
116 108 5
115 107 5
117 109 4
114 106 4
113 105 4
117 109 5
117 108 4
117 109 5
116 108 5
119 111 7
116 108 5
117 109 7
116 108 7
117 109 8
116 108 11
116 108 8
121 113 11
115 107 12
117 109 17
118 110 14
117 109 13
117 109 15
118 111 15
116 108 16
117 110 18
119 111 19
118 110 18
119 111 21
117 109 23
118 110 21
114 106 23
117 109 24
119 111 26
119 111 25
119 111 28
117 109 29
120 112 27
119 111 31
119 111 30
118 110 32
116 108 29
115 107 32
116 109 32
118 110 35
118 109 33
114 107 31
112 104 33
116 108 34
111 103 32
113 105 35
132 150 0
126 142 0
133 151 0
134 152 0
138 156 0
139 158 0
142 161 0
145 164 0
144 163 0
144 163 0
144 163 0
143 162 0
144 162 0
143 162 0
144 163 0
142 161 0
142 161 0
143 162 0
142 160 0
142 160 0
142 160 0
142 160 0
141 159 0
142 160 0
142 160 0
140 159 0
140 158 0
140 158 0
142 160 0
141 159 0
139 157 0
140 158 0
139 157 0
139 157 0
138 156 0
138 156 0
138 155 0
138 156 0
138 156 0
137 154 0
137 155 0
136 154 0
136 153 0
136 153 0
134 151 0
136 154 0
135 152 0
135 152 0
135 152 0
134 151 0
134 151 0
133 150 0
133 150 0
131 148 0
133 149 0
133 150 0
132 148 0
130 146 0
131 147 0
131 148 0
131 147 0
130 146 0
130 146 0
129 145 0
128 144 0
127 142 0
129 145 0
129 145 0
127 142 0
127 143 0
126 141 0
125 140 0
125 140 0
123 139 0
122 138 0
122 136 0
122 137 0
121 135 0
121 136 0
120 134 0
120 135 0
121 135 0
119 134 0
119 133 0
117 131 0
118 132 0
113 127 0
112 125 0
111 124 0
108 121 0
108 121 0
107 120 0
105 118 0
104 116 0
103 115 0
100 112 0
94 105 0
90 100 0
81 91 0
75 84 0
73 81 0
80 89 0
82 92 0
86 97 0
90 101 0
94 106 0
96 108 0
97 109 0
99 111 0
104 116 0
102 115 0
99 112 0
105 118 0
105 118 0
105 119 0
112 126 0
111 125 0
110 124 0
109 123 0
110 125 0
110 125 0
110 125 0
111 127 0
110 125 0
113 129 0
116 131 0
115 131 0
114 130 0
115 131 0
116 133 0
117 134 0
117 133 0
115 132 0
119 136 0
119 136 0
119 136 0
116 132 0
117 134 0
116 133 0
117 134 0
118 135 0
114 131 0
118 135 0
115 131 0
116 134 0
117 134 0
117 134 0
114 131 0
117 134 0
117 134 0
117 135 0
118 136 0
115 133 0
113 131 0
112 129 0
116 134 0
111 128 0
113 130 0
108 125 0
111 128 0
110 127 0
108 125 0
108 125 0
104 120 0
104 121 0
106 122 0
105 121 0
104 121 0
103 119 0
102 118 0
99 115 0
97 114 0
99 115 0
94 110 0
95 111 0
98 114 0
90 106 0
91 107 0
90 105 0
89 104 0
86 101 0
86 101 0
86 100 0
83 97 0
86 100 0
81 94 0
78 92 0
79 92 0
81 94 0
82 95 0
75 88 0
76 88 0
72 84 0
75 87 0
75 87 0
72 83 0
77 89 0
72 84 0
76 88 0
75 87 0
78 89 0
74 85 0
73 85 0
73 85 0
72 82 0
75 86 0
75 86 0
76 88 0
77 88 0
78 89 0
80 91 0
79 90 0
79 90 0
79 91 0
81 93 0
82 93 0
84 97 0
85 97 0
85 97 0
83 96 0
87 100 0
91 103 0
89 101 0
92 104 0
91 103 0
92 106 0
97 109 0
93 106 0
96 108 0
102 115 0
99 113 0
105 119 0
102 115 0
100 112 0
103 116 0
102 114 0
103 115 0
107 120 0
103 116 0
108 120 0
107 119 0
107 119 0
113 125 0
111 123 0
107 120 0
110 122 0
112 124 0
107 119 0
109 120 0
112 123 0
112 124 0
111 122 0
110 121 0
111 122 0
112 124 0
114 125 0
111 121 0
114 125 0
115 125 0
114 123 0
111 121 0
112 122 0
114 123 0
113 123 0
114 123 0
112 121 0
112 121 0
112 121 0
110 118 0
110 118 0
113 121 0
112 119 0
110 118 0
109 115 0
111 116 0
106 112 0
110 115 0
108 112 0
109 112 0
103 107 0
105 109 0
105 109 0
103 106 0
101 103 0
103 104 0
100 102 0
100 101 0
95 95 0
96 97 0
93 92 0
96 96 0
89 87 0
90 87 0
89 86 0
82 79 0
82 78 0
77 73 0
76 72 0
73 65 0
67 59 0
66 58 0
66 56 2
75 65 0
77 67 2
78 67 2
80 70 3
82 72 0
85 75 3
83 73 2
91 80 2
90 80 3
92 82 2
94 83 3
93 83 1
97 88 3
97 86 3
96 87 2
96 85 3
98 88 3
101 91 4
95 86 0
103 93 3
102 91 3
103 93 3
101 91 3
102 91 4
102 92 3
101 92 3
105 95 4
110 100 4
105 96 4
108 98 4
108 98 4
108 98 4
108 99 3
109 100 3
111 101 4
112 103 4
106 98 3
112 103 4
112 103 4
111 101 5
110 101 3
114 106 3
112 103 4
113 104 3
112 103 3
113 104 4
113 104 3
115 106 4
114 105 4
113 105 4
113 104 3
112 104 4
113 105 4
115 107 3
114 106 4
113 104 5
115 105 8
113 105 7
116 108 7
116 108 9
118 110 9
114 106 10
112 104 11
115 107 11
117 109 12
112 104 11
115 108 12
117 108 13
118 110 14
119 111 14
117 108 18
115 107 17
118 110 20
116 108 18
117 110 20
117 109 20
117 109 22
118 110 20
115 107 22
115 107 25
115 107 22
118 110 27
114 106 26
118 110 28
116 108 27
118 110 30
117 109 27
116 108 29
116 107 33
117 109 30
114 106 29
115 107 32
117 109 33
114 106 32
111 104 32
109 101 32
113 106 34
123 124 30
167 190 0
158 180 0
143 162 0
127 145 0
128 146 0
131 149 0
134 151 0
137 155 0
139 157 0
142 160 0
143 162 0
143 162 0
144 163 0
142 161 0
143 161 0
143 162 0
142 160 0
144 162 0
142 160 0
142 160 0
141 159 0
140 158 0
142 160 0
141 159 0
140 158 0
141 159 0
141 159 0
140 158 0
140 157 0
140 158 0
140 158 0
139 157 0
139 157 0
139 157 0
138 155 0
137 154 0
137 155 0
139 156 0
138 155 0
137 154 0
136 153 0
136 154 0
136 153 0
136 154 0
135 153 0
134 151 0
133 151 0
133 150 0
133 150 0
133 150 0
133 150 0
134 151 0
134 151 0
132 149 0
133 150 0
131 147 0
132 148 0
129 146 0
130 146 0
129 146 0
129 145 0
129 145 0
128 143 0
126 142 0
129 145 0
127 142 0
125 140 0
127 142 0
125 141 0
126 142 0
127 142 0
125 140 0
123 138 0
123 138 0
123 137 0
123 137 0
121 136 0
120 134 0
118 132 0
119 133 0
117 131 0
114 128 0
115 129 0
112 126 0
114 127 0
112 126 0
112 126 0
109 122 0
107 119 0
105 118 0
104 117 0
103 115 0
99 111 0
94 105 0
92 103 0
85 95 0
76 85 0
72 80 0
77 86 0
81 91 0
86 96 0
88 99 0
91 102 0
92 103 0
94 105 0
97 108 0
97 109 0
99 112 0
105 118 0
106 119 0
108 121 0
108 121 0
108 121 0
109 123 0
108 122 0
109 123 0
110 124 0
112 126 0
112 126 0
108 123 0
110 125 0
114 129 0
115 130 0
116 132 0
111 126 0
115 131 0
118 134 0
116 133 0
116 132 0
115 132 0
117 133 0
115 132 0
117 134 0
114 131 0
118 135 0
119 136 0
117 134 0
118 135 0
119 137 0
121 138 0
118 135 0
119 136 0
116 133 0
115 132 0
114 132 0
117 135 0
119 137 0
117 134 0
121 139 0
116 134 0
116 133 0
117 134 0
119 136 0
117 134 0
116 134 0
114 132 0
114 131 0
112 129 0
110 128 0
113 131 0
115 133 0
113 130 0
107 124 0
109 126 0
109 126 0
112 129 0
106 123 0
105 122 0
104 121 0
102 118 0
106 123 0
98 114 0
100 116 0
99 115 0
98 114 0
93 108 0
98 114 0
98 114 0
94 110 0
90 106 0
90 105 0
86 100 0
93 107 0
89 103 0
86 101 0
86 101 0
87 101 0
80 94 0
80 93 0
84 98 0
81 95 0
83 96 0
81 93 0
75 88 0
81 94 0
82 95 0
78 90 0
83 96 0
78 91 0
78 90 0
82 95 0
77 89 0
83 96 0
78 90 0
77 89 0
78 90 0
83 95 0
85 98 0
80 92 0
82 94 0
83 96 0
83 95 0
87 99 0
81 94 0
86 98 0
82 94 0
86 98 0
87 99 0
90 102 0
90 102 0
93 106 0
90 103 0
93 106 0
93 106 0
97 110 0
97 111 0
96 109 0
99 113 0
101 114 0
100 114 0
101 115 0
97 110 0
106 119 0
104 118 0
106 120 0
105 119 0
106 120 0
104 117 0
110 123 0
107 120 0
107 119 0
111 124 0
108 120 0
109 122 0
111 125 0
111 123 0
111 124 0
108 120 0
106 118 0
113 125 0
113 125 0
113 124 0
111 122 0
113 126 0
111 123 0
118 129 0
114 125 0
110 120 0
114 124 0
113 123 0
116 127 0
113 123 0
113 123 0
111 122 0
117 127 0
112 121 0
112 120 0
111 119 0
108 116 0
112 120 0
114 123 0
111 118 0
112 120 0
110 116 0
108 113 0
108 115 0
110 115 0
108 114 0
108 113 0
111 116 0
105 109 0
105 108 0
105 109 0
104 107 0
106 109 0
101 102 0
99 100 0
96 96 0
96 97 0
100 100 0
93 93 0
98 96 0
89 87 0
89 88 0
89 87 0
85 82 0
81 77 0
81 77 0
76 72 0
73 69 0
70 64 0
66 59 0
67 60 2
67 58 2
77 67 1
70 60 2
75 64 2
83 73 1
78 67 0
79 68 1
84 73 1
85 74 2
90 79 3
90 80 3
90 80 2
92 81 3
92 82 2
96 86 3
95 85 2
95 85 3
94 84 3
98 89 3
97 87 4
100 90 4
100 90 3
103 93 3
100 90 4
100 90 2
101 92 3
104 94 3
101 91 3
105 95 2
102 93 2
106 97 4
109 99 3
102 93 4
108 98 3
104 96 2
107 97 3
110 101 2
109 100 4
111 102 4
112 103 3
108 99 3
109 100 4
110 101 3
113 104 3
114 105 3
111 102 5
113 104 3
112 103 5
111 102 4
113 104 5
114 105 4
115 106 4
113 105 4
114 105 6
114 106 4
113 105 5
116 108 6
115 107 9
113 105 7
114 106 10
115 107 10
116 108 12
115 107 10
115 107 10
116 108 13
115 106 12
116 108 14
116 108 15
114 106 16
114 106 15
115 106 17
112 104 16
113 105 18
115 107 17
113 106 18
114 106 18
117 109 23
115 108 23
116 108 26
115 107 23
116 108 26
114 106 28
114 106 24
114 105 27
116 108 29
111 103 26
115 107 29
110 102 30
111 103 28
114 107 30
108 101 28
112 104 35
108 100 31
115 113 29
136 145 24
157 174 13
164 184 0
166 189 0
167 190 0
166 190 0
165 189 0
154 175 0
143 162 0
130 147 0
124 141 0
130 147 0
132 150 0
136 154 0
139 157 0
141 160 0
141 159 0
142 161 0
142 161 0
143 161 0
143 162 0
141 159 0
142 160 0
141 159 0
142 160 0
141 159 0
141 159 0
140 158 0
141 159 0
140 158 0
141 159 0
139 157 0
140 158 0
138 156 0
138 155 0
138 155 0
138 156 0
137 155 0
137 154 0
137 154 0
136 153 0
136 153 0
135 152 0
138 155 0
134 151 0
135 152 0
134 151 0
136 152 0
135 152 0
132 149 0
132 149 0
133 150 0
133 149 0
131 148 0
131 147 0
132 148 0
131 147 0
130 147 0
130 146 0
128 144 0
128 144 0
129 145 0
128 144 0
128 144 0
128 143 0
126 142 0
128 143 0
126 142 0
127 142 0
127 142 0
124 139 0
122 137 0
122 136 0
123 138 0
124 138 0
123 138 0
120 134 0
121 135 0
119 134 0
118 132 0
116 130 0
118 131 0
114 128 0
114 127 0
114 127 0
113 126 0
110 123 0
111 124 0
109 121 0
104 116 0
103 115 0
103 116 0
100 112 0
94 105 0
92 103 0
83 93 0
76 85 0
73 81 0
76 84 0
79 88 0
81 90 0
84 93 0
89 100 0
91 101 0
95 106 0
96 108 0
99 111 0
97 109 0
99 111 0
103 116 0
102 115 0
105 118 0
107 121 0
108 122 0
110 124 0
108 122 0
109 123 0
113 128 0
110 125 0
113 128 0
112 126 0
114 129 0
113 128 0
114 130 0
117 133 0
115 131 0
117 133 0
117 133 0
120 137 0
115 132 0
114 131 0
116 132 0
118 135 0
119 136 0
117 134 0
118 135 0
119 135 0
119 136 0
119 136 0
121 139 0
118 135 0
120 137 0
123 140 0
118 135 0
121 138 0
120 138 0
117 135 0
120 137 0
120 138 0
121 139 0
117 134 0
116 133 0
117 135 0
117 135 0
118 136 0
117 135 0
118 136 0
117 135 0
116 134 0
114 132 0
113 130 0
114 132 0
110 127 0
114 132 0
110 128 0
113 130 0
114 131 0
111 128 0
108 126 0
109 126 0
105 122 0
105 122 0
105 122 0
104 121 0
103 120 0
103 119 0
101 117 0
100 116 0
100 116 0
99 115 0
95 110 0
101 117 0
95 111 0
95 110 0
94 110 0
89 104 0
89 104 0
90 105 0
85 100 0
87 102 0
87 101 0
87 102 0
90 104 0
84 98 0
82 96 0
78 92 0
89 103 0
85 99 0
82 95 0
87 101 0
85 99 0
80 93 0
80 93 0
81 94 0
85 98 0
82 95 0
86 100 0
85 98 0
85 99 0
85 98 0
85 98 0
88 100 0
85 98 0
84 96 0
87 100 0
91 104 0
91 104 0
91 104 0
88 101 0
87 100 0
90 104 0
90 103 0
91 104 0
97 111 0
91 105 0
95 108 0
96 109 0
95 108 0
97 111 0
101 115 0
96 110 0
103 117 0
102 115 0
103 117 0
104 118 0
105 118 0
105 119 0
107 120 0
108 122 0
107 120 0
109 123 0
107 121 0
110 123 0
108 121 0
110 123 0
110 123 0
106 120 0
112 125 0
112 124 0
115 128 0
114 127 0
110 121 0
114 126 0
113 124 0
113 125 0
112 123 0
113 124 0
115 126 0
113 124 0
117 129 0
112 124 0
114 125 0
113 124 0
113 124 0
115 126 0
110 120 0
114 124 0
118 128 0
113 123 0
111 121 0
112 121 0
112 122 0
116 125 0
115 123 0
112 120 0
108 115 0
113 121 0
115 122 0
114 121 0
108 115 0
113 119 0
111 117 0
110 115 0
109 113 0
111 115 0
106 110 0
104 106 0
105 108 0
104 106 0
104 107 0
99 100 0
101 103 0
100 100 0
98 98 0
98 99 0
100 100 0
96 94 0
97 95 0
89 87 0
88 85 0
87 83 0
84 80 0
80 76 0
79 75 0
73 67 0
73 67 0
69 62 0
67 58 0
64 55 1
68 58 2
72 62 2
75 65 2
77 67 1
81 70 1
81 71 2
84 73 2
85 74 3
86 75 2
89 79 2
85 75 2
90 79 3
88 78 2
94 83 1
93 83 3
94 83 3
96 85 2
95 84 4
95 84 2
99 88 1
101 90 5
100 89 2
98 88 3
103 92 2
103 93 2
103 93 2
103 93 3
104 94 3
104 93 4
104 94 4
105 95 2
105 96 3
109 99 4
104 95 4
107 97 2
108 98 3
107 97 4
107 99 3
109 100 3
107 97 3
108 100 3
111 102 5
111 102 3
112 103 3
112 103 3
111 101 4
110 101 3
111 101 5
110 102 5
111 102 5
110 102 5
112 103 5
109 101 7
112 104 8
113 104 11
116 107 5
114 106 8
112 105 12
114 105 9
114 105 13
111 102 13
112 104 11
116 107 16
113 105 15
111 102 12
112 103 18
111 103 16
116 108 19
114 106 18
113 104 15
112 103 22
112 103 21
113 104 22
113 105 20
111 103 24
115 107 24
112 104 26
112 104 26
109 101 25
113 105 29
109 101 27
110 102 29
111 103 32
112 103 29
109 100 32
108 100 32
110 102 34
113 111 29
134 142 25
152 168 16
164 184 0
163 184 0
164 185 0
165 186 0
166 189 0
166 189 0
166 189 0
165 188 0
166 189 0
166 188 0
165 188 0
157 179 0
145 165 0
132 149 0
124 140 0
128 145 0
131 148 0
134 152 0
136 154 0
138 155 0
140 158 0
140 158 0
143 161 0
142 160 0
141 159 0
142 160 0
140 158 0
140 158 0
140 158 0
139 156 0
139 156 0
139 156 0
140 157 0
138 156 0
138 155 0
138 156 0
137 155 0
137 154 0
137 154 0
138 155 0
136 153 0
135 153 0
134 151 0
136 153 0
135 151 0
133 149 0
134 151 0
134 150 0
135 151 0
133 150 0
133 149 0
133 150 0
132 148 0
132 149 0
132 148 0
131 147 0
132 148 0
129 145 0
131 146 0
128 143 0
128 143 0
128 143 0
127 142 0
128 143 0
128 143 0
126 142 0
128 143 0
126 141 0
127 142 0
126 140 0
122 136 0
125 140 0
121 135 0
124 139 0
122 136 0
119 133 0
120 134 0
120 134 0
118 131 0
118 132 0
114 127 0
115 129 0
113 126 0
112 126 0
110 123 0
110 122 0
107 120 0
107 120 0
106 118 0
104 116 0
98 110 0
92 103 0
90 100 0
81 90 0
76 85 0
76 84 0
74 82 0
78 87 0
84 93 0
80 89 0
85 95 0
90 100 0
93 104 0
93 105 0
96 107 0
98 110 0
101 113 0
100 112 0
102 115 0
106 119 0
110 124 0
109 123 0
110 123 0
108 122 0
110 123 0
113 127 0
114 128 0
109 123 0
114 129 0
113 128 0
114 129 0
116 131 0
113 129 0
113 129 0
117 133 0
117 133 0
117 133 0
118 134 0
117 133 0
116 132 0
120 136 0
119 136 0
119 136 0
118 135 0
117 134 0
118 135 0
120 137 0
118 136 0
121 138 0
118 135 0
120 137 0
118 135 0
120 137 0
122 139 0
123 140 0
122 139 0
121 139 0
120 137 0
121 139 0
120 138 0
118 136 0
122 139 0
117 135 0
118 137 0
119 137 0
118 136 0
118 136 0
118 136 0
116 134 0
116 133 0
115 133 0
119 137 0
112 130 0
117 135 0
114 132 0
110 127 0
113 131 0
113 131 0
109 127 0
112 129 0
106 124 0
110 128 0
109 126 0
111 129 0
107 124 0
110 127 0
104 121 0
106 123 0
102 118 0
105 121 0
102 119 0
99 116 0
98 113 0
101 117 0
99 115 0
96 111 0
94 109 0
94 109 0
94 109 0
90 105 0
91 106 0
93 108 0
87 102 0
87 102 0
88 102 0
83 98 0
87 101 0
88 102 0
86 100 0
85 99 0
87 101 0
92 105 0
86 100 0
89 103 0
89 103 0
92 106 0
90 104 0
87 101 0
89 102 0
87 100 0
87 100 0
89 103 0
88 101 0
88 102 0
87 101 0
90 104 0
89 103 0
91 105 0
93 107 0
95 109 0
97 111 0
94 107 0
92 106 0
95 109 0
101 115 0
99 114 0
99 113 0
102 116 0
104 119 0
98 112 0
101 115 0
104 118 0
104 118 0
106 120 0
106 120 0
108 122 0
109 123 0
110 124 0
107 121 0
108 122 0
109 123 0
109 124 0
113 127 0
110 124 0
110 123 0
109 122 0
116 129 0
111 124 0
114 128 0
117 131 0
111 124 0
115 128 0
111 124 0
115 127 0
115 128 0
114 127 0
115 127 0
114 126 0
111 124 0
113 126 0
116 128 0
115 127 0
116 127 0
118 129 0
118 131 0
119 130 0
118 129 0
116 126 0
114 124 0
116 127 0
114 123 0
115 125 0
112 120 0
118 128 0
114 123 0
115 124 0
116 125 0
115 124 0
112 120 0
115 123 0
113 120 0
113 120 0
112 118 0
111 117 0
107 111 0
112 117 0
106 111 0
108 111 0
109 114 0
105 108 0
105 108 0
107 110 0
104 106 0
104 106 0
103 104 0
102 103 0
102 103 0
99 100 0
98 96 0
97 95 0
94 92 0
93 91 0
91 89 0
89 85 0
85 81 0
83 78 0
81 77 0
77 72 0
75 69 0
72 66 0
68 61 0
64 57 0
67 58 1
61 53 0
69 58 2
75 65 2
74 63 1
78 68 0
79 68 1
85 74 0
81 71 2
85 75 3
88 77 1
90 80 3
90 80 2
91 81 3
94 83 2
91 80 3
92 82 1
97 86 3
95 85 2
98 87 4
98 88 3
100 89 3
101 90 2
100 90 2
100 90 3
101 91 3
104 94 2
100 90 4
102 92 3
102 92 3
106 96 2
103 93 3
109 99 4
107 98 3
109 99 3
106 96 2
107 97 4
109 99 4
105 96 4
107 98 4
108 99 4
111 102 4
109 100 3
107 98 3
107 98 3
107 97 3
109 100 7
109 101 4
112 103 5
109 100 6
110 101 10
110 101 7
110 102 9
110 101 9
113 104 13
112 103 10
112 103 9
111 103 9
112 103 14
111 102 14
109 100 15
110 101 14
113 104 17
115 106 17
114 105 18
113 105 19
113 104 21
113 105 17
109 101 18
110 102 18
112 103 26
113 104 23
110 102 24
109 101 25
114 105 26
110 102 24
112 103 30
109 101 26
109 101 30
106 98 26
107 99 29
107 99 30
123 124 28
138 147 21
154 169 12
162 180 0
162 181 0
163 182 0
164 183 0
164 184 0
163 183 0
164 185 0
166 189 0
165 188 0
166 188 0
165 187 0
165 188 0
164 186 0
164 187 0
165 188 0
165 187 0
165 187 0
160 182 0
147 167 0
136 154 0
127 144 0
125 141 0
128 145 0
133 150 0
134 151 0
136 153 0
138 155 0
139 157 0
138 155 0
140 158 0
140 157 0
140 158 0
140 157 0
139 156 0
139 156 0
139 156 0
139 156 0
138 155 0
137 154 0
137 154 0
138 155 0
136 153 0
136 153 0
137 153 0
136 153 0
135 152 0
134 150 0
133 150 0
135 152 0
135 151 0
135 151 0
133 149 0
133 149 0
131 147 0
133 149 0
131 147 0
133 149 0
129 145 0
131 146 0
129 144 0
130 145 0
128 143 0
127 143 0
128 143 0
127 142 0
128 143 0
126 141 0
125 140 0
126 141 0
125 140 0
124 139 0
123 138 0
124 139 0
122 136 0
121 136 0
119 134 0
121 135 0
120 134 0
117 130 0
117 131 0
115 128 0
115 129 0
117 130 0
111 124 0
112 125 0
111 123 0
108 120 0
108 120 0
106 118 0
103 114 0
97 109 0
91 101 0
87 97 0
77 85 0
77 86 0
71 80 0
77 86 0
80 88 0
81 90 0
86 95 0
88 99 0
91 102 0
95 106 0
93 104 0
97 108 0
99 111 0
102 114 0
101 113 0
103 116 0
104 117 0
106 119 0
108 122 0
108 121 0
109 122 0
111 124 0
113 127 0
114 128 0
112 127 0
113 127 0
113 128 0
113 128 0
115 131 0
114 129 0
113 129 0
118 134 0
120 136 0
116 131 0
116 132 0
121 138 0
118 134 0
121 138 0
121 137 0
119 136 0
119 136 0
120 137 0
119 136 0
123 141 0
120 137 0
120 137 0
120 137 0
123 140 0
121 138 0
121 138 0
123 140 0
123 141 0
121 138 0
120 137 0
121 139 0
120 138 0
124 142 0
124 142 0
122 140 0
120 138 0
118 136 0
119 137 0
121 139 0
120 139 0
120 138 0
118 135 0
118 136 0
121 140 0
120 138 0
118 136 0
116 134 0
116 134 0
114 132 0
119 137 0
116 134 0
116 134 0
115 133 0
113 131 0
113 130 0
115 133 0
112 130 0
113 131 0
108 125 0
107 124 0
109 127 0
111 128 0
110 128 0
109 126 0
106 123 0
106 122 0
102 119 0
104 121 0
103 119 0
101 117 0
102 118 0
98 115 0
96 111 0
98 114 0
91 107 0
94 109 0
95 111 0
95 111 0
91 107 0
94 110 0
91 106 0
97 112 0
90 105 0
92 107 0
89 103 0
91 106 0
89 103 0
88 102 0
92 106 0
96 110 0
94 108 0
91 105 0
92 106 0
93 108 0
92 107 0
92 107 0
93 106 0
94 109 0
90 105 0
90 105 0
89 104 0
90 104 0
96 110 0
94 108 0
97 111 0
96 110 0
96 110 0
94 108 0
98 112 0
99 113 0
100 115 0
101 116 0
101 116 0
98 112 0
105 119 0
108 122 0
106 121 0
107 122 0
106 121 0
108 124 0
109 124 0
111 126 0
113 128 0
110 124 0
110 124 0
113 128 0
107 121 0
111 126 0
116 130 0
113 128 0
112 127 0
110 124 0
116 130 0
115 129 0
118 131 0
115 128 0
113 127 0
117 130 0
116 129 0
116 129 0
115 128 0
118 132 0
116 128 0
115 128 0
115 128 0
118 131 0
114 127 0
119 131 0
117 128 0
117 130 0
119 130 0
114 125 0
117 128 0
119 131 0
117 128 0
117 128 0
118 128 0
118 129 0
116 125 0
117 127 0
119 129 0
114 123 0
113 122 0
116 125 0
115 124 0
114 122 0
115 122 0
114 121 0
114 121 0
112 118 0
112 118 0
111 117 0
110 116 0
111 116 0
107 111 0
109 112 0
109 112 0
108 112 0
106 110 0
107 110 0
108 110 0
104 106 0
104 106 0
104 105 0
100 100 0
102 103 0
99 98 0
99 98 0
97 95 0
94 92 0
91 89 0
88 86 0
88 86 0
87 83 0
80 75 0
82 77 0
81 75 0
77 71 0
76 69 0
69 62 0
63 55 0
65 57 0
65 56 2
70 60 2
71 61 0
74 62 2
80 69 1
78 67 2
81 70 3
83 73 3
83 72 2
87 75 2
89 78 1
85 75 2
88 77 2
92 81 3
93 82 2
91 80 3
96 85 3
96 85 2
97 87 2
99 88 4
99 88 4
97 86 2
96 86 2
99 89 3
98 89 4
102 91 4
103 93 2
103 94 3
103 92 4
102 91 3
106 96 6
104 94 3
104 93 3
102 93 3
108 98 2
103 93 4
107 98 3
106 97 3
105 96 4
106 98 5
108 98 3
106 98 5
109 100 5
108 99 4
106 98 7
107 99 7
109 100 8
105 96 7
107 98 8
108 100 7
108 100 11
106 97 10
108 100 8
109 101 12
109 100 15
109 100 12
110 101 16
108 98 13
109 100 15
109 100 18
108 99 15
109 101 20
109 100 23
108 100 23
111 102 25
106 97 19
108 100 23
108 99 26
111 102 30
110 101 23
108 100 28
106 98 24
110 102 28
105 97 28
112 108 27
127 130 23
144 155 19
156 172 8
160 178 0
161 179 0
162 180 0
161 179 0
161 180 0
161 179 0
162 180 0
164 184 0
163 183 0
163 182 0
165 188 0
165 188 0
165 188 0
165 187 0
164 186 0
164 186 0
164 186 0
164 186 0
165 187 0
164 185 0
163 185 0
163 185 0
164 185 0
163 185 0
156 176 0
146 165 0
134 152 0
126 142 0
120 135 0
124 140 0
127 143 0
129 146 0
133 150 0
135 152 0
136 152 0
137 154 0
137 154 0
137 154 0
137 154 0
138 155 0
138 155 0
137 154 0
138 155 0
135 151 0
135 152 0
135 152 0
134 151 0
136 152 0
135 152 0
135 151 0
132 148 0
136 152 0
133 149 0
134 150 0
133 148 0
130 146 0
132 147 0
129 145 0
130 145 0
129 144 0
129 144 0
130 145 0
128 143 0
130 145 0
127 142 0
126 141 0
128 142 0
127 142 0
125 140 0
125 139 0
122 137 0
122 136 0
123 138 0
123 137 0
121 135 0
121 135 0
119 133 0
119 133 0
117 130 0
117 130 0
116 130 0
117 130 0
111 124 0
111 124 0
112 125 0
112 124 0
106 119 0
103 115 0
101 113 0
96 107 0
94 105 0
89 98 0
80 88 0
79 88 0
77 85 0
76 85 0
83 92 0
85 94 0
84 94 0
88 98 0
90 100 0
90 100 0
93 104 0
98 109 0
94 105 0
98 110 0
100 112 0
104 116 0
106 119 0
106 119 0
111 125 0
108 122 0
107 121 0
111 125 0
112 126 0
114 128 0
113 127 0
111 125 0
113 128 0
115 129 0
117 132 0
116 131 0
116 131 0
117 133 0
113 128 0
120 135 0
115 130 0
119 135 0
119 136 0
120 137 0
119 136 0
120 137 0
119 136 0
123 140 0
119 136 0
119 136 0
120 136 0
121 138 0
122 140 0
123 140 0
123 141 0
126 144 0
121 138 0
122 139 0
119 136 0
122 139 0
123 140 0
126 143 0
122 140 0
122 141 0
123 141 0
119 137 0
122 140 0
122 140 0
120 137 0
120 138 0
121 139 0
120 138 0
124 143 0
121 139 0
122 140 0
116 134 0
120 139 0
117 135 0
118 136 0
117 135 0
118 136 0
117 136 0
120 138 0
117 136 0
117 135 0
118 137 0
111 129 0
118 136 0
115 133 0
114 132 0
113 130 0
114 132 0
113 130 0
111 129 0
109 127 0
110 127 0
111 129 0
106 124 0
106 123 0
104 121 0
107 125 0
105 122 0
104 121 0
104 121 0
104 121 0
103 120 0
102 119 0
102 118 0
98 114 0
101 118 0
97 113 0
97 113 0
98 114 0
93 109 0
92 107 0
95 110 0
96 111 0
94 110 0
97 113 0
90 105 0
95 111 0
95 110 0
95 110 0
96 111 0
96 112 0
92 107 0
94 109 0
92 108 0
100 114 0
95 109 0
95 110 0
96 111 0
94 108 0
97 111 0
96 111 0
97 111 0
97 112 0
101 116 0
98 113 0
101 117 0
101 116 0
102 117 0
95 110 0
99 114 0
106 121 0
105 121 0
104 120 0
101 115 0
105 120 0
101 117 0
104 119 0
110 126 0
107 122 0
111 126 0
107 121 0
111 126 0
110 125 0
114 129 0
113 128 0
113 128 0
112 127 0
113 128 0
112 126 0
117 131 0
112 127 0
115 130 0
112 126 0
114 128 0
114 128 0
115 129 0
117 132 0
118 133 0
115 128 0
114 128 0
117 131 0
114 127 0
117 130 0
117 130 0
117 131 0
115 127 0
121 134 0
117 129 0
118 130 0
117 129 0
117 130 0
120 131 0
119 130 0
118 130 0
119 130 0
118 129 0
117 127 0
120 132 0
118 129 0
116 127 0
116 125 0
118 128 0
119 128 0
117 126 0
113 121 0
118 128 0
118 126 0
117 125 0
115 123 0
118 125 0
114 122 0
115 121 0
111 117 0
111 116 0
112 117 0
112 118 0
108 113 0
108 113 0
110 113 0
106 109 0
105 108 0
107 110 0
106 108 0
107 108 0
102 104 0
103 104 0
103 103 0
102 102 0
101 100 0
101 101 0
99 99 0
97 95 0
96 93 0
91 89 0
92 88 0
89 85 0
88 84 0
87 82 0
83 78 0
85 80 0
79 73 0
78 69 0
74 67 0
69 61 0
72 64 0
66 56 1
71 62 1
70 60 2
73 62 2
75 65 0
79 68 3
80 68 2
82 71 2
85 74 2
89 78 3
83 73 2
87 77 1
89 78 3
92 81 2
93 82 3
89 79 3
94 83 2
95 85 2
97 87 3
96 86 2
97 86 4
96 86 3
99 89 3
97 88 3
100 90 2
100 90 3
103 92 3
99 89 3
99 89 3
99 89 2
103 93 4
103 94 3
100 89 3
103 94 4
104 94 4
106 97 2
103 93 6
103 94 5
104 94 4
102 92 7
106 96 4
103 94 6
103 94 4
105 96 10
105 96 8
106 96 10
106 97 7
105 96 13
105 95 15
109 99 13
108 98 13
105 96 16
105 96 17
106 98 14
106 97 18
108 99 19
106 97 18
109 101 20
108 100 18
111 102 22
108 100 23
109 99 24
108 100 26
109 100 23
105 97 23
107 99 27
104 96 26
113 109 26
128 130 22
138 146 18
151 164 10
160 176 0
159 175 0
159 174 0
160 177 0
159 176 0
159 176 0
162 179 0
159 176 0
161 180 0
162 180 0
162 181 0
162 180 0
162 180 0
163 182 0
165 187 0
164 187 0
164 187 0
164 187 0
164 186 0
165 187 0
164 186 0
164 186 0
164 186 0
164 186 0
164 186 0
163 184 0
163 184 0
162 184 0
163 184 0
164 185 0
162 183 0
161 182 0
159 179 0
148 167 0
138 156 0
130 146 0
124 140 0
122 137 0
124 139 0
126 142 0
129 144 0
129 145 0
131 147 0
132 148 0
131 147 0
133 149 0
134 151 0
134 150 0
134 151 0
133 149 0
134 150 0
134 150 0
134 150 0
133 149 0
132 148 0
131 146 0
133 148 0
131 146 0
130 146 0
130 145 0
131 146 0
128 143 0
127 142 0
128 143 0
129 144 0
128 143 0
127 141 0
128 142 0
126 141 0
127 141 0
125 139 0
124 138 0
123 137 0
121 135 0
122 136 0
121 134 0
121 135 0
120 133 0
119 133 0
118 132 0
116 130 0
114 127 0
113 126 0
111 124 0
110 122 0
106 118 0
106 118 0
103 115 0
99 110 0
93 104 0
92 102 0
85 94 0
82 91 0
82 91 0
85 94 0
83 92 0
86 95 0
84 93 0
90 100 0
91 101 0
93 103 0
95 105 0
94 105 0
95 106 0
98 109 0
102 113 0
102 114 0
105 117 0
103 115 0
109 121 0
110 123 0
106 119 0
112 125 0
111 124 0
114 128 0
113 127 0
117 131 0
114 128 0
111 125 0
114 129 0
120 135 0
117 132 0
118 132 0
117 133 0
119 134 0
118 134 0
119 135 0
119 135 0
119 135 0
119 135 0
120 136 0
119 135 0
121 138 0
119 135 0
122 139 0
123 140 0
123 140 0
125 142 0
120 136 0
123 140 0
123 141 0
122 139 0
121 138 0
120 137 0
123 141 0
124 141 0
127 145 0
123 141 0
125 143 0
127 146 0
125 144 0
121 139 0
126 144 0
123 141 0
124 142 0
122 140 0
123 141 0
122 141 0
122 140 0
123 142 0
119 137 0
119 137 0
124 142 0
123 141 0
120 138 0
121 140 0
120 139 0
114 132 0
121 139 0
119 138 0
119 138 0
118 136 0
120 138 0
119 137 0
116 134 0
119 138 0
118 136 0
117 135 0
115 133 0
116 133 0
114 132 0
115 133 0
112 129 0
112 130 0
111 129 0
115 133 0
112 130 0
111 129 0
109 127 0
111 129 0
105 122 0
106 123 0
106 124 0
110 127 0
104 121 0
104 121 0
106 123 0
105 122 0
105 122 0
101 117 0
104 121 0
101 118 0
102 118 0
102 119 0
99 115 0
103 120 0
96 112 0
98 114 0
96 111 0
98 114 0
99 115 0
100 116 0
94 109 0
100 115 0
98 113 0
100 115 0
96 112 0
98 113 0
97 112 0
98 114 0
98 114 0
100 115 0
97 112 0
101 116 0
99 115 0
101 117 0
100 115 0
98 113 0
104 119 0
98 113 0
105 121 0
104 119 0
107 122 0
98 113 0
106 122 0
105 121 0
106 122 0
110 126 0
109 125 0
108 123 0
108 124 0
108 123 0
113 129 0
110 125 0
113 128 0
115 131 0
114 129 0
112 128 0
113 129 0
116 131 0
113 128 0
114 129 0
115 130 0
118 133 0
114 130 0
117 131 0
118 133 0
114 129 0
116 131 0
119 133 0
119 133 0
118 132 0
117 131 0
117 131 0
118 132 0
119 133 0
121 135 0
118 131 0
119 132 0
119 132 0
118 131 0
120 133 0
117 130 0
123 135 0
119 131 0
119 131 0
117 130 0
120 133 0
121 133 0
117 128 0
117 128 0
120 130 0
118 129 0
122 133 0
122 132 0
119 130 0
117 127 0
118 128 0
114 123 0
119 128 0
117 126 0
115 123 0
116 125 0
118 125 0
117 124 0
117 124 0
118 125 0
114 121 0
113 119 0
113 118 0
114 119 0
115 120 0
112 118 0
114 118 0
111 115 0
111 115 0
110 113 0
106 107 0
109 111 0
108 110 0
106 106 0
107 108 0
100 100 0
102 101 0
101 99 0
102 100 0
102 101 0
98 97 0
97 95 0
95 93 0
95 92 0
95 92 0
92 89 0
87 83 0
87 82 0
86 82 0
82 77 0
84 77 0
80 72 0
77 69 0
78 70 0
77 68 0
72 64 0
75 66 0
71 61 0
74 64 0
72 61 1
77 65 2
78 68 1
82 71 3
85 73 2
84 73 2
84 72 1
89 77 1
90 78 3
91 80 3
90 79 3
89 78 2
92 81 2
95 84 3
93 83 4
96 86 4
95 83 3
98 88 3
97 87 2
98 87 3
96 86 5
95 85 3
99 89 2
98 88 3
99 90 3
98 87 5
100 90 2
100 90 4
103 93 6
102 92 5
100 91 5
103 94 6
101 92 9
101 91 9
102 92 9
104 94 10
105 96 10
102 92 6
104 95 13
102 93 12
103 93 15
106 98 12
104 96 15
104 95 14
102 94 15
107 97 18
103 94 21
105 95 20
106 97 19
106 97 21
103 94 19
105 96 22
107 99 23
102 94 21
103 95 25
110 104 24
119 119 23
129 133 16
139 147 13
152 164 8
157 172 0
157 171 0
157 172 0
157 172 0
158 173 0
158 173 0
159 175 0
159 175 0
159 176 0
158 174 0
161 177 0
160 178 0
159 176 0
162 180 0
162 181 0
161 180 0
161 179 0
161 180 0
164 186 0
164 186 0
164 186 0
164 186 0
164 186 0
164 185 0
163 185 0
163 185 0
163 185 0
163 184 0
163 184 0
163 185 0
162 183 0
161 182 0
162 183 0
162 183 0
160 181 0
162 183 0
160 180 0
160 181 0
159 180 0
160 181 0
160 181 0
155 174 0
147 165 0
140 157 0
134 151 0
126 142 0
120 135 0
118 133 0
119 133 0
121 136 0
125 140 0
124 138 0
127 142 0
126 141 0
126 141 0
130 145 0
129 144 0
129 144 0
129 144 0
130 145 0
128 143 0
127 142 0
129 144 0
129 144 0
129 143 0
127 142 0
128 143 0
128 142 0
126 141 0
127 142 0
126 141 0
125 139 0
123 137 0
122 136 0
119 133 0
120 134 0
119 133 0
118 131 0
117 130 0
116 129 0
117 130 0
112 125 0
111 123 0
108 120 0
108 120 0
104 116 0
99 110 0
97 107 0
93 104 0
92 102 0
87 97 0
90 100 0
87 96 0
91 100 0
86 95 0
94 104 0
90 100 0
95 104 0
92 102 0
95 105 0
94 104 0
94 104 0
94 105 0
100 111 0
99 110 0
97 108 0
100 111 0
102 114 0
107 119 0
106 119 0
106 119 0
109 122 0
108 121 0
112 125 0
111 124 0
112 125 0
115 130 0
115 129 0
114 128 0
117 131 0
115 130 0
115 130 0
120 135 0
117 131 0
118 133 0
120 135 0
118 133 0
115 131 0
119 135 0
121 137 0
122 138 0
120 137 0
122 138 0
119 135 0
121 137 0
120 137 0
120 137 0
119 136 0
122 140 0
123 140 0
123 140 0
125 143 0
124 141 0
126 143 0
123 140 0
122 140 0
126 144 0
126 144 0
125 142 0
127 145 0
126 144 0
125 143 0
122 140 0
124 142 0
124 142 0
122 140 0
120 137 0
125 143 0
123 141 0
124 142 0
121 140 0
125 143 0
124 143 0
125 144 0
120 139 0
122 141 0
122 141 0
124 142 0
124 143 0
121 139 0
120 138 0
121 140 0
120 139 0
121 139 0
122 140 0
121 139 0
118 137 0
120 138 0
119 137 0
119 138 0
116 135 0
116 135 0
117 135 0
118 137 0
117 136 0
116 134 0
115 133 0
114 132 0
115 133 0
112 130 0
114 132 0
114 132 0
113 131 0
112 130 0
110 128 0
109 127 0
111 129 0
107 125 0
109 126 0
108 125 0
111 128 0
107 124 0
105 122 0
109 126 0
105 121 0
103 119 0
106 122 0
100 117 0
105 121 0
102 119 0
103 119 0
103 120 0
101 117 0
103 120 0
103 119 0
105 122 0
102 118 0
99 116 0
105 121 0
98 114 0
100 116 0
105 121 0
102 119 0
100 116 0
99 114 0
101 117 0
105 121 0
101 117 0
100 116 0
102 118 0
101 116 0
107 123 0
105 120 0
104 120 0
104 119 0
105 121 0
106 122 0
109 126 0
109 124 0
111 127 0
111 128 0
109 125 0
109 125 0
110 126 0
113 128 0
114 131 0
112 128 0
111 127 0
114 129 0
113 128 0
115 130 0
113 129 0
117 133 0
113 129 0
115 130 0
115 130 0
113 128 0
115 129 0
118 133 0
117 133 0
115 130 0
120 135 0
119 133 0
119 133 0
119 134 0
120 135 0
117 131 0
120 134 0
115 129 0
120 134 0
117 131 0
121 135 0
120 134 0
120 134 0
124 138 0
119 133 0
122 134 0
120 132 0
123 136 0
121 134 0
119 132 0
119 130 0
121 134 0
118 129 0
122 134 0
122 134 0
119 130 0
122 133 0
118 128 0
120 130 0
119 129 0
120 131 0
119 131 0
118 127 0
119 128 0
119 129 0
117 125 0
115 124 0
118 127 0
118 125 0
118 126 0
117 124 0
116 123 0
119 125 0
116 123 0
114 119 0
112 117 0
108 112 0
111 116 0
112 116 0
109 113 0
112 115 0
112 115 0
112 116 0
110 111 0
110 111 0
111 113 0
107 108 0
107 107 0
104 103 0
104 105 0
102 101 0
103 102 0
102 100 0
96 94 0
97 94 0
94 91 0
95 92 0
93 89 0
94 89 0
94 91 0
91 87 0
87 81 0
88 83 0
84 77 0
84 77 0
81 74 0
83 76 0
81 75 0
78 70 0
81 72 0
78 70 0
80 71 0
75 66 1
78 68 0
77 67 2
77 67 1
79 68 2
81 71 0
83 72 1
84 73 1
83 72 1
87 76 2
88 76 3
84 73 1
90 80 2
95 84 2
91 80 2
90 79 3
94 83 3
93 83 2
96 86 2
90 80 2
93 83 4
96 87 4
95 85 5
97 88 4
98 89 8
96 87 7
97 87 8
99 90 10
101 91 11
99 90 8
99 89 8
100 90 12
98 89 10
101 91 11
101 91 10
101 92 12
102 93 17
101 93 15
100 92 14
101 92 15
100 92 16
102 93 16
102 93 18
97 89 18
102 93 23
100 92 20
107 101 22
113 111 16
125 127 19
135 140 17
138 145 11
149 161 5
155 168 0
155 169 0
155 169 0
155 169 0
155 169 0
157 172 0
156 170 0
157 171 0
157 171 0
158 173 0
157 171 0
158 174 0
159 174 0
159 175 0
159 175 0
159 175 0
160 176 0
161 177 0
159 177 0
161 179 0
160 177 0
161 178 0
161 179 0
165 187 0
164 186 0
163 185 0
163 185 0
163 185 0
163 185 0
163 185 0
164 185 0
164 185 0
164 185 0
163 184 0
163 183 0
162 183 0
162 183 0
162 183 0
161 182 0
160 181 0
160 180 0
161 182 0
159 180 0
159 179 0
159 179 0
159 179 0
159 179 0
158 178 0
157 177 0
158 178 0
155 174 0
157 176 0
152 171 0
148 166 0
139 156 0
136 153 0
133 149 0
127 143 0
123 138 0
119 133 0
114 128 0
115 128 0
113 126 0
116 130 0
115 128 0
116 129 0
116 129 0
115 129 0
117 130 0
119 133 0
115 128 0
114 127 0
114 127 0
116 129 0
115 127 0
112 125 0
113 125 0
112 124 0
110 123 0
111 124 0
108 121 0
104 116 0
105 116 0
103 115 0
99 110 0
98 109 0
99 110 0
98 109 0
99 110 0
97 107 0
100 111 0
97 107 0
98 109 0
99 109 0
102 113 0
99 109 0
98 109 0
104 115 0
97 108 0
101 111 0
99 109 0
101 112 0
98 108 0
101 113 0
100 111 0
105 116 0
105 117 0
103 115 0
106 118 0
106 118 0
110 122 0
107 119 0
108 122 0
110 123 0
115 128 0
111 124 0
112 126 0
114 128 0
114 127 0
117 131 0
116 130 0
118 132 0
117 132 0
120 135 0
119 134 0
121 136 0
119 134 0
116 132 0
120 135 0
121 137 0
118 133 0
122 138 0
121 136 0
122 139 0
124 141 0
121 137 0
119 135 0
122 139 0
121 138 0
122 139 0
124 141 0
122 138 0
123 140 0
125 142 0
123 141 0
127 144 0
127 144 0
125 142 0
125 143 0
128 146 0
125 142 0
128 145 0
124 142 0
127 145 0
123 141 0
127 145 0
123 141 0
124 142 0
126 144 0
123 141 0
123 141 0
124 142 0
123 142 0
121 139 0
126 144 0
122 141 0
124 142 0
122 141 0
125 144 0
126 145 0
122 141 0
127 146 0
119 137 0
122 141 0
125 143 0
122 140 0
123 142 0
121 140 0
123 142 0
125 145 0
123 142 0
122 141 0
123 142 0
118 137 0
121 140 0
118 137 0
117 136 0
120 138 0
117 135 0
115 133 0
117 135 0
119 138 0
120 139 0
118 136 0
116 134 0
115 133 0
113 131 0
116 134 0
110 128 0
115 133 0
116 134 0
115 133 0
114 132 0
111 129 0
109 127 0
107 125 0
110 127 0
110 128 0
107 124 0
109 126 0
107 125 0
105 122 0
103 120 0
105 122 0
105 122 0
104 120 0
106 123 0
104 120 0
107 123 0
106 123 0
105 121 0
104 120 0
108 124 0
102 118 0
103 119 0
107 123 0
103 119 0
107 123 0
107 123 0
106 122 0
108 124 0
106 123 0
107 123 0
105 121 0
102 118 0
107 124 0
103 119 0
107 124 0
110 126 0
107 124 0
108 124 0
109 126 0
107 123 0
112 129 0
112 129 0
113 129 0
112 129 0
114 130 0
113 130 0
113 129 0
114 130 0
114 131 0
119 136 0
114 130 0
112 128 0
115 132 0
117 133 0
118 133 0
120 136 0
118 134 0
117 132 0
117 134 0
118 133 0
115 130 0
120 135 0
116 132 0
117 132 0
117 132 0
120 135 0
118 133 0
123 137 0
119 133 0
118 132 0
121 135 0
119 134 0
120 134 0
121 134 0
119 133 0
124 139 0
120 134 0
120 134 0
123 137 0
121 135 0
121 134 0
122 134 0
123 135 0
120 133 0
123 135 0
121 133 0
121 132 0
119 130 0
118 131 0
124 136 0
123 135 0
119 131 0
122 133 0
122 133 0
123 133 0
119 128 0
119 129 0
118 128 0
122 132 0
121 131 0
119 128 0
122 130 0
120 129 0
117 125 0
118 125 0
120 128 0
119 127 0
118 125 0
118 124 0
116 122 0
115 119 0
115 121 0
115 119 0
115 119 0
112 116 0
114 117 0
113 116 0
113 115 0
111 112 0
109 111 0
111 114 0
111 111 0
108 108 0
109 110 0
108 107 0
107 106 0
104 102 0
104 103 0
99 97 0
104 103 0
101 98 0
97 94 0
98 95 0
98 95 0
94 90 0
95 90 0
95 92 0
91 86 0
92 86 0
92 87 0
88 80 0
88 82 0
93 87 0
92 86 0
90 85 0
88 81 0
89 83 0
89 82 0
91 84 0
91 84 0
90 83 0
87 80 0
88 79 1
91 83 2
86 78 1
86 76 2
88 78 3
81 71 2
85 75 2
84 73 3
85 74 3
86 75 2
88 77 3
86 76 5
88 78 6
90 79 2
90 79 8
91 81 4
91 80 5
91 81 10
92 82 7
91 80 10
92 83 7
93 83 10
95 85 13
97 87 12
95 86 15
96 87 12
94 84 12
90 80 14
97 87 14
95 85 16
101 94 16
105 99 16
111 107 16
115 114 14
122 124 13
127 128 12
134 139 9
138 145 10
146 154 3
152 164 0
151 162 0
149 160 0
151 162 0
150 161 0
154 165 0
154 166 0
154 166 0
154 168 0
153 166 0
154 167 0
156 169 0
154 167 0
157 171 0
155 170 0
156 170 0
157 171 0
155 170 0
158 173 0
157 172 0
159 174 0
158 173 0
160 176 0
160 176 0
159 175 0
158 174 0
158 175 0
161 178 0
160 176 0
163 185 0
164 186 0
164 186 0
162 184 0
163 184 0
161 183 0
162 183 0
162 184 0
162 183 0
162 183 0
162 183 0
162 183 0
161 182 0
161 182 0
160 181 0
160 180 0
160 181 0
159 180 0
160 180 0
160 180 0
159 180 0
157 178 0
158 177 0
158 177 0
155 175 0
155 175 0
155 174 0
155 174 0
156 175 0
155 174 0
154 173 0
153 172 0
153 171 0
152 171 0
151 169 0
151 169 0
149 167 0
150 167 0
148 165 0
144 161 0
141 157 0
137 153 0
134 149 0
131 147 0
130 145 0
129 143 0
126 141 0
123 137 0
127 141 0
122 136 0
120 133 0
121 134 0
117 130 0
118 131 0
115 128 0
115 128 0
114 127 0
113 126 0
116 129 0
115 127 0
116 128 0
115 127 0
113 125 0
116 128 0
110 121 0
110 121 0
109 120 0
109 121 0
105 116 0
107 119 0
106 117 0
105 117 0
106 117 0
105 116 0
105 116 0
105 117 0
109 121 0
106 117 0
106 118 0
106 118 0
110 122 0
107 118 0
109 121 0
108 120 0
111 123 0
113 126 0
113 126 0
111 124 0
113 126 0
113 127 0
117 130 0
118 131 0
116 130 0
116 130 0
118 132 0
119 133 0
117 131 0
119 133 0
119 133 0
120 135 0
122 137 0
121 137 0
121 136 0
121 137 0
122 138 0
122 138 0
122 139 0
124 140 0
122 138 0
126 143 0
124 141 0
123 140 0
125 142 0
125 142 0
124 142 0
124 141 0
125 142 0
126 143 0
126 143 0
124 142 0
127 145 0
125 143 0
128 145 0
127 144 0
125 143 0
128 146 0
123 140 0
125 143 0
126 144 0
127 145 0
124 142 0
129 147 0
129 147 0
124 142 0
128 147 0
124 143 0
127 145 0
123 141 0
127 146 0
127 146 0
127 146 0
126 145 0
126 145 0
127 146 0
128 147 0
123 142 0
123 142 0
129 148 0
123 142 0
124 144 0
123 142 0
126 146 0
125 144 0
124 143 0
122 141 0
125 144 0
120 139 0
119 137 0
122 141 0
123 142 0
123 142 0
121 140 0
122 142 0
124 143 0
122 141 0
123 143 0
121 139 0
121 139 0
117 136 0
120 139 0
120 139 0
118 137 0
120 138 0
117 135 0
116 134 0
118 136 0
116 135 0
114 132 0
110 128 0
116 134 0
114 132 0
114 132 0
111 129 0
109 127 0
112 130 0
113 131 0
111 128 0
108 125 0
108 126 0
114 131 0
108 125 0
109 126 0
111 128 0
108 126 0
107 124 0
110 128 0
105 122 0
105 122 0
109 126 0
109 126 0
111 128 0
108 125 0
108 125 0
109 125 0
107 124 0
107 123 0
109 126 0
107 124 0
109 126 0
105 122 0
110 126 0
109 126 0
110 127 0
108 125 0
112 129 0
108 124 0
109 125 0
113 130 0
111 128 0
112 128 0
111 127 0
114 131 0
115 132 0
111 127 0
116 133 0
116 132 0
114 131 0
115 132 0
117 134 0
115 132 0
118 134 0
120 137 0
118 134 0
116 132 0
118 135 0
121 138 0
120 136 0
120 136 0
121 137 0
121 136 0
118 134 0
122 139 0
120 136 0
122 137 0
121 136 0
120 136 0
122 137 0
119 134 0
121 137 0
124 139 0
123 138 0
121 135 0
122 137 0
125 140 0
120 134 0
125 140 0
122 136 0
121 135 0
121 134 0
125 138 0
122 136 0
120 133 0
122 136 0
123 136 0
121 134 0
125 138 0
121 135 0
123 136 0
123 135 0
123 135 0
122 133 0
122 133 0
122 133 0
124 136 0
122 133 0
124 135 0
122 133 0
122 132 0
121 131 0
122 132 0
121 131 0
121 131 0
122 131 0
120 129 0
123 133 0
117 125 0
121 128 0
118 125 0
119 126 0
118 125 0
117 123 0
115 120 0
114 119 0
117 124 0
117 122 0
115 120 0
113 116 0
112 116 0
111 114 0
112 116 0
115 117 0
111 113 0
113 114 0
111 112 0
113 114 0
109 109 0
110 110 0
110 110 0
107 107 0
105 104 0
107 106 0
104 102 0
105 103 0
107 105 0
103 101 0
103 101 0
98 94 0
99 95 0
103 100 0
97 93 0
96 91 0
99 94 0
96 91 0
98 92 0
99 94 0
96 91 0
95 90 0
95 90 0
95 89 0
94 88 0
95 90 0
94 88 0
98 93 0
97 92 0
103 97 0
106 102 0
105 100 0
103 98 0
106 102 0
107 103 0
108 104 0
107 101 3
108 104 5
103 98 0
107 102 3
106 101 3
107 103 6
108 103 2
108 104 0
106 102 5
112 108 5
113 110 8
113 111 5
115 114 6
116 113 6
122 121 10
121 121 7
125 126 8
130 131 7
128 130 7
135 138 6
139 142 0
143 149 0
141 147 0
143 149 0
143 149 0
143 150 0
144 151 0
147 155 0
150 158 0
146 156 0
150 160 0
149 159 0
149 158 0
151 162 0
152 163 0
153 164 0
152 164 0
151 162 0
153 165 0
152 164 0
154 167 0
155 167 0
154 167 0
154 166 0
157 171 0
156 169 0
156 171 0
156 170 0
157 172 0
159 173 0
158 173 0
159 174 0
159 174 0
158 173 0
159 175 0
159 175 0
160 177 0
159 176 0
158 175 0
163 184 0
163 184 0
163 184 0
164 185 0
162 184 0
162 184 0
161 182 0
161 182 0
161 182 0
162 182 0
161 181 0
162 182 0
160 181 0
160 180 0
159 180 0
159 179 0
161 181 0
158 178 0
158 178 0
158 178 0
158 178 0
158 178 0
157 177 0
155 175 0
156 176 0
155 174 0
155 174 0
155 174 0
154 173 0
152 171 0
153 172 0
151 169 0
152 170 0
150 168 0
149 167 0
150 167 0
148 165 0
148 165 0
147 164 0
147 164 0
146 163 0
144 161 0
141 157 0
140 156 0
141 157 0
139 155 0
140 155 0
138 154 0
137 152 0
135 150 0
133 148 0
130 144 0
129 144 0
128 142 0
129 143 0
125 138 0
122 136 0
123 136 0
122 136 0
121 134 0
119 132 0
121 134 0
112 124 0
114 126 0
114 127 0
115 128 0
111 123 0
113 125 0
113 125 0
109 121 0
109 121 0
110 121 0
110 122 0
109 121 0
109 121 0
112 124 0
113 125 0
110 122 0
112 124 0
114 127 0
112 124 0
112 124 0
114 126 0
114 127 0
113 125 0
115 129 0
118 132 0
116 130 0
117 130 0
118 133 0
120 134 0
117 132 0
122 136 0
120 134 0
118 133 0
121 136 0
125 140 0
124 139 0
119 134 0
120 135 0
123 139 0
124 139 0
125 141 0
121 137 0
123 139 0
125 141 0
125 141 0
124 141 0
127 143 0
123 139 0
125 142 0
125 143 0
129 146 0
128 145 0
128 145 0
127 144 0
127 145 0
127 144 0
127 144 0
130 148 0
130 149 0
127 145 0
129 147 0
127 145 0
128 146 0
127 145 0
128 146 0
129 148 0
129 148 0
127 146 0
128 147 0
129 147 0
131 151 0
128 146 0
128 147 0
128 146 0
128 147 0
127 146 0
126 145 0
124 143 0
127 147 0
126 145 0
125 144 0
125 144 0
125 144 0
125 144 0
123 142 0
122 141 0
128 147 0
125 143 0
123 142 0
125 144 0
121 139 0
125 144 0
122 141 0
124 143 0
127 147 0
123 142 0
125 144 0
126 145 0
124 143 0
122 141 0
121 140 0
121 140 0
122 141 0
123 142 0
120 139 0
118 137 0
122 141 0
119 137 0
118 137 0
116 135 0
116 135 0
120 139 0
117 135 0
119 138 0
119 138 0
117 135 0
114 132 0
113 131 0
120 138 0
114 131 0
116 134 0
111 130 0
113 131 0
115 133 0
109 127 0
112 130 0
109 127 0
110 128 0
112 130 0
109 127 0
112 129 0
111 129 0
112 129 0
111 129 0
114 131 0
109 126 0
111 129 0
106 123 0
112 129 0
111 129 0
112 129 0
110 127 0
109 126 0
110 127 0
109 126 0
108 125 0
112 129 0
113 130 0
111 128 0
109 126 0
111 128 0
107 124 0
111 128 0
112 130 0
113 130 0
115 132 0
114 131 0
115 132 0
113 130 0
116 133 0
116 133 0
111 127 0
118 135 0
119 136 0
121 138 0
114 130 0
114 131 0
119 136 0
115 132 0
119 136 0
117 133 0
119 136 0
119 135 0
122 138 0
121 138 0
120 137 0
115 131 0
121 137 0
122 138 0
122 138 0
121 137 0
121 137 0
122 138 0
126 142 0
120 136 0
120 136 0
121 137 0
123 140 0
122 137 0
121 136 0
127 141 0
125 139 0
127 141 0
124 140 0
124 140 0
120 135 0
126 140 0
121 135 0
125 140 0
122 135 0
123 136 0
123 136 0
123 137 0
123 136 0
125 137 0
123 136 0
127 140 0
126 139 0
123 135 0
124 135 0
124 136 0
123 135 0
122 133 0
122 132 0
122 133 0
125 137 0
122 133 0
126 136 0
124 134 0
120 130 0
124 134 0
120 128 0
123 132 0
123 132 0
121 130 0
120 128 0
119 128 0
121 129 0
122 130 0
121 128 0
120 126 0
118 124 0
118 124 0
117 123 0
116 121 0
115 120 0
119 123 0
116 120 0
114 118 0
118 121 0
113 115 0
116 118 0
113 115 0
117 119 0
113 114 0
113 113 0
111 112 0
108 108 0
112 111 0
109 109 0
108 107 0
106 105 0
106 105 0
107 104 0
109 106 0
110 108 0
107 105 0
104 101 0
106 103 0
106 104 0
104 102 0
99 94 0
102 98 0
103 98 0
102 98 0
103 98 0
102 97 0
100 94 0
99 94 0
101 95 0
105 100 0
101 97 0
105 100 0
104 99 0
106 102 0
106 103 0
108 104 0
111 108 0
111 107 0
113 110 0
115 112 0
115 111 0
117 114 0
117 114 0
119 117 0
120 118 0
121 119 0
122 120 0
125 124 0
128 128 0
127 128 0
127 127 0
131 133 0
130 131 0
134 135 0
136 139 0
137 140 0
137 139 0
140 144 0
137 140 0
139 144 0
139 144 0
141 146 0
142 148 0
142 148 0
144 151 0
146 153 0
144 151 0
147 155 0
146 154 0
148 156 0
147 156 0
149 159 0
149 158 0
151 161 0
155 167 0
151 162 0
151 162 0
151 163 0
153 164 0
153 165 0
154 167 0
155 167 0
154 166 0
154 167 0
155 169 0
155 169 0
158 171 0
158 173 0
157 171 0
157 171 0
158 172 0
158 173 0
158 173 0
158 173 0
158 174 0
158 174 0
158 175 0
163 184 0
162 183 0
162 183 0
162 184 0
162 182 0
161 183 0
161 182 0
161 182 0
161 182 0
160 181 0
160 181 0
160 181 0
160 180 0
159 179 0
159 179 0
158 179 0
159 179 0
159 179 0
157 177 0
158 178 0
156 176 0
157 176 0
154 173 0
155 174 0
154 173 0
155 174 0
154 173 0
153 172 0
154 173 0
152 170 0
151 169 0
151 168 0
151 169 0
150 167 0
149 167 0
146 163 0
149 166 0
147 164 0
145 162 0
146 163 0
145 161 0
144 160 0
142 158 0
142 158 0
140 156 0
139 154 0
137 153 0
135 150 0
135 150 0
133 148 0
131 145 0
130 145 0
132 146 0
129 144 0
125 138 0
126 140 0
125 139 0
121 135 0
122 135 0
120 133 0
122 136 0
122 135 0
116 129 0
120 133 0
118 131 0
116 129 0
115 128 0
117 130 0
116 129 0
115 127 0
115 128 0
115 128 0
115 128 0
113 126 0
117 130 0
115 128 0
114 127 0
115 127 0
118 131 0
120 133 0
119 132 0
119 133 0
116 130 0
118 132 0
119 133 0
119 133 0
122 136 0
121 135 0
120 134 0
121 136 0
122 136 0
122 137 0
123 138 0
123 138 0
123 138 0
125 141 0
125 140 0
125 140 0
124 140 0
125 141 0
124 140 0
127 143 0
125 142 0
125 141 0
122 138 0
126 142 0
130 147 0
126 143 0
128 145 0
127 144 0
128 145 0
125 143 0
130 148 0
128 146 0
128 146 0
129 146 0
128 146 0
129 146 0
129 147 0
128 146 0
128 146 0
131 149 0
130 148 0
131 149 0
127 145 0
130 148 0
128 147 0
125 144 0
129 147 0
131 150 0
131 150 0
127 146 0
127 146 0
131 149 0
128 146 0
129 148 0
128 147 0
128 146 0
127 145 0
131 150 0
128 147 0
124 143 0
125 144 0
126 145 0
126 145 0
126 145 0
125 144 0
124 143 0
125 144 0
127 146 0
124 144 0
127 146 0
124 143 0
124 143 0
127 146 0
125 144 0
124 143 0
122 141 0
123 143 0
126 145 0
124 143 0
123 142 0
122 141 0
119 138 0
120 139 0
122 142 0
119 138 0
119 137 0
122 141 0
122 141 0
119 138 0
124 143 0
121 140 0
121 140 0
118 137 0
116 134 0
117 136 0
118 137 0
116 135 0
120 140 0
115 133 0
114 133 0
114 133 0
115 133 0
117 135 0
113 131 0
116 134 0
115 133 0
111 129 0
112 130 0
114 132 0
111 129 0
114 132 0
112 130 0
115 134 0
112 129 0
114 132 0
114 132 0
114 132 0
112 129 0
110 128 0
112 129 0
111 129 0
110 127 0
115 133 0
112 130 0
113 131 0
112 129 0
116 134 0
112 130 0
113 130 0
113 130 0
113 131 0
115 133 0
112 129 0
116 133 0
117 134 0
116 133 0
115 132 0
115 133 0
114 131 0
117 134 0
116 134 0
118 135 0
119 136 0
117 134 0
119 136 0
118 135 0
122 139 0
118 134 0
121 138 0
119 135 0
121 138 0
121 137 0
122 138 0
121 138 0
121 138 0
123 139 0
120 136 0
120 136 0
122 138 0
121 136 0
122 139 0
123 139 0
121 137 0
129 145 0
125 141 0
123 139 0
122 138 0
124 140 0
123 138 0
124 140 0
127 143 0
121 136 0
128 143 0
124 139 0
123 138 0
127 142 0
124 138 0
123 138 0
125 139 0
125 139 0
126 141 0
124 138 0
123 136 0
124 137 0
125 138 0
128 141 0
125 137 0
126 139 0
125 138 0
123 136 0
125 138 0
123 135 0
127 139 0
123 134 0
123 136 0
125 136 0
126 138 0
122 134 0
122 133 0
125 135 0
122 133 0
127 137 0
122 132 0
124 134 0
122 131 0
123 131 0
123 131 0
120 128 0
122 130 0
120 127 0
119 127 0
126 133 0
119 124 0
122 128 0
117 123 0
122 128 0
118 123 0
117 121 0
120 125 0
119 122 0
118 121 0
113 116 0
117 120 0
116 120 0
112 114 0
115 117 0
118 119 0
115 116 0
115 116 0
113 114 0
111 111 0
111 111 0
110 110 0
113 113 0
108 108 0
110 109 0
109 107 0
109 107 0
110 108 0
106 103 0
108 105 0
106 103 0
106 104 0
107 104 0
108 104 0
108 104 0
108 105 0
105 101 0
106 101 0
107 103 0
104 100 0
107 103 0
106 103 0
107 103 0
108 105 0
108 104 0
110 106 0
113 109 0
112 108 0
110 106 0
116 114 0
115 113 0
117 114 0
119 115 0
118 115 0
121 120 0
121 119 0
126 126 0
127 126 0
123 123 0
126 126 0
130 131 0
131 132 0
130 131 0
132 133 0
131 132 0
134 136 0
136 139 0
135 137 0
134 138 0
138 142 0
137 141 0
140 145 0
142 147 0
142 147 0
144 151 0
144 149 0
144 151 0
144 151 0
145 152 0
146 154 0
145 154 0
148 157 0
149 158 0
149 159 0
151 162 0
149 160 0
152 162 0
152 163 0
153 164 0
152 164 0
154 167 0
155 167 0
153 166 0
153 166 0
155 168 0
156 169 0
156 169 0
155 169 0
157 171 0
156 170 0
157 171 0
158 172 0
157 172 0
157 172 0
159 174 0
159 174 0
159 175 0
162 183 0
162 183 0
162 183 0
162 183 0
161 182 0
161 182 0
162 183 0
161 182 0
161 182 0
160 181 0
161 181 0
159 179 0
159 180 0
159 180 0
157 177 0
158 178 0
158 178 0
158 178 0
156 176 0
156 176 0
156 175 0
156 176 0
156 176 0
156 175 0
154 173 0
155 174 0
154 173 0
153 171 0
151 169 0
152 170 0
150 168 0
150 168 0
151 169 0
149 166 0
148 165 0
147 164 0
146 163 0
144 161 0
144 161 0
146 163 0
142 159 0
142 158 0
141 157 0
141 157 0
139 155 0
137 153 0
136 151 0
134 149 0
136 151 0
135 150 0
130 145 0
130 145 0
128 143 0
127 141 0
127 141 0
127 141 0
125 139 0
125 139 0
122 135 0
122 136 0
123 137 0
122 135 0
120 133 0
121 135 0
120 133 0
119 132 0
118 130 0
120 133 0
119 132 0
116 128 0
121 134 0
117 130 0
120 133 0
118 131 0
120 133 0
122 135 0
120 133 0
118 131 0
121 135 0
119 133 0
119 133 0
120 135 0
120 134 0
122 136 0
120 135 0
123 138 0
123 137 0
124 138 0
122 137 0
123 138 0
123 138 0
125 140 0
125 140 0
126 141 0
126 142 0
125 141 0
128 144 0
129 145 0
123 139 0
124 140 0
126 142 0
129 145 0
127 144 0
129 146 0
128 144 0
128 145 0
129 146 0
128 146 0
128 146 0
129 146 0
128 146 0
131 149 0
130 147 0
127 145 0
129 146 0
128 146 0
130 148 0
128 146 0
132 150 0
127 145 0
129 147 0
128 146 0
129 148 0
128 146 0
129 147 0
130 149 0
131 149 0
129 147 0
129 148 0
127 146 0
130 149 0
129 147 0
125 144 0
130 149 0
129 148 0
128 147 0
126 145 0
128 147 0
128 147 0
130 149 0
130 149 0
127 146 0
128 147 0
127 146 0
127 146 0
126 146 0
130 149 0
127 146 0
125 144 0
127 146 0
125 145 0
126 145 0
128 148 0
129 148 0
127 146 0
124 143 0
125 145 0
129 149 0
124 143 0
127 147 0
126 145 0
125 144 0
124 143 0
128 147 0
123 142 0
125 144 0
122 141 0
123 142 0
125 144 0
121 140 0
126 145 0
121 140 0
123 141 0
124 143 0
122 141 0
121 140 0
117 136 0
118 137 0
118 137 0
117 135 0
118 136 0
118 136 0
121 140 0
119 138 0
114 133 0
118 137 0
116 135 0
114 132 0
118 136 0
113 131 0
117 135 0
113 131 0
116 134 0
118 136 0
113 131 0
120 139 0
116 135 0
115 133 0
116 134 0
111 129 0
116 134 0
112 130 0
114 132 0
113 131 0
113 131 0
111 129 0
113 131 0
113 131 0
114 131 0
116 134 0
113 130 0
113 130 0
113 130 0
117 135 0
115 132 0
114 132 0
117 135 0
116 134 0
119 137 0
116 134 0
118 135 0
116 133 0
116 133 0
121 138 0
117 135 0
121 138 0
121 139 0
121 138 0
117 134 0
121 138 0
122 140 0
122 140 0
121 138 0
123 140 0
118 135 0
123 141 0
123 140 0
121 138 0
121 138 0
124 140 0
125 142 0
123 140 0
123 140 0
121 138 0
122 137 0
123 139 0
126 143 0
126 143 0
125 141 0
124 140 0
124 140 0
123 139 0
125 140 0
127 142 0
126 141 0
123 139 0
125 140 0
125 141 0
122 137 0
126 141 0
127 142 0
126 142 0
128 143 0
125 138 0
125 139 0
127 141 0
128 142 0
125 139 0
124 137 0
127 140 0
128 142 0
125 139 0
127 140 0
127 139 0
125 138 0
127 139 0
128 140 0
126 138 0
127 139 0
128 139 0
129 141 0
124 134 0
124 135 0
124 134 0
126 136 0
123 134 0
125 134 0
125 135 0
125 135 0
125 134 0
124 132 0
125 135 0
125 133 0
123 131 0
121 129 0
121 129 0
122 129 0
119 126 0
122 128 0
119 124 0
120 125 0
119 123 0
120 123 0
119 123 0
119 123 0
118 122 0
118 122 0
121 123 0
114 115 0
112 113 0
115 117 0
114 115 0
115 116 0
114 115 0
115 116 0
113 114 0
111 111 0
111 110 0
114 114 0
111 111 0
111 110 0
110 109 0
112 111 0
112 110 0
110 109 0
109 107 0
109 107 0
108 105 0
113 111 0
111 108 0
111 109 0
110 106 0
112 109 0
113 111 0
110 106 0
111 108 0
113 112 0
114 110 0
111 108 0
111 108 0
114 111 0
114 110 0
116 114 0
118 117 0
117 114 0
119 116 0
120 117 0
122 120 0
122 121 0
121 119 0
125 124 0
126 126 0
126 125 0
128 128 0
127 127 0
128 129 0
130 131 0
133 134 0
132 133 0
134 136 0
135 137 0
135 139 0
137 140 0
141 146 0
139 144 0
139 143 0
142 146 0
141 145 0
142 148 0
144 150 0
143 148 0
147 154 0
145 154 0
144 152 0
145 153 0
149 157 0
147 155 0
147 155 0
148 157 0
151 161 0
152 163 0
152 162 0
151 163 0
151 162 0
152 164 0
153 164 0
153 164 0
153 165 0
154 166 0
155 167 0
156 170 0
156 170 0
156 170 0
157 170 0
156 170 0
157 172 0
156 171 0
158 174 0
158 172 0
159 174 0
161 183 0
160 181 0
161 182 0
161 182 0
162 182 0
161 182 0
160 181 0
159 179 0
159 180 0
160 180 0
159 179 0
158 178 0
158 178 0
158 178 0
159 178 0
158 178 0
158 178 0
156 176 0
157 176 0
155 175 0
155 174 0
155 174 0
156 175 0
153 171 0
152 171 0
152 170 0
151 169 0
153 171 0
152 170 0
151 169 0
149 166 0
149 166 0
150 168 0
147 164 0
147 164 0
147 163 0
145 162 0
145 162 0
144 160 0
142 158 0
143 159 0
141 157 0
142 157 0
141 156 0
140 156 0
138 154 0
138 153 0
134 149 0
135 150 0
135 150 0
133 148 0
131 145 0
132 146 0
131 145 0
128 142 0
126 140 0
125 139 0
127 141 0
126 140 0
124 137 0
122 136 0
124 138 0
121 135 0
122 136 0
124 138 0
124 138 0
120 134 0
122 136 0
119 133 0
121 135 0
119 132 0
122 135 0
122 136 0
122 135 0
123 137 0
120 134 0
124 138 0
123 138 0
124 138 0
125 139 0
123 137 0
124 138 0
126 140 0
125 139 0
127 142 0
126 140 0
128 143 0
127 142 0
126 142 0
126 142 0
130 146 0
124 140 0
127 142 0
130 146 0
127 143 0
127 144 0
130 146 0
127 144 0
128 144 0
129 146 0
128 144 0
128 145 0
133 150 0
128 145 0
129 147 0
129 146 0
131 149 0
130 147 0
130 148 0
130 148 0
130 147 0
131 149 0
129 147 0
131 149 0
130 148 0
130 148 0
131 149 0
128 147 0
134 152 0
130 148 0
128 146 0
130 148 0
132 151 0
130 149 0
128 147 0
133 151 0
131 150 0
131 150 0
131 150 0
129 148 0
132 151 0
130 150 0
130 149 0
130 150 0
131 151 0
128 147 0
128 146 0
127 146 0
128 147 0
132 151 0
126 145 0
132 152 0
128 148 0
130 150 0
130 150 0
127 146 0
126 146 0
128 148 0
129 148 0
127 147 0
126 145 0
129 148 0
129 149 0
130 149 0
131 151 0
127 146 0
127 146 0
126 146 0
127 147 0
126 146 0
127 147 0
125 145 0
126 146 0
123 143 0
125 145 0
125 145 0
126 145 0
126 145 0
128 148 0
123 142 0
120 140 0
121 141 0
123 142 0
123 142 0
120 139 0
119 138 0
123 142 0
120 139 0
122 141 0
121 140 0
121 141 0
118 137 0
120 139 0
118 137 0
118 137 0
119 138 0
120 138 0
121 139 0
114 132 0
122 141 0
118 136 0
114 132 0
119 138 0
117 135 0
115 134 0
119 137 0
117 135 0
119 138 0
117 135 0
117 135 0
118 137 0
115 134 0
114 133 0
117 135 0
117 136 0
116 134 0
117 135 0
114 131 0
118 136 0
116 134 0
115 133 0
116 133 0
115 132 0
117 135 0
121 140 0
118 136 0
118 135 0
120 137 0
117 135 0
120 138 0
119 137 0
122 140 0
121 139 0
118 136 0
122 140 0
123 140 0
117 134 0
124 142 0
121 139 0
122 139 0
121 139 0
121 139 0
123 140 0
124 141 0
123 140 0
123 140 0
124 141 0
126 143 0
125 142 0
124 141 0
123 140 0
122 140 0
124 141 0
126 143 0
126 142 0
127 144 0
126 142 0
123 139 0
127 143 0
125 141 0
126 142 0
125 142 0
125 141 0
124 140 0
128 145 0
126 142 0
127 143 0
126 141 0
125 140 0
128 144 0
125 140 0
125 140 0
124 138 0
128 142 0
128 143 0
126 140 0
128 143 0
125 140 0
129 143 0
123 136 0
131 145 0
128 142 0
126 139 0
127 140 0
126 139 0
126 140 0
128 141 0
128 141 0
128 141 0
125 137 0
127 139 0
125 138 0
127 139 0
124 135 0
125 135 0
126 136 0
126 137 0
126 136 0
126 136 0
124 134 0
124 132 0
123 132 0
126 134 0
124 133 0
122 130 0
123 130 0
126 134 0
122 129 0
122 129 0
122 129 0
122 129 0
124 130 0
124 130 0
121 127 0
125 130 0
119 123 0
116 120 0
120 123 0
119 123 0
120 124 0
120 123 0
116 118 0
118 120 0
117 119 0
118 120 0
116 117 0
116 117 0
116 117 0
117 118 0
118 118 0
114 114 0
118 117 0
118 118 0
116 116 0
111 109 0
111 110 0
114 112 0
115 114 0
113 111 0
112 110 0
112 110 0
116 115 0
116 114 0
110 108 0
114 112 0
115 114 0
115 114 0
113 110 0
117 115 0
113 110 0
117 114 0
115 112 0
121 119 0
122 120 0
121 119 0
120 118 0
120 118 0
122 120 0
123 123 0
123 122 0
126 125 0
126 126 0
129 130 0
126 126 0
128 128 0
129 130 0
130 131 0
129 130 0
133 135 0
133 135 0
132 134 0
136 139 0
134 136 0
138 141 0
136 140 0
138 142 0
139 143 0
142 148 0
140 144 0
142 148 0
145 152 0
144 150 0
141 147 0
145 153 0
147 155 0
146 154 0
147 155 0
147 157 0
150 160 0
150 159 0
149 158 0
150 161 0
151 161 0
149 159 0
153 164 0
150 161 0
151 163 0
154 166 0
153 164 0
153 165 0
153 165 0
155 168 0
154 167 0
156 170 0
154 167 0
157 170 0
157 172 0
157 172 0
157 171 0
158 173 0
160 181 0
160 181 0
161 182 0
160 181 0
160 181 0
160 181 0
160 180 0
160 180 0
158 178 0
158 178 0
159 179 0
158 178 0
158 177 0
159 179 0
157 176 0
156 175 0
156 175 0
156 175 0
156 175 0
156 175 0
155 174 0
155 173 0
153 171 0
153 171 0
153 171 0
151 169 0
151 170 0
151 169 0
151 169 0
150 167 0
148 166 0
148 165 0
150 167 0
148 165 0
145 162 0
146 163 0
144 160 0
144 161 0
142 159 0
143 159 0
141 157 0
140 155 0
139 154 0
138 153 0
138 154 0
138 153 0
136 151 0
137 152 0
135 150 0
133 148 0
133 148 0
132 147 0
129 144 0
130 145 0
131 145 0
129 143 0
128 143 0
127 141 0
130 144 0
128 142 0
127 141 0
125 139 0
125 139 0
125 139 0
126 141 0
124 138 0
123 137 0
126 140 0
127 141 0
125 139 0
125 139 0
125 139 0
123 138 0
124 138 0
124 139 0
125 139 0
126 140 0
127 142 0
126 141 0
126 141 0
126 142 0
130 145 0
126 141 0
127 143 0
127 143 0
128 143 0
128 143 0
126 141 0
130 146 0
130 145 0
130 146 0
127 143 0
131 147 0
131 148 0
132 148 0
128 145 0
129 145 0
130 147 0
130 147 0
130 147 0
131 148 0
132 150 0
132 149 0
131 149 0
128 146 0
132 150 0
131 149 0
131 149 0
131 149 0
131 149 0
132 151 0
131 149 0
132 149 0
131 149 0
129 147 0
131 150 0
130 148 0
130 149 0
132 150 0
130 149 0
132 151 0
133 151 0
131 150 0
134 153 0
128 146 0
132 151 0
134 153 0
133 152 0
130 149 0
133 152 0
131 150 0
133 152 0
133 152 0
133 152 0
130 149 0
132 151 0
130 150 0
127 147 0
127 147 0
128 148 0
130 150 0
130 150 0
130 150 0
128 147 0
125 144 0
131 150 0
127 147 0
128 148 0
128 148 0
127 146 0
128 148 0
128 148 0
129 149 0
130 150 0
127 147 0
128 148 0
129 149 0
128 148 0
127 146 0
128 147 0
126 146 0
127 146 0
128 147 0
126 146 0
129 148 0
123 143 0
122 142 0
126 145 0
125 145 0
122 141 0
124 144 0
125 144 0
124 143 0
125 145 0
122 142 0
120 139 0
121 140 0
123 142 0
123 142 0
119 138 0
122 141 0
120 139 0
125 144 0
122 141 0
118 137 0
121 140 0
115 134 0
121 139 0
119 137 0
119 138 0
118 137 0
120 139 0
122 141 0
121 140 0
116 134 0
118 137 0
120 138 0
118 137 0
118 136 0
119 138 0
115 133 0
118 136 0
117 135 0
120 139 0
119 137 0
115 133 0
119 137 0
119 137 0
118 137 0
120 138 0
118 136 0
118 136 0
120 139 0
118 136 0
120 138 0
120 138 0
123 141 0
124 142 0
123 142 0
120 138 0
120 138 0
121 138 0
120 138 0
119 136 0
123 141 0
119 137 0
124 142 0
123 141 0
125 142 0
122 139 0
122 140 0
125 143 0
122 139 0
123 141 0
126 144 0
123 141 0
124 141 0
126 144 0
126 144 0
125 142 0
125 143 0
125 142 0
126 143 0
126 143 0
126 143 0
127 144 0
126 143 0
125 142 0
124 140 0
124 141 0
128 144 0
126 142 0
128 144 0
128 144 0
126 142 0
127 143 0
126 141 0
128 144 0
128 144 0
129 145 0
128 144 0
128 143 0
128 143 0
127 143 0
127 142 0
129 144 0
129 144 0
128 143 0
128 142 0
128 142 0
127 141 0
126 139 0
130 145 0
127 140 0
130 143 0
129 143 0
127 140 0
124 137 0
128 140 0
128 141 0
129 141 0
130 143 0
131 143 0
128 140 0
128 139 0
129 141 0
128 140 0
127 139 0
125 136 0
127 137 0
124 134 0
127 137 0
125 135 0
126 136 0
127 136 0
127 135 0
126 134 0
126 134 0
127 135 0
124 131 0
121 128 0
125 133 0
124 130 0
122 128 0
123 128 0
125 131 0
122 128 0
124 128 0
122 126 0
123 127 0
123 128 0
119 123 0
122 125 0
121 124 0
118 120 0
121 124 0
117 118 0
121 123 0
120 123 0
120 122 0
118 119 0
120 122 0
118 118 0
118 118 0
115 116 0
117 118 0
122 122 0
116 116 0
115 115 0
118 118 0
117 117 0
118 117 0
116 115 0
116 113 0
115 114 0
117 115 0
121 120 0
119 117 0
120 119 0
118 116 0
121 119 0
120 118 0
119 118 0
118 117 0
122 121 0
121 119 0
123 123 0
122 121 0
121 120 0
125 124 0
125 125 0
124 124 0
127 127 0
128 129 0
130 131 0
130 131 0
134 136 0
133 134 0
132 133 0
133 135 0
131 133 0
136 138 0
137 140 0
137 140 0
138 141 0
137 140 0
140 145 0
139 143 0
141 145 0
138 142 0
141 146 0
140 145 0
142 148 0
145 151 0
144 151 0
145 152 0
144 151 0
148 155 0
147 156 0
149 158 0
148 158 0
150 159 0
150 161 0
150 161 0
149 159 0
151 161 0
153 165 0
152 163 0
151 163 0
153 164 0
153 165 0
154 167 0
154 166 0
155 168 0
155 169 0
156 170 0
155 168 0
155 169 0
156 170 0
157 172 0
161 182 0
160 181 0
160 181 0
160 181 0
161 181 0
159 180 0
159 179 0
159 179 0
159 179 0
159 179 0
158 178 0
158 179 0
157 177 0
155 175 0
155 175 0
154 173 0
156 175 0
156 175 0
155 174 0
155 174 0
155 174 0
153 172 0
153 172 0
153 171 0
153 171 0
151 169 0
150 168 0
149 167 0
149 166 0
149 167 0
147 165 0
147 164 0
148 164 0
147 163 0
148 165 0
146 162 0
145 162 0
143 160 0
142 158 0
142 158 0
142 158 0
140 156 0
138 154 0
138 153 0
138 153 0
138 154 0
137 153 0
138 154 0
136 151 0
134 149 0
135 149 0
133 148 0
132 147 0
132 146 0
129 144 0
128 143 0
130 144 0
128 142 0
128 143 0
131 146 0
127 142 0
130 144 0
128 142 0
127 141 0
128 142 0
130 145 0
128 143 0
128 142 0
128 142 0
128 143 0
130 145 0
128 143 0
132 146 0
130 145 0
130 145 0
126 141 0
127 142 0
129 144 0
129 145 0
132 147 0
129 145 0
128 143 0
130 145 0
128 144 0
130 146 0
132 149 0
131 147 0
130 147 0
130 146 0
130 146 0
133 149 0
130 147 0
129 146 0
134 150 0
132 148 0
133 150 0
133 150 0
130 147 0
131 148 0
133 150 0
129 147 0
131 149 0
133 150 0
132 150 0
133 151 0
133 150 0
130 148 0
135 153 0
132 150 0
133 151 0
129 147 0
132 150 0
134 152 0
132 151 0
133 152 0
132 150 0
132 151 0
133 152 0
131 150 0
132 150 0
132 151 0
131 150 0
132 151 0
134 152 0
134 153 0
133 152 0
134 153 0
133 153 0
130 150 0
129 148 0
135 155 0
131 150 0
133 153 0
131 150 0
128 148 0
131 150 0
128 147 0
132 151 0
129 148 0
129 149 0
129 149 0
131 151 0
130 150 0
129 149 0
132 153 0
130 150 0
127 147 0
130 150 0
130 150 0
129 149 0
129 149 0
130 150 0
129 149 0
130 150 0
128 148 0
130 150 0
130 150 0
129 149 0
130 150 0
127 147 0
130 150 0
128 148 0
120 140 0
127 147 0
126 146 0
129 149 0
126 146 0
124 143 0
125 145 0
125 145 0
127 146 0
127 147 0
125 144 0
123 142 0
123 143 0
122 140 0
126 146 0
121 140 0
122 142 0
123 142 0
126 145 0
123 142 0
121 140 0
117 136 0
121 140 0
119 138 0
119 138 0
119 138 0
119 138 0
121 140 0
123 141 0
120 139 0
119 138 0
118 137 0
121 140 0
117 136 0
122 141 0
120 139 0
120 138 0
115 133 0
120 138 0
120 139 0
121 140 0
117 135 0
122 141 0
120 138 0
121 140 0
120 138 0
118 136 0
120 138 0
122 140 0
120 139 0
122 140 0
123 141 0
119 137 0
121 139 0
118 136 0
122 140 0
124 142 0
123 142 0
122 140 0
123 141 0
120 138 0
122 140 0
124 142 0
123 141 0
118 136 0
124 142 0
123 141 0
122 140 0
123 141 0
126 144 0
125 143 0
124 141 0
126 144 0
125 143 0
123 141 0
127 144 0
127 144 0
126 143 0
128 146 0
126 143 0
126 143 0
129 146 0
125 142 0
128 145 0
127 145 0
127 144 0
128 145 0
124 141 0
126 142 0
130 147 0
128 144 0
130 147 0
127 144 0
125 141 0
125 141 0
130 146 0
126 142 0
131 147 0
128 143 0
129 145 0
126 141 0
127 141 0
131 147 0
130 144 0
128 143 0
128 143 0
131 146 0
128 143 0
132 146 0
129 144 0
130 144 0
126 139 0
130 144 0
130 144 0
130 143 0
133 147 0
129 142 0
129 142 0
129 142 0
129 141 0
129 141 0
130 143 0
129 140 0
130 141 0
128 140 0
129 141 0
126 137 0
129 139 0
129 141 0
127 136 0
129 139 0
126 136 0
127 138 0
127 136 0
127 138 0
122 130 0
128 137 0
128 138 0
126 135 0
124 131 0
124 132 0
125 131 0
127 134 0
123 129 0
124 130 0
125 131 0
123 128 0
123 127 0
123 129 0
121 126 0
125 129 0
121 124 0
121 124 0
124 128 0
122 126 0
120 123 0
121 123 0
122 123 0
118 120 0
123 126 0
121 122 0
120 122 0
124 126 0
117 118 0
120 121 0
121 122 0
123 125 0
120 120 0
121 121 0
117 117 0
121 121 0
119 118 0
119 118 0
122 122 0
120 120 0
121 120 0
121 120 0
120 119 0
123 123 0
119 117 0
120 119 0
121 120 0
121 121 0
123 123 0
122 121 0
124 125 0
123 123 0
125 126 0
124 124 0
124 124 0
129 129 0
128 127 0
131 132 0
129 130 0
129 129 0
128 127 0
132 133 0
132 134 0
132 133 0
134 137 0
134 137 0
136 138 0
135 139 0
137 141 0
137 140 0
137 140 0
140 144 0
140 145 0
142 147 0
142 148 0
141 147 0
143 149 0
144 150 0
142 149 0
144 151 0
147 154 0
147 155 0
146 155 0
147 155 0
147 157 0
147 156 0
150 161 0
152 163 0
150 159 0
150 160 0
151 162 0
154 165 0
153 164 0
150 160 0
152 164 0
153 166 0
153 166 0
154 167 0
155 168 0
155 168 0
157 171 0
156 170 0
156 170 0
159 180 0
159 180 0
160 180 0
159 179 0
159 180 0
159 179 0
158 178 0
158 177 0
157 176 0
158 177 0
156 176 0
158 177 0
155 174 0
156 176 0
155 174 0
155 174 0
156 176 0
156 175 0
154 172 0
153 172 0
154 173 0
154 173 0
153 171 0
150 168 0
152 170 0
152 170 0
150 168 0
150 168 0
148 166 0
148 166 0
148 166 0
147 164 0
148 165 0
145 161 0
145 161 0
144 160 0
147 163 0
143 159 0
142 158 0
142 158 0
141 157 0
139 154 0
139 154 0
140 155 0
138 153 0
137 153 0
137 152 0
136 152 0
135 150 0
134 149 0
134 150 0
133 149 0
135 150 0
133 147 0
131 146 0
132 147 0
131 146 0
134 149 0
133 148 0
134 149 0
130 145 0
129 144 0
130 145 0
131 146 0
130 145 0
131 146 0
132 147 0
132 147 0
130 144 0
130 145 0
133 148 0
131 146 0
132 148 0
131 146 0
129 144 0
133 148 0
132 147 0
130 145 0
130 146 0
133 149 0
132 148 0
133 149 0
132 148 0
132 149 0
133 149 0
133 150 0
133 150 0
132 149 0
132 149 0
132 149 0
130 147 0
135 152 0
133 151 0
131 148 0
131 148 0
131 148 0
132 149 0
133 151 0
133 151 0
131 149 0
134 152 0
133 151 0
132 150 0
135 153 0
132 151 0
134 153 0
131 149 0
133 151 0
133 151 0
132 151 0
132 151 0
132 151 0
131 149 0
129 148 0
134 153 0
134 153 0
134 152 0
136 154 0
133 152 0
135 154 0
133 151 0
134 154 0
133 152 0
131 150 0
131 151 0
134 153 0
136 155 0
128 147 0
133 152 0
135 154 0
133 152 0
131 151 0
132 152 0
134 154 0
133 153 0
134 155 0
131 151 0
130 150 0
133 153 0
130 150 0
131 151 0
134 154 0
131 150 0
133 153 0
130 150 0
133 153 0
133 153 0
133 153 0
129 150 0
131 150 0
129 148 0
128 147 0
128 148 0
131 151 0
130 150 0
131 151 0
126 146 0
130 150 0
128 148 0
131 151 0
126 146 0
128 147 0
128 147 0
130 150 0
128 148 0
127 146 0
129 149 0
128 148 0
128 148 0
125 145 0
124 144 0
127 147 0
124 144 0
124 144 0
124 143 0
127 147 0
123 143 0
122 141 0
125 145 0
125 144 0
123 143 0
127 147 0
122 141 0
120 140 0
118 137 0
123 142 0
125 145 0
122 141 0
122 141 0
121 140 0
122 141 0
121 141 0
123 142 0
124 143 0
120 138 0
121 140 0
118 137 0
119 138 0
125 144 0
121 140 0
123 142 0
121 140 0
119 138 0
120 138 0
120 138 0
124 142 0
121 139 0
118 137 0
121 140 0
122 141 0
120 138 0
120 138 0
120 139 0
122 141 0
122 141 0
122 142 0
121 139 0
123 141 0
119 138 0
124 143 0
123 141 0
120 138 0
126 145 0
123 141 0
124 143 0
125 144 0
126 145 0
122 140 0
122 140 0
121 140 0
127 145 0
123 141 0
125 143 0
126 145 0
127 144 0
125 142 0
127 146 0
127 144 0
125 142 0
129 147 0
129 147 0
124 141 0
128 146 0
128 146 0
127 145 0
128 145 0
126 143 0
127 145 0
129 146 0
129 146 0
129 146 0
127 144 0
130 146 0
130 147 0
128 144 0
127 144 0
127 144 0
128 144 0
126 143 0
128 144 0
130 146 0
131 147 0
129 145 0
129 144 0
130 145 0
130 145 0
132 147 0
127 141 0
129 144 0
130 145 0
132 146 0
128 143 0
130 145 0
130 145 0
130 144 0
130 143 0
129 144 0
130 144 0
132 146 0
129 142 0
130 143 0
128 141 0
127 140 0
131 144 0
129 141 0
131 143 0
132 144 0
131 142 0
128 139 0
129 142 0
129 140 0
130 141 0
128 140 0
130 141 0
126 136 0
128 138 0
130 141 0
127 137 0
127 136 0
126 135 0
128 137 0
127 135 0
126 134 0
125 132 0
125 133 0
130 137 0
124 130 0
126 134 0
125 131 0
126 132 0
122 126 0
126 132 0
127 132 0
122 127 0
122 125 0
123 128 0
123 127 0
123 125 0
125 127 0
121 124 0
123 126 0
122 125 0
123 125 0
124 126 0
123 125 0
124 126 0
119 121 0
120 122 0
122 124 0
121 123 0
124 125 0
120 121 0
125 126 0
122 122 0
124 125 0
122 122 0
118 118 0
121 121 0
123 123 0
124 124 0
121 119 0
123 123 0
119 119 0
122 122 0
125 125 0
127 127 0
124 124 0
125 125 0
125 126 0
125 124 0
126 127 0
128 128 0
129 129 0
126 126 0
127 128 0
130 131 0
128 128 0
130 130 0
132 134 0
133 135 0
133 134 0
136 139 0
131 133 0
136 139 0
137 141 0
138 141 0
137 141 0
137 140 0
137 140 0
139 143 0
140 144 0
141 145 0
142 147 0
140 146 0
141 146 0
141 147 0
145 151 0
146 154 0
145 153 0
148 156 0
147 156 0
146 153 0
147 156 0
147 156 0
150 160 0
150 161 0
148 158 0
150 160 0
150 161 0
151 161 0
152 163 0
151 162 0
154 165 0
154 166 0
155 168 0
154 168 0
154 167 0
155 168 0
154 167 0
155 168 0
160 180 0
160 180 0
159 179 0
159 179 0
159 179 0
160 181 0
159 180 0
158 178 0
157 177 0
157 177 0
159 178 0
157 176 0
157 176 0
155 175 0
155 174 0
155 174 0
154 173 0
154 173 0
154 173 0
152 170 0
152 171 0
153 172 0
153 170 0
151 169 0
152 169 0
153 171 0
149 167 0
151 169 0
150 167 0
148 165 0
146 163 0
146 163 0
142 159 0
148 165 0
145 161 0
144 161 0
144 160 0
142 158 0
142 158 0
141 157 0
141 157 0
140 156 0
140 155 0
140 156 0
137 153 0
139 155 0
138 154 0
136 152 0
136 151 0
137 152 0
135 150 0
133 148 0
135 151 0
135 150 0
134 149 0
133 148 0
136 152 0
132 146 0
133 148 0
133 148 0
132 147 0
133 148 0
131 146 0
134 149 0
134 149 0
131 147 0
133 149 0
133 148 0
132 147 0
134 149 0
132 147 0
131 146 0
132 147 0
134 150 0
133 149 0
134 150 0
133 149 0
132 149 0
135 151 0
133 149 0
135 151 0
134 151 0
135 151 0
134 151 0
133 150 0
134 151 0
134 151 0
133 150 0
133 150 0
133 150 0
133 150 0
134 151 0
135 152 0
134 151 0
134 152 0
134 152 0
133 150 0
132 150 0
134 152 0
131 149 0
130 148 0
134 153 0
133 151 0
132 150 0
134 152 0
133 152 0
134 153 0
135 153 0
137 156 0
135 154 0
132 150 0
132 150 0
134 153 0
135 154 0
133 152 0
132 151 0
138 157 0
135 155 0
135 155 0
132 151 0
136 155 0
134 153 0
135 155 0
132 152 0
130 150 0
131 151 0
135 155 0
131 151 0
133 152 0
132 152 0
131 150 0
134 153 0
134 154 0
131 151 0
133 152 0
132 151 0
132 152 0
133 153 0
133 153 0
133 153 0
129 149 0
133 153 0
130 150 0
130 150 0
130 150 0
133 153 0
130 150 0
131 150 0
131 152 0
129 149 0
131 151 0
132 151 0
132 152 0
133 153 0
133 154 0
132 152 0
128 148 0
131 152 0
130 151 0
127 146 0
129 149 0
129 149 0
130 150 0
130 150 0
127 147 0
127 147 0
126 146 0
126 146 0
130 151 0
128 148 0
129 149 0
127 146 0
127 147 0
127 147 0
128 148 0
128 148 0
125 145 0
126 146 0
127 147 0
125 144 0
121 140 0
124 144 0
124 144 0
125 145 0
122 142 0
125 144 0
124 143 0
124 143 0
122 141 0
124 144 0
119 138 0
120 139 0
123 142 0
120 139 0
122 141 0
119 137 0
124 144 0
121 140 0
120 139 0
125 144 0
121 140 0
121 140 0
124 143 0
120 139 0
123 142 0
123 143 0
121 140 0
121 140 0
124 142 0
120 139 0
123 142 0
124 143 0
123 142 0
122 140 0
125 144 0
124 143 0
121 140 0
127 146 0
121 139 0
124 143 0
123 141 0
124 143 0
126 144 0
123 142 0
122 141 0
126 145 0
127 145 0
127 145 0
127 145 0
125 144 0
125 144 0
125 143 0
127 145 0
127 146 0
129 147 0
127 145 0
129 147 0
127 146 0
127 145 0
130 148 0
126 144 0
126 143 0
129 147 0
126 143 0
127 145 0
130 148 0
130 147 0
129 146 0
131 149 0
126 143 0
127 144 0
131 148 0
128 145 0
130 146 0
131 148 0
131 149 0
127 143 0
129 145 0
129 145 0
131 147 0
131 147 0
133 150 0
127 143 0
131 147 0
133 149 0
130 145 0
132 148 0
131 146 0
131 147 0
132 148 0
134 150 0
132 147 0
130 146 0
132 146 0
131 146 0
132 146 0
130 145 0
132 147 0
131 145 0
132 146 0
127 140 0
130 143 0
130 144 0
130 144 0
131 143 0
131 144 0
131 143 0
129 141 0
131 143 0
127 139 0
132 143 0
132 144 0
129 140 0
131 142 0
130 141 0
129 139 0
129 138 0
127 137 0
129 140 0
128 138 0
131 141 0
128 136 0
128 138 0
127 136 0
129 137 0
128 136 0
127 135 0
125 133 0
127 134 0
128 134 0
126 131 0
126 132 0
127 133 0
124 129 0
127 134 0
128 134 0
126 130 0
127 133 0
127 131 0
124 128 0
126 130 0
127 131 0
124 127 0
125 129 0
122 124 0
122 126 0
126 129 0
124 127 0
126 129 0
124 126 0
126 128 0
123 124 0
124 126 0
124 126 0
123 124 0
125 126 0
124 124 0
124 124 0
125 128 0
125 126 0
124 124 0
127 127 0
125 126 0
124 124 0
126 126 0
124 123 0
126 125 0
128 129 0
128 129 0
129 130 0
128 128 0
129 129 0
129 130 0
129 130 0
127 127 0
133 135 0
131 132 0
131 132 0
132 134 0
131 132 0
134 136 0
134 135 0
133 134 0
133 136 0
138 142 0
136 139 0
136 138 0
137 140 0
138 142 0
141 145 0
141 145 0
141 146 0
139 145 0
143 148 0
141 146 0
143 149 0
141 147 0
145 151 0
145 153 0
146 153 0
147 154 0
145 153 0
149 157 0
147 156 0
148 157 0
150 159 0
151 161 0
149 159 0
150 160 0
148 159 0
152 163 0
152 163 0
153 164 0
153 164 0
154 166 0
152 164 0
154 166 0
154 168 0
156 169 0
154 167 0
159 179 0
159 180 0
158 178 0
159 180 0
157 177 0
158 178 0
157 176 0
156 176 0
157 177 0
157 176 0
157 177 0
156 176 0
156 175 0
155 174 0
155 174 0
153 171 0
153 172 0
154 172 0
155 173 0
153 171 0
152 170 0
153 171 0
151 169 0
151 169 0
150 168 0
150 167 0
149 166 0
149 167 0
148 165 0
148 166 0
147 164 0
145 162 0
146 163 0
145 162 0
144 161 0
145 162 0
144 161 0
145 161 0
143 159 0
142 158 0
142 158 0
140 156 0
142 158 0
143 159 0
138 154 0
139 154 0
141 158 0
137 153 0
138 154 0
138 154 0
136 151 0
137 152 0
137 152 0
139 154 0
139 154 0
138 153 0
134 149 0
134 149 0
134 150 0
136 151 0
133 149 0
134 150 0
134 150 0
136 151 0
135 151 0
135 151 0
134 149 0
134 150 0
133 148 0
137 153 0
137 152 0
135 151 0
133 149 0
134 150 0
135 151 0
138 154 0
135 151 0
135 151 0
134 150 0
134 151 0
135 151 0
133 149 0
133 149 0
135 152 0
135 152 0
134 151 0
137 154 0
132 149 0
135 152 0
135 153 0
135 152 0
136 154 0
135 153 0
135 153 0
134 153 0
137 155 0
132 150 0
133 151 0
135 154 0
135 153 0
135 154 0
133 151 0
137 156 0
133 151 0
137 155 0
136 155 0
136 154 0
134 152 0
136 155 0
133 152 0
135 154 0
133 152 0
135 154 0
135 155 0
133 152 0
135 154 0
134 154 0
137 156 0
136 156 0
138 158 0
133 153 0
135 155 0
135 155 0
134 153 0
135 155 0
135 155 0
137 157 0
134 153 0
132 151 0
135 155 0
134 154 0
136 157 0
135 155 0
133 154 0
133 153 0
135 155 0
132 152 0
132 152 0
131 151 0
131 151 0
134 154 0
134 154 0
133 153 0
130 150 0
132 152 0
133 153 0
132 152 0
132 153 0
132 152 0
135 155 0
132 152 0
133 153 0
131 151 0
130 150 0
130 150 0
135 155 0
131 152 0
128 148 0
130 150 0
128 147 0
128 148 0
128 149 0
129 149 0
131 151 0
130 150 0
128 148 0
129 148 0
129 149 0
129 149 0
129 149 0
130 150 0
127 146 0
128 147 0
129 149 0
127 146 0
125 144 0
129 149 0
126 147 0
126 146 0
125 144 0
123 143 0
124 144 0
124 143 0
124 144 0
128 148 0
125 144 0
122 142 0
124 143 0
127 147 0
125 144 0
120 140 0
123 142 0
124 143 0
123 142 0
125 144 0
123 143 0
126 145 0
124 144 0
125 144 0
122 141 0
123 142 0
120 139 0
125 144 0
127 146 0
125 144 0
125 144 0
124 144 0
126 145 0
123 142 0
123 142 0
124 142 0
124 143 0
125 144 0
125 144 0
123 141 0
126 145 0
126 145 0
123 142 0
126 145 0
124 143 0
125 144 0
125 143 0
127 145 0
126 145 0
126 144 0
124 143 0
125 144 0
130 148 0
128 146 0
128 146 0
130 148 0
130 148 0
127 146 0
129 148 0
125 144 0
129 146 0
127 146 0
128 146 0
126 144 0
127 145 0
129 146 0
127 145 0
130 148 0
130 148 0
129 146 0
126 143 0
127 144 0
128 146 0
129 146 0
131 149 0
131 148 0
129 147 0
131 149 0
130 146 0
134 152 0
131 149 0
128 145 0
129 145 0
129 146 0
131 148 0
132 148 0
130 147 0
133 149 0
130 147 0
132 148 0
131 148 0
132 148 0
130 145 0
132 147 0
132 147 0
130 145 0
128 143 0
131 145 0
131 146 0
133 147 0
133 148 0
133 147 0
135 150 0
130 144 0
132 147 0
132 146 0
134 147 0
133 148 0
132 145 0
132 146 0
131 144 0
131 144 0
133 147 0
133 146 0
132 145 0
133 146 0
133 145 0
132 144 0
132 143 0
131 141 0
132 143 0
134 144 0
129 140 0
129 140 0
133 145 0
130 140 0
131 141 0
133 143 0
128 138 0
130 139 0
131 139 0
131 140 0
129 139 0
130 139 0
130 139 0
129 137 0
129 138 0
128 134 0
128 135 0
128 136 0
126 132 0
127 133 0
127 132 0
128 134 0
128 133 0
126 130 0
125 130 0
128 132 0
125 129 0
127 130 0
126 130 0
125 129 0
124 127 0
127 130 0
128 129 0
126 127 0
126 129 0
128 130 0
127 129 0
128 130 0
125 128 0
124 126 0
127 129 0
124 125 0
127 129 0
127 128 0
124 126 0
127 128 0
127 128 0
129 130 0
128 129 0
125 127 0
127 128 0
126 127 0
129 130 0
129 130 0
130 131 0
131 132 0
131 132 0
130 132 0
132 135 0
129 131 0
132 133 0
135 137 0
134 136 0
133 136 0
130 133 0
137 140 0
134 137 0
137 140 0
136 140 0
139 142 0
138 142 0
138 142 0
137 141 0
138 142 0
142 146 0
140 145 0
139 143 0
142 148 0
141 146 0
142 148 0
143 149 0
145 151 0
146 152 0
146 154 0
146 153 0
147 155 0
147 155 0
148 157 0
148 156 0
149 158 0
151 161 0
147 157 0
150 160 0
151 161 0
151 161 0
150 161 0
150 161 0
152 163 0
154 166 0
155 167 0
156 169 0
154 167 0
154 167 0
158 179 0
157 178 0
158 178 0
158 178 0
157 176 0
158 178 0
158 177 0
157 176 0
157 176 0
157 177 0
154 173 0
156 175 0
154 173 0
155 173 0
155 174 0
154 173 0
154 172 0
151 169 0
152 171 0
153 171 0
153 171 0
152 170 0
151 169 0
151 168 0
150 168 0
149 166 0
149 166 0
148 165 0
146 163 0
147 164 0
146 163 0
145 162 0
146 162 0
144 161 0
144 161 0
143 159 0
143 160 0
145 161 0
142 159 0
142 159 0
143 159 0
143 159 0
141 157 0
140 157 0
141 157 0
139 155 0
139 155 0
137 153 0
139 155 0
139 155 0
136 152 0
137 153 0
138 154 0
136 152 0
137 153 0
138 153 0
137 153 0
139 154 0
136 151 0
135 151 0
136 152 0
137 153 0
136 151 0
139 155 0
138 154 0
136 151 0
137 152 0
136 152 0
137 154 0
134 150 0
137 154 0
136 152 0
136 152 0
137 153 0
136 153 0
136 153 0
137 154 0
134 151 0
137 154 0
134 151 0
134 151 0
138 155 0
138 156 0
136 153 0
135 152 0
135 152 0
136 154 0
137 155 0
137 155 0
136 154 0
138 156 0
138 156 0
135 153 0
135 154 0
137 156 0
135 153 0
136 154 0
136 154 0
134 152 0
135 154 0
136 155 0
138 156 0
136 155 0
133 153 0
136 154 0
137 156 0
135 154 0
135 154 0
138 157 0
137 156 0
137 157 0
137 156 0
137 157 0
137 156 0
136 155 0
138 158 0
136 155 0
136 155 0
136 155 0
136 156 0
135 155 0
139 158 0
135 154 0
136 156 0
140 160 0
137 157 0
136 156 0
135 155 0
133 153 0
136 156 0
133 153 0
136 156 0
135 155 0
134 154 0
134 154 0
133 153 0
136 156 0
136 157 0
133 153 0
132 152 0
135 155 0
132 152 0
132 152 0
132 152 0
131 151 0
132 153 0
131 151 0
131 152 0
134 155 0
133 153 0
133 153 0
129 149 0
132 153 0
132 152 0
132 153 0
132 152 0
131 152 0
133 154 0
130 151 0
130 150 0
129 149 0
131 152 0
131 151 0
129 149 0
127 147 0
131 151 0
129 149 0
126 147 0
126 146 0
128 149 0
129 149 0
127 147 0
125 145 0
126 146 0
128 147 0
127 147 0
126 146 0
126 146 0
129 149 0
127 147 0
129 149 0
125 145 0
127 147 0
126 145 0
125 144 0
124 143 0
127 147 0
128 148 0
125 145 0
127 146 0
122 142 0
127 146 0
127 147 0
125 144 0
126 145 0
126 145 0
124 143 0
127 146 0
127 146 0
128 147 0
121 140 0
126 145 0
127 146 0
125 144 0
125 145 0
124 143 0
127 147 0
123 142 0
123 142 0
125 145 0
125 145 0
126 146 0
126 145 0
128 147 0
124 143 0
123 142 0
126 145 0
125 144 0
125 143 0
126 144 0
126 145 0
128 147 0
126 146 0
127 146 0
127 145 0
128 147 0
125 143 0
126 144 0
128 147 0
128 146 0
126 144 0
127 144 0
125 143 0
126 144 0
131 149 0
131 149 0
130 148 0
129 148 0
126 144 0
129 147 0
128 146 0
131 149 0
130 148 0
132 150 0
126 144 0
130 148 0
131 149 0
129 147 0
133 151 0
130 147 0
129 147 0
133 151 0
131 149 0
130 148 0
133 150 0
131 148 0
133 149 0
129 146 0
132 149 0
133 150 0
133 149 0
129 144 0
130 146 0
132 149 0
130 147 0
133 149 0
129 144 0
131 147 0
132 147 0
129 145 0
132 148 0
130 145 0
130 146 0
131 146 0
131 146 0
132 146 0
135 150 0
133 148 0
132 146 0
133 147 0
132 146 0
134 148 0
131 145 0
132 145 0
131 145 0
132 146 0
134 147 0
130 143 0
131 144 0
131 143 0
133 144 0
132 145 0
132 144 0
132 144 0
133 146 0
130 142 0
133 145 0
133 144 0
131 143 0
133 144 0
130 141 0
132 143 0
134 145 0
131 142 0
130 139 0
130 141 0
130 140 0
129 139 0
129 138 0
129 137 0
129 137 0
128 136 0
130 137 0
128 136 0
132 139 0
128 135 0
131 138 0
128 134 0
130 137 0
129 135 0
128 134 0
128 133 0
129 135 0
129 133 0
128 132 0
129 135 0
129 133 0
129 133 0
126 131 0
128 130 0
127 130 0
129 133 0
129 132 0
129 132 0
127 130 0
129 131 0
126 128 0
127 130 0
129 132 0
124 127 0
128 130 0
130 132 0
128 130 0
128 130 0
128 129 0
130 131 0
130 132 0
129 131 0
131 132 0
130 131 0
131 133 0
132 133 0
131 133 0
130 132 0
134 135 0
132 134 0
130 132 0
134 137 0
132 135 0
134 135 0
134 136 0
132 134 0
137 140 0
136 139 0
136 139 0
136 138 0
139 142 0
137 141 0
138 142 0
138 143 0
139 143 0
141 146 0
142 147 0
143 149 0
139 144 0
141 146 0
141 147 0
145 151 0
144 150 0
145 153 0
144 151 0
146 154 0
144 152 0
148 156 0
146 154 0
147 156 0
145 154 0
149 158 0
150 160 0
149 158 0
150 160 0
150 159 0
149 160 0
152 163 0
150 162 0
151 162 0
152 164 0
152 164 0
152 164 0
154 166 0
158 178 0
157 177 0
159 180 0
157 177 0
157 177 0
158 177 0
156 176 0
157 176 0
156 175 0
155 174 0
155 174 0
156 175 0
155 173 0
155 174 0
155 174 0
154 172 0
153 172 0
152 171 0
152 170 0
151 170 0
152 170 0
152 170 0
150 168 0
150 167 0
148 166 0
149 166 0
148 166 0
147 164 0
148 165 0
144 160 0
147 164 0
146 163 0
146 163 0
146 162 0
146 162 0
143 160 0
142 159 0
143 160 0
142 158 0
143 159 0
142 158 0
143 159 0
142 158 0
142 158 0
141 157 0
141 157 0
140 156 0
142 158 0
138 153 0
139 155 0
138 154 0
141 157 0
138 154 0
139 155 0
139 155 0
139 155 0
137 153 0
138 154 0
139 155 0
135 151 0
138 154 0
139 155 0
135 151 0
138 154 0
138 154 0
139 155 0
136 152 0
137 153 0
138 155 0
136 153 0
139 156 0
137 154 0
136 152 0
137 154 0
137 154 0
137 154 0
138 156 0
138 155 0
138 155 0
139 156 0
137 155 0
136 153 0
136 154 0
138 156 0
135 153 0
137 155 0
137 155 0
135 153 0
137 155 0
137 155 0
137 155 0
137 155 0
138 157 0
138 157 0
136 155 0
136 154 0
137 156 0
138 157 0
135 154 0
136 154 0
135 153 0
138 157 0
136 155 0
136 155 0
136 155 0
139 158 0
137 156 0
137 156 0
139 158 0
138 158 0
134 153 0
137 156 0
136 155 0
136 155 0
137 156 0
137 157 0
137 157 0
139 159 0
137 157 0
134 154 0
136 156 0
136 155 0
136 156 0
134 154 0
135 155 0
136 155 0
136 156 0
136 156 0
136 156 0
132 152 0
135 156 0
134 154 0
135 155 0
135 156 0
132 152 0
133 154 0
133 153 0
131 151 0
134 154 0
134 155 0
134 154 0
134 155 0
134 154 0
135 155 0
133 153 0
135 156 0
130 150 0
134 155 0
133 154 0
134 154 0
131 152 0
134 154 0
132 152 0
130 151 0
133 153 0
136 156 0
129 150 0
134 154 0
131 151 0
132 152 0
129 149 0
129 149 0
131 152 0
131 151 0
134 155 0
129 150 0
131 152 0
129 149 0
129 149 0
128 148 0
131 152 0
128 149 0
130 150 0
130 150 0
128 148 0
130 150 0
128 148 0
130 150 0
126 146 0
128 148 0
126 146 0
126 146 0
130 150 0
125 145 0
124 144 0
126 146 0
125 144 0
127 147 0
124 143 0
129 149 0
124 143 0
128 148 0
127 147 0
127 147 0
126 146 0
124 144 0
127 147 0
127 147 0
126 146 0
127 147 0
125 145 0
129 149 0
128 147 0
126 145 0
124 143 0
128 147 0
125 144 0
128 147 0
126 146 0
126 145 0
128 148 0
126 144 0
128 147 0
127 146 0
125 144 0
128 147 0
128 146 0
129 148 0
128 147 0
124 143 0
123 142 0
125 144 0
125 144 0
129 148 0
129 148 0
127 145 0
127 145 0
130 149 0
127 146 0
128 146 0
129 148 0
127 146 0
129 147 0
133 151 0
130 148 0
130 149 0
131 150 0
130 149 0
130 149 0
129 147 0
131 150 0
129 147 0
131 148 0
132 151 0
130 148 0
130 148 0
130 148 0
130 147 0
131 149 0
129 147 0
132 149 0
130 148 0
132 150 0
131 149 0
131 148 0
130 147 0
132 149 0
129 146 0
135 152 0
131 149 0
133 149 0
133 151 0
129 146 0
136 153 0
132 149 0
130 146 0
134 150 0
133 149 0
135 151 0
131 147 0
131 147 0
133 149 0
134 150 0
131 146 0
131 146 0
133 148 0
136 151 0
132 147 0
133 149 0
136 151 0
133 149 0
131 145 0
133 148 0
130 145 0
134 148 0
134 148 0
135 149 0
132 145 0
135 148 0
133 146 0
133 146 0
135 149 0
135 149 0
133 145 0
132 144 0
131 143 0
135 147 0
129 140 0
134 146 0
133 145 0
130 141 0
132 143 0
133 144 0
131 142 0
133 144 0
130 140 0
131 140 0
130 140 0
130 139 0
134 143 0
131 139 0
131 141 0
130 139 0
132 141 0
132 141 0
132 140 0
130 138 0
130 137 0
129 136 0
130 137 0
130 137 0
128 134 0
131 137 0
128 135 0
128 134 0
127 132 0
131 136 0
133 138 0
132 138 0
129 133 0
129 133 0
127 131 0
130 134 0
128 133 0
128 132 0
131 135 0
129 132 0
127 129 0
130 133 0
129 133 0
131 134 0
129 131 0
128 130 0
130 133 0
128 131 0
130 133 0
131 134 0
128 130 0
132 135 0
130 131 0
130 132 0
131 133 0
133 135 0
133 136 0
135 137 0
134 137 0
134 137 0
131 133 0
132 135 0
133 136 0
134 137 0
133 135 0
133 136 0
136 138 0
136 139 0
136 139 0
138 142 0
139 143 0
137 140 0
138 143 0
138 143 0
139 143 0
141 146 0
142 147 0
141 146 0
142 147 0
142 148 0
143 149 0
144 150 0
141 146 0
141 148 0
145 152 0
146 153 0
146 153 0
147 155 0
146 154 0
147 156 0
147 156 0
146 155 0
149 158 0
150 160 0
148 157 0
149 158 0
151 161 0
151 162 0
149 161 0
153 164 0
150 162 0
154 167 0
153 165 0
156 176 0
157 177 0
158 178 0
157 177 0
157 176 0
157 177 0
157 176 0
156 176 0
156 175 0
153 172 0
155 173 0
156 174 0
154 173 0
153 171 0
154 172 0
153 172 0
153 172 0
154 172 0
153 171 0
152 170 0
150 168 0
151 168 0
150 167 0
150 168 0
150 167 0
147 164 0
150 167 0
149 167 0
148 165 0
146 163 0
146 163 0
147 164 0
145 163 0
146 163 0
145 162 0
146 163 0
144 160 0
145 161 0
144 161 0
143 159 0
142 159 0
144 160 0
145 162 0
144 161 0
141 157 0
142 158 0
141 157 0
142 158 0
141 157 0
141 157 0
141 157 0
140 156 0
140 156 0
139 155 0
139 155 0
141 158 0
140 156 0
140 156 0
139 155 0
140 156 0
140 157 0
139 156 0
140 157 0
139 155 0
141 157 0
140 156 0
137 154 0
139 156 0
139 156 0
136 153 0
139 156 0
137 154 0
138 155 0
139 156 0
138 156 0
139 156 0
139 157 0
137 154 0
138 155 0
139 156 0
139 157 0
139 156 0
140 158 0
138 156 0
135 154 0
139 158 0
137 155 0
139 157 0
137 156 0
138 156 0
136 155 0
139 157 0
137 156 0
137 156 0
138 157 0
137 156 0
137 156 0
136 154 0
139 158 0
139 159 0
137 156 0
138 157 0
140 159 0
138 157 0
136 155 0
138 157 0
138 157 0
140 160 0
139 159 0
139 158 0
137 156 0
138 157 0
135 155 0
137 157 0
137 157 0
139 158 0
136 156 0
137 157 0
137 157 0
138 158 0
138 159 0
137 157 0
137 157 0
137 157 0
137 157 0
136 156 0
137 157 0
135 155 0
135 155 0
136 156 0
138 158 0
133 154 0
134 155 0
138 158 0
136 157 0
136 156 0
137 158 0
134 155 0
135 155 0
136 156 0
134 154 0
136 157 0
134 155 0
135 155 0
134 155 0
133 154 0
135 155 0
133 154 0
133 154 0
134 155 0
132 152 0
135 156 0
134 154 0
132 153 0
132 153 0
131 151 0
133 154 0
133 154 0
131 152 0
133 153 0
134 155 0
134 154 0
132 152 0
133 153 0
128 149 0
132 152 0
131 151 0
130 150 0
133 153 0
130 150 0
129 149 0
128 148 0
128 148 0
131 151 0
130 150 0
130 150 0
127 147 0
129 149 0
129 149 0
128 148 0
128 148 0
127 147 0
128 148 0
129 149 0
126 146 0
126 146 0
129 149 0
127 147 0
127 147 0
129 149 0
126 146 0
126 145 0
126 146 0
128 147 0
126 146 0
126 146 0
124 144 0
126 146 0
122 142 0
124 145 0
127 147 0
121 141 0
126 146 0
125 144 0
125 144 0
127 147 0
126 146 0
127 146 0
127 146 0
129 148 0
126 146 0
125 144 0
126 145 0
125 144 0
128 147 0
122 141 0
126 145 0
126 146 0
126 145 0
127 147 0
125 144 0
127 147 0
129 148 0
131 150 0
127 146 0
130 150 0
131 151 0
130 149 0
129 148 0
130 149 0
127 145 0
129 148 0
130 149 0
130 149 0
130 149 0
131 149 0
129 148 0
131 149 0
133 152 0
130 148 0
133 152 0
128 147 0
129 147 0
132 150 0
130 148 0
128 146 0
133 150 0
132 151 0
133 151 0
130 147 0
134 152 0
132 150 0
132 150 0
131 148 0
133 151 0
131 148 0
132 149 0
133 151 0
132 149 0
132 149 0
132 149 0
132 149 0
132 149 0
134 151 0
135 151 0
135 152 0
133 150 0
134 150 0
136 153 0
130 146 0
134 150 0
132 148 0
132 148 0
134 149 0
134 150 0
133 148 0
137 152 0
134 149 0
135 150 0
132 147 0
135 151 0
133 148 0
133 147 0
134 149 0
133 147 0
128 142 0
130 143 0
133 148 0
132 146 0
135 149 0
137 152 0
135 148 0
133 147 0
134 148 0
131 144 0
135 148 0
131 144 0
133 146 0
134 147 0
131 142 0
132 144 0
134 146 0
138 150 0
132 143 0
135 147 0
132 142 0
131 141 0
133 144 0
133 144 0
132 143 0
130 139 0
132 141 0
132 142 0
131 140 0
132 141 0
132 141 0
130 139 0
130 138 0
132 140 0
130 138 0
133 141 0
130 138 0
130 137 0
131 137 0
131 138 0
128 135 0
128 134 0
129 135 0
129 135 0
130 135 0
131 138 0
129 134 0
131 136 0
131 135 0
131 136 0
129 132 0
129 133 0
132 138 0
129 133 0
129 133 0
132 136 0
129 132 0
133 138 0
134 139 0
128 131 0
134 137 0
133 136 0
132 136 0
134 138 0
133 135 0
130 132 0
131 134 0
131 135 0
132 135 0
131 134 0
131 134 0
132 135 0
134 137 0
134 137 0
134 137 0
134 138 0
136 140 0
134 137 0
133 136 0
138 142 0
136 140 0
136 140 0
138 143 0
138 143 0
136 141 0
135 138 0
140 145 0
139 144 0
142 146 0
140 145 0
140 146 0
141 147 0
143 149 0
143 149 0
143 150 0
144 151 0
143 149 0
144 151 0
146 154 0
146 154 0
146 154 0
147 155 0
146 154 0
151 160 0
149 158 0
149 158 0
151 160 0
148 158 0
149 159 0
150 159 0
152 163 0
153 164 0
151 162 0
153 165 0
152 163 0
158 178 0
157 177 0
156 176 0
155 175 0
157 176 0
155 175 0
156 176 0
155 174 0
156 176 0
154 173 0
155 173 0
155 174 0
154 172 0
154 173 0
152 170 0
153 171 0
152 171 0
152 170 0
150 169 0
151 169 0
150 167 0
150 168 0
150 168 0
151 168 0
148 166 0
150 167 0
149 166 0
148 166 0
148 165 0
147 164 0
146 163 0
146 163 0
145 162 0
145 162 0
144 161 0
145 161 0
142 159 0
146 163 0
144 160 0
144 161 0
143 160 0
143 160 0
144 161 0
143 159 0
145 161 0
143 160 0
142 159 0
143 160 0
141 157 0
141 158 0
141 157 0
140 157 0
141 158 0
142 159 0
141 157 0
141 158 0
140 156 0
140 157 0
138 155 0
138 155 0
142 159 0
142 159 0
138 155 0
140 157 0
139 156 0
142 160 0
141 158 0
138 155 0
139 156 0
140 158 0
141 158 0
139 156 0
139 157 0
139 157 0
139 156 0
140 158 0
140 158 0
140 158 0
138 155 0
141 159 0
141 159 0
136 154 0
138 156 0
140 158 0
138 156 0
139 158 0
138 156 0
138 156 0
139 158 0
139 157 0
140 158 0
138 157 0
137 156 0
135 153 0
138 157 0
139 158 0
139 158 0
137 156 0
138 157 0
136 155 0
136 155 0
136 155 0
139 159 0
139 158 0
137 157 0
138 158 0
138 157 0
138 157 0
138 157 0
141 160 0
139 159 0
140 159 0
135 155 0
139 159 0
135 155 0
138 158 0
137 157 0
137 157 0
137 157 0
137 157 0
135 155 0
136 156 0
138 159 0
138 158 0
138 158 0
137 158 0
136 157 0
138 158 0
136 157 0
139 160 0
137 158 0
137 157 0
137 157 0
137 158 0
136 157 0
136 156 0
136 156 0
135 155 0
131 152 0
132 152 0
134 154 0
137 157 0
135 155 0
134 154 0
134 154 0
133 153 0
132 153 0
134 155 0
134 155 0
134 154 0
134 154 0
131 152 0
134 155 0
132 153 0
133 154 0
132 152 0
135 155 0
134 154 0
135 155 0
131 151 0
134 154 0
132 153 0
132 152 0
130 151 0
134 155 0
132 153 0
131 151 0
131 152 0
133 154 0
131 151 0
132 153 0
130 150 0
129 149 0
129 149 0
133 153 0
131 152 0
130 151 0
128 148 0
131 151 0
130 150 0
125 145 0
129 150 0
126 146 0
131 151 0
132 152 0
128 148 0
128 148 0
128 148 0
128 148 0
129 149 0
128 148 0
127 146 0
128 148 0
128 147 0
127 146 0
133 153 0
129 149 0
127 147 0
128 148 0
128 148 0
128 148 0
126 145 0
128 148 0
127 147 0
128 148 0
125 144 0
129 149 0
128 148 0
127 146 0
129 149 0
131 150 0
128 147 0
126 145 0
126 145 0
127 147 0
130 149 0
128 147 0
127 146 0
128 148 0
130 149 0
130 149 0
128 147 0
129 148 0
130 149 0
130 149 0
128 147 0
129 148 0
129 147 0
130 149 0
130 149 0
130 148 0
131 150 0
129 148 0
134 153 0
130 148 0
131 149 0
129 148 0
131 149 0
131 149 0
131 150 0
131 149 0
134 153 0
132 150 0
130 148 0
133 152 0
132 150 0
131 149 0
131 148 0
134 152 0
134 153 0
134 153 0
133 150 0
134 152 0
132 150 0
131 149 0
135 152 0
134 151 0
131 149 0
131 148 0
135 153 0
132 150 0
134 151 0
132 149 0
130 147 0
136 154 0
134 151 0
135 152 0
135 152 0
135 151 0
134 151 0
136 153 0
136 152 0
133 149 0
134 150 0
133 149 0
135 152 0
137 152 0
135 150 0
135 151 0
132 148 0
134 150 0
134 149 0
132 147 0
133 148 0
133 147 0
136 151 0
134 149 0
139 154 0
137 151 0
134 148 0
133 147 0
132 145 0
136 149 0
136 151 0
134 147 0
135 149 0
137 150 0
135 148 0
135 148 0
135 147 0
136 148 0
135 148 0
135 147 0
133 145 0
135 146 0
133 144 0
135 147 0
134 145 0
136 147 0
134 145 0
133 143 0
131 142 0
134 144 0
135 145 0
133 142 0
135 144 0
134 143 0
133 142 0
133 142 0
131 141 0
131 139 0
136 144 0
133 140 0
131 138 0
132 140 0
131 138 0
131 137 0
133 140 0
133 140 0
134 141 0
130 136 0
131 136 0
129 134 0
133 139 0
132 138 0
129 135 0
133 139 0
132 137 0
131 136 0
135 140 0
130 134 0
132 136 0
131 135 0
132 136 0
132 136 0
131 134 0
132 136 0
134 139 0
133 136 0
132 136 0
132 134 0
133 136 0
135 138 0
132 135 0
132 135 0
132 135 0
131 135 0
135 139 0
134 136 0
138 141 0
135 138 0
138 143 0
137 140 0
136 140 0
137 141 0
137 142 0
137 141 0
139 144 0
139 145 0
139 143 0
138 143 0
140 145 0
138 142 0
140 145 0
142 147 0
139 145 0
142 148 0
143 150 0
141 148 0
143 149 0
142 148 0
144 151 0
144 152 0
146 153 0
144 151 0
146 154 0
145 153 0
146 154 0
147 155 0
148 156 0
148 158 0
149 158 0
149 158 0
149 160 0
149 159 0
149 159 0
150 160 0
150 160 0
152 163 0
152 163 0
156 176 0
158 178 0
157 177 0
157 177 0
157 176 0
156 175 0
154 173 0
156 175 0
155 174 0
156 175 0
155 173 0
154 173 0
153 171 0
153 172 0
153 172 0
152 170 0
151 169 0
153 171 0
153 171 0
150 168 0
150 168 0
152 170 0
150 168 0
150 168 0
149 167 0
148 165 0
150 167 0
147 165 0
148 165 0
148 165 0
148 165 0
147 164 0
145 162 0
147 164 0
145 162 0
147 164 0
143 160 0
144 161 0
144 161 0
144 161 0
143 160 0
142 159 0
144 161 0
143 159 0
143 159 0
144 160 0
141 157 0
143 160 0
142 159 0
143 160 0
143 160 0
140 157 0
140 157 0
142 159 0
139 155 0
142 159 0
143 160 0
138 155 0
141 158 0
141 158 0
140 157 0
142 159 0
137 154 0
139 156 0
143 160 0
139 156 0
140 157 0
141 158 0
138 155 0
140 158 0
140 158 0
140 158 0
139 157 0
140 158 0
138 155 0
138 156 0
138 156 0
139 157 0
138 156 0
138 156 0
139 157 0
140 158 0
137 156 0
142 161 0
137 156 0
140 159 0
137 156 0
139 158 0
137 156 0
139 157 0
141 160 0
136 155 0
139 158 0
138 157 0
139 158 0
141 160 0
137 156 0
137 157 0
140 160 0
139 159 0
140 160 0
138 157 0
139 159 0
140 159 0
139 158 0
140 160 0
139 158 0
137 157 0
140 160 0
139 159 0
136 156 0
139 159 0
140 159 0
138 158 0
139 160 0
139 159 0
137 157 0
136 156 0
141 161 0
139 159 0
137 157 0
136 156 0
141 161 0
138 158 0
137 157 0
137 158 0
138 158 0
137 157 0
139 159 0
138 158 0
135 155 0
137 158 0
141 161 0
135 156 0
136 156 0
136 156 0
135 155 0
136 157 0
137 158 0
137 158 0
138 159 0
135 155 0
133 153 0
136 156 0
137 158 0
132 153 0
135 156 0
135 155 0
136 157 0
133 153 0
134 155 0
134 155 0
134 155 0
133 154 0
135 155 0
135 156 0
134 155 0
134 154 0
136 157 0
135 156 0
133 153 0
133 154 0
134 154 0
133 154 0
133 153 0
133 153 0
135 156 0
133 153 0
131 152 0
133 154 0
134 155 0
128 149 0
134 154 0
130 151 0
131 152 0
131 151 0
132 152 0
129 150 0
128 148 0
134 154 0
129 149 0
130 150 0
130 151 0
128 148 0
126 146 0
133 153 0
126 146 0
129 149 0
128 148 0
129 148 0
128 148 0
128 148 0
127 147 0
130 150 0
128 148 0
126 147 0
129 149 0
127 147 0
129 149 0
127 146 0
126 146 0
129 148 0
129 148 0
128 148 0
125 145 0
127 147 0
129 149 0
128 148 0
126 146 0
126 145 0
128 147 0
125 144 0
128 147 0
128 148 0
127 147 0
130 150 0
129 148 0
125 144 0
131 150 0
131 151 0
129 149 0
130 149 0
128 148 0
130 149 0
129 148 0
132 151 0
127 146 0
129 148 0
131 150 0
131 150 0
130 149 0
129 148 0
131 150 0
133 152 0
131 150 0
130 149 0
130 150 0
136 155 0
131 150 0
132 151 0
133 152 0
131 149 0
135 154 0
134 152 0
134 153 0
135 153 0
133 151 0
133 150 0
134 152 0
135 153 0
133 152 0
136 155 0
135 153 0
134 153 0
134 151 0
134 151 0
130 147 0
136 154 0
133 150 0
132 150 0
134 152 0
132 149 0
135 153 0
133 150 0
134 152 0
135 153 0
136 153 0
135 152 0
135 152 0
135 152 0
135 151 0
135 151 0
133 150 0
133 149 0
134 151 0
132 148 0
137 153 0
136 152 0
132 147 0
133 149 0
136 152 0
136 152 0
136 152 0
134 149 0
137 152 0
138 154 0
136 152 0
135 150 0
137 151 0
133 147 0
137 151 0
137 151 0
134 148 0
135 149 0
133 146 0
135 149 0
137 151 0
139 152 0
135 148 0
135 148 0
133 146 0
135 149 0
136 149 0
133 145 0
136 148 0
135 147 0
132 144 0
134 145 0
136 148 0
137 149 0
136 147 0
132 142 0
135 146 0
134 145 0
132 142 0
135 145 0
134 144 0
135 144 0
134 144 0
134 144 0
134 143 0
135 142 0
135 144 0
135 143 0
129 136 0
133 141 0
133 140 0
134 141 0
133 140 0
132 140 0
130 136 0
134 140 0
134 141 0
133 138 0
136 142 0
130 136 0
132 137 0
132 137 0
132 137 0
133 138 0
135 141 0
135 140 0
133 137 0
134 140 0
133 138 0
135 139 0
134 138 0
134 139 0
133 137 0
134 138 0
135 140 0
132 136 0
135 139 0
132 136 0
133 137 0
136 139 0
132 136 0
135 139 0
136 141 0
136 140 0
136 140 0
135 140 0
139 144 0
135 139 0
138 142 0
139 143 0
138 142 0
139 144 0
140 144 0
140 145 0
141 146 0
136 141 0
141 147 0
140 144 0
140 145 0
142 149 0
143 149 0
142 147 0
141 147 0
144 149 0
142 148 0
144 152 0
145 151 0
146 154 0
146 154 0
146 154 0
146 153 0
147 155 0
147 155 0
148 157 0
146 154 0
148 156 0
148 158 0
149 159 0
149 159 0
150 160 0
152 163 0
152 163 0
151 162 0
151 162 0
156 175 0
156 176 0
156 176 0
156 175 0
156 174 0
156 175 0
156 176 0
154 173 0
155 173 0
155 173 0
154 173 0
154 173 0
153 172 0
152 170 0
151 170 0
153 171 0
151 170 0
151 169 0
151 170 0
151 169 0
150 168 0
149 167 0
149 166 0
151 169 0
148 166 0
148 166 0
148 166 0
146 164 0
149 166 0
148 165 0
147 164 0
146 163 0
145 162 0
145 162 0
146 163 0
145 163 0
144 161 0
145 162 0
146 163 0
142 159 0
145 162 0
144 161 0
144 161 0
145 162 0
144 160 0
143 159 0
143 160 0
141 159 0
142 159 0
142 159 0
143 160 0
144 161 0
142 159 0
141 158 0
142 160 0
142 159 0
141 159 0
144 161 0
142 159 0
142 159 0
141 158 0
142 160 0
140 158 0
141 159 0
139 157 0
141 159 0
140 158 0
142 160 0
139 156 0
140 158 0
139 157 0
139 156 0
141 159 0
141 159 0
139 158 0
140 158 0
140 159 0
139 157 0
141 160 0
141 159 0
139 157 0
138 156 0
141 159 0
137 156 0
139 158 0
140 159 0
141 160 0
139 159 0
140 159 0
139 158 0
138 157 0
137 157 0
138 157 0
141 161 0
139 158 0
139 158 0
138 157 0
140 159 0
140 160 0
141 161 0
140 160 0
139 159 0
138 157 0
140 159 0
140 160 0
140 160 0
142 162 0
140 160 0
139 159 0
139 159 0
140 160 0
142 162 0
141 161 0
137 157 0
140 160 0
138 158 0
140 160 0
139 160 0
137 156 0
141 161 0
142 162 0
140 161 0
138 158 0
139 160 0
137 158 0
139 160 0
139 159 0
137 157 0
138 158 0
138 158 0
137 158 0
137 157 0
141 161 0
137 158 0
138 159 0
135 155 0
137 158 0
136 156 0
139 160 0
137 158 0
136 156 0
137 158 0
136 157 0
137 157 0
134 154 0
137 158 0
137 158 0
135 155 0
137 158 0
135 155 0
136 156 0
135 156 0
136 157 0
133 154 0
137 158 0
135 156 0
134 155 0
136 156 0
136 156 0
136 157 0
135 155 0
135 156 0
132 153 0
133 154 0
131 152 0
134 155 0
131 152 0
132 153 0
131 152 0
133 153 0
131 152 0
132 153 0
133 153 0
134 155 0
133 154 0
131 152 0
130 151 0
132 152 0
127 147 0
133 153 0
132 152 0
129 149 0
131 151 0
127 147 0
130 150 0
130 151 0
132 152 0
133 153 0
126 147 0
125 145 0
131 150 0
130 151 0
127 147 0
133 154 0
129 148 0
130 150 0
127 147 0
127 147 0
129 149 0
128 148 0
131 151 0
129 149 0
124 143 0
130 150 0
130 151 0
127 147 0
128 148 0
130 150 0
127 147 0
130 150 0
129 149 0
129 149 0
129 149 0
130 149 0
131 151 0
134 153 0
130 149 0
131 151 0
129 148 0
129 149 0
129 148 0
132 151 0
133 153 0
133 153 0
130 150 0
129 149 0
133 152 0
132 152 0
131 150 0
131 151 0
133 152 0
132 151 0
128 147 0
132 152 0
133 153 0
132 151 0
132 151 0
130 149 0
135 155 0
131 150 0
132 151 0
131 150 0
133 152 0
131 150 0
135 154 0
135 154 0
135 154 0
136 154 0
133 151 0
135 153 0
134 153 0
133 152 0
133 152 0
135 153 0
138 156 0
133 151 0
133 151 0
134 151 0
134 151 0
138 157 0
134 151 0
136 153 0
137 154 0
135 153 0
135 152 0
134 152 0
133 150 0
135 152 0
137 153 0
136 153 0
134 151 0
135 152 0
136 153 0
136 152 0
139 156 0
134 150 0
135 151 0
135 152 0
134 150 0
135 150 0
136 151 0
134 149 0
136 152 0
136 152 0
135 151 0
135 150 0
137 152 0
135 150 0
138 153 0
139 154 0
134 149 0
135 149 0
134 149 0
138 153 0
137 151 0
134 148 0
135 148 0
136 149 0
135 148 0
135 150 0
135 147 0
130 142 0
137 151 0
137 151 0
137 150 0
136 148 0
136 148 0
137 150 0
135 147 0
137 148 0
134 145 0
133 144 0
131 142 0
134 145 0
133 143 0
135 146 0
138 149 0
134 144 0
136 146 0
132 141 0
132 142 0
136 145 0
134 143 0
137 147 0
134 143 0
134 143 0
137 146 0
134 142 0
134 142 0
137 145 0
134 141 0
135 142 0
136 144 0
133 141 0
136 142 0
134 140 0
133 140 0
133 140 0
135 142 0
134 139 0
134 140 0
134 139 0
135 140 0
130 134 0
134 140 0
135 141 0
136 141 0
135 139 0
131 136 0
135 140 0
135 141 0
134 139 0
138 144 0
135 139 0
136 140 0
137 141 0
136 141 0
137 142 0
135 139 0
136 140 0
137 141 0
138 142 0
137 142 0
138 142 0
138 143 0
139 144 0
139 143 0
136 141 0
139 144 0
140 145 0
137 141 0
139 144 0
140 145 0
140 145 0
141 146 0
141 146 0
142 148 0
141 147 0
141 146 0
143 149 0
143 150 0
144 151 0
145 154 0
141 148 0
147 154 0
144 151 0
146 154 0
145 153 0
148 157 0
146 154 0
147 156 0
148 157 0
147 155 0
147 155 0
151 161 0
148 158 0
150 160 0
150 161 0
150 161 0
150 160 0
157 176 0
156 175 0
156 176 0
156 175 0
155 174 0
154 173 0
155 174 0
156 175 0
154 173 0
154 172 0
153 172 0
153 172 0
153 172 0
152 171 0
153 172 0
152 170 0
151 169 0
152 171 0
151 169 0
150 168 0
149 167 0
150 169 0
150 168 0
148 166 0
149 167 0
149 167 0
148 166 0
148 165 0
148 165 0
146 164 0
147 164 0
147 165 0
148 165 0
148 165 0
146 164 0
147 164 0
145 162 0
145 162 0
145 162 0
145 162 0
145 162 0
143 161 0
142 159 0
143 160 0
142 158 0
141 158 0
143 160 0
144 161 0
143 161 0
144 162 0
142 160 0
144 162 0
143 160 0
143 161 0
143 160 0
143 161 0
143 161 0
144 162 0
142 160 0
141 158 0
143 161 0
141 159 0
142 160 0
143 161 0
140 158 0
141 159 0
141 159 0
140 157 0
141 159 0
141 159 0
140 158 0
141 159 0
141 160 0
142 161 0
140 159 0
140 159 0
141 160 0
143 161 0
139 158 0
138 157 0
138 156 0
143 162 0
142 161 0
140 159 0
140 160 0
140 159 0
140 159 0
138 158 0
142 162 0
140 159 0
138 158 0
141 160 0
141 161 0
142 162 0
141 161 0
141 160 0
140 159 0
143 162 0
140 160 0
139 159 0
139 159 0
142 161 0
139 158 0
139 159 0
142 162 0
141 161 0
142 162 0
142 162 0
142 162 0
142 162 0
139 159 0
141 161 0
141 161 0
143 163 0
139 159 0
141 162 0
139 160 0
138 159 0
137 157 0
140 160 0
142 162 0
138 158 0
141 162 0
135 155 0
140 161 0
139 159 0
135 155 0
137 158 0
139 159 0
135 156 0
138 159 0
140 161 0
136 157 0
138 158 0
138 159 0
140 161 0
138 159 0
139 160 0
137 158 0
136 157 0
136 157 0
136 157 0
139 159 0
138 158 0
137 157 0
134 155 0
136 157 0
137 157 0
135 156 0
135 155 0
135 156 0
135 156 0
134 155 0
136 157 0
135 156 0
136 157 0
133 154 0
134 155 0
135 156 0
133 154 0
135 155 0
135 156 0
134 154 0
135 156 0
134 155 0
135 156 0
132 153 0
133 153 0
132 153 0
131 152 0
133 154 0
132 153 0
131 152 0
132 152 0
131 152 0
131 152 0
135 155 0
131 151 0
133 153 0
128 148 0
132 153 0
130 150 0
132 153 0
132 153 0
132 152 0
131 151 0
129 149 0
131 152 0
129 150 0
131 151 0
130 150 0
132 153 0
134 154 0
128 148 0
131 152 0
130 151 0
128 149 0
130 149 0
130 150 0
131 151 0
128 148 0
131 151 0
131 151 0
130 150 0
129 149 0
129 149 0
130 150 0
130 150 0
128 148 0
132 151 0
132 151 0
129 149 0
127 147 0
127 147 0
131 151 0
129 149 0
133 153 0
126 146 0
133 153 0
130 149 0
129 149 0
133 152 0
130 149 0
132 152 0
130 150 0
132 152 0
134 153 0
132 151 0
130 149 0
134 152 0
131 150 0
136 155 0
132 151 0
131 150 0
133 153 0
131 150 0
134 153 0
132 152 0
135 154 0
136 156 0
134 153 0
134 153 0
133 152 0
133 151 0
135 153 0
137 156 0
134 153 0
133 152 0
135 153 0
134 153 0
134 153 0
134 152 0
134 152 0
133 151 0
134 152 0
135 153 0
136 154 0
135 154 0
134 151 0
137 154 0
136 154 0
134 152 0
136 153 0
134 151 0
134 152 0
134 151 0
137 154 0
135 152 0
135 152 0
135 152 0
134 151 0
135 152 0
134 151 0
136 152 0
136 153 0
142 159 0
137 154 0
136 151 0
137 153 0
133 149 0
134 150 0
136 154 0
139 155 0
138 153 0
134 150 0
138 153 0
138 154 0
137 152 0
136 152 0
134 149 0
136 151 0
137 152 0
137 152 0
135 150 0
136 150 0
136 151 0
137 151 0
138 152 0
139 153 0
139 153 0
138 152 0
136 150 0
135 149 0
138 151 0
137 149 0
137 150 0
140 153 0
139 151 0
136 147 0
135 147 0
135 148 0
139 152 0
136 148 0
136 147 0
139 151 0
138 149 0
136 147 0
135 146 0
135 145 0
137 147 0
136 147 0
136 145 0
137 148 0
133 143 0
137 147 0
135 143 0
136 146 0
137 146 0
136 145 0
135 144 0
137 145 0
133 141 0
136 145 0
136 144 0
135 143 0
135 143 0
135 142 0
133 139 0
134 141 0
136 143 0
138 145 0
135 141 0
136 143 0
135 141 0
134 140 0
135 142 0
135 141 0
137 144 0
134 140 0
135 140 0
137 143 0
138 144 0
133 137 0
136 142 0
137 142 0
138 144 0
137 142 0
136 142 0
138 143 0
136 141 0
137 143 0
136 141 0
140 145 0
140 145 0
139 146 0
137 142 0
138 143 0
139 143 0
138 144 0
141 145 0
142 148 0
141 147 0
141 147 0
140 145 0
141 146 0
140 146 0
140 146 0
142 148 0
143 150 0
144 150 0
144 150 0
143 151 0
146 153 0
143 150 0
144 151 0
146 154 0
145 152 0
146 155 0
146 155 0
146 154 0
148 157 0
147 157 0
149 158 0
148 157 0
149 158 0
151 161 0
148 157 0
152 163 0
152 163 0
150 160 0
158 177 0
155 174 0
156 175 0
155 174 0
155 174 0
156 175 0
154 173 0
153 172 0
155 174 0
153 172 0
155 174 0
154 172 0
153 172 0
153 172 0
153 171 0
150 169 0
152 171 0
151 170 0
150 167 0
150 168 0
151 169 0
149 167 0
149 167 0
148 166 0
149 167 0
149 167 0
151 169 0
148 166 0
149 167 0
149 167 0
147 164 0
148 165 0
144 161 0
146 164 0
146 164 0
147 165 0
145 163 0
147 164 0
146 164 0
147 164 0
145 162 0
144 162 0
146 164 0
147 164 0
147 165 0
144 161 0
141 158 0
144 161 0
145 162 0
143 160 0
144 162 0
143 160 0
145 163 0
144 161 0
143 161 0
142 160 0
141 159 0
143 160 0
142 160 0
144 162 0
142 160 0
141 159 0
142 160 0
142 160 0
143 161 0
142 160 0
144 163 0
141 160 0
141 159 0
144 162 0
142 161 0
142 161 0
139 158 0
142 161 0
142 160 0
143 162 0
139 158 0
140 159 0
140 160 0
142 161 0
141 161 0
139 158 0
143 162 0
143 163 0
141 161 0
143 162 0
143 162 0
142 161 0
139 158 0
142 161 0
143 163 0
140 159 0
139 159 0
140 160 0
140 160 0
142 161 0
142 161 0
142 162 0
141 161 0
141 160 0
143 163 0
140 160 0
142 162 0
139 159 0
142 162 0
139 159 0
142 162 0
140 160 0
142 162 0
142 162 0
141 161 0
140 161 0
141 162 0
139 159 0
139 160 0
138 159 0
140 161 0
137 157 0
141 162 0
140 160 0
139 160 0
138 159 0
138 158 0
141 162 0
140 160 0
137 158 0
140 161 0
140 161 0
141 162 0
140 160 0
140 160 0
139 160 0
136 157 0
136 157 0
140 161 0
140 160 0
138 159 0
136 157 0
139 160 0
137 158 0
136 157 0
136 157 0
139 160 0
136 157 0
137 157 0
136 157 0
138 159 0
137 157 0
136 157 0
138 159 0
134 155 0
136 157 0
135 157 0
135 156 0
134 155 0
131 152 0
135 156 0
137 159 0
134 154 0
133 153 0
135 155 0
132 153 0
136 157 0
131 151 0
136 156 0
134 155 0
135 156 0
134 154 0
133 154 0
134 154 0
133 154 0
132 152 0
132 153 0
134 155 0
133 154 0
130 151 0
128 149 0
133 153 0
132 153 0
135 156 0
131 152 0
130 151 0
133 153 0
131 152 0
133 153 0
132 152 0
131 151 0
131 151 0
133 153 0
130 151 0
129 149 0
131 151 0
131 152 0
128 149 0
131 151 0
130 150 0
132 152 0
129 149 0
130 151 0
131 150 0
133 154 0
133 153 0
132 152 0
133 154 0
133 153 0
131 151 0
129 149 0
129 148 0
131 151 0
131 151 0
136 155 0
131 151 0
128 148 0
127 146 0
130 150 0
130 150 0
131 151 0
129 149 0
129 148 0
131 151 0
129 148 0
131 151 0
131 151 0
133 152 0
131 151 0
132 151 0
132 151 0
132 151 0
134 153 0
131 151 0
131 150 0
134 154 0
132 151 0
134 154 0
132 151 0
137 156 0
133 152 0
134 153 0
135 155 0
134 154 0
135 154 0
133 153 0
132 152 0
134 153 0
134 154 0
134 153 0
131 150 0
136 155 0
136 154 0
134 152 0
134 154 0
134 152 0
136 155 0
137 155 0
134 152 0
135 153 0
136 155 0
134 152 0
135 153 0
134 152 0
137 156 0
138 156 0
134 152 0
135 153 0
136 153 0
136 153 0
134 151 0
137 154 0
135 153 0
135 152 0
139 157 0
135 152 0
135 153 0
136 154 0
136 153 0
135 152 0
137 155 0
138 154 0
137 153 0
138 153 0
136 152 0
138 155 0
139 155 0
137 153 0
137 152 0
137 153 0
140 156 0
136 152 0
136 152 0
139 154 0
134 149 0
139 154 0
136 152 0
136 151 0
138 153 0
139 154 0
137 152 0
138 153 0
138 152 0
135 149 0
139 153 0
139 153 0
134 146 0
136 150 0
136 150 0
136 150 0
140 153 0
137 150 0
138 152 0
138 151 0
139 152 0
137 150 0
137 149 0
136 149 0
139 150 0
138 150 0
137 149 0
135 147 0
136 148 0
134 145 0
136 147 0
138 148 0
138 148 0
136 147 0
136 146 0
137 147 0
136 145 0
135 144 0
135 144 0
136 145 0
135 144 0
136 145 0
136 145 0
136 144 0
138 147 0
137 145 0
136 144 0
135 143 0
135 143 0
137 144 0
134 140 0
136 143 0
137 144 0
135 142 0
135 142 0
138 145 0
135 141 0
137 144 0
137 144 0
138 143 0
138 144 0
138 144 0
138 144 0
137 143 0
136 141 0
138 143 0
139 145 0
137 143 0
139 145 0
138 143 0
139 145 0
140 146 0
139 145 0
137 141 0
140 145 0
138 143 0
141 147 0
143 150 0
139 145 0
139 144 0
141 146 0
142 148 0
142 148 0
141 147 0
140 146 0
142 148 0
142 148 0
143 150 0
141 147 0
144 150 0
144 151 0
143 150 0
144 151 0
145 152 0
146 153 0
146 155 0
143 151 0
146 154 0
146 155 0
148 156 0
147 156 0
146 155 0
149 159 0
148 157 0
149 159 0
151 161 0
150 160 0
151 161 0
150 160 0
150 160 0
156 175 0
157 176 0
156 175 0
156 175 0
155 174 0
153 172 0
155 174 0
154 173 0
155 174 0
155 174 0
153 172 0
152 171 0
151 169 0
154 172 0
151 170 0
151 170 0
152 170 0
152 170 0
152 170 0
151 169 0
150 168 0
151 170 0
150 168 0
149 167 0
151 169 0
148 165 0
149 167 0
150 168 0
148 166 0
149 167 0
147 165 0
148 166 0
147 165 0
146 164 0
147 164 0
146 163 0
147 165 0
147 165 0
146 164 0
148 166 0
147 165 0
145 163 0
147 165 0
145 163 0
143 161 0
143 161 0
144 162 0
144 162 0
146 164 0
145 163 0
144 162 0
142 160 0
144 162 0
145 163 0
142 160 0
143 161 0
144 162 0
142 160 0
145 164 0
144 162 0
142 161 0
143 161 0
145 164 0
142 160 0
142 160 0
143 162 0
141 160 0
143 161 0
142 161 0
144 163 0
142 161 0
142 161 0
142 161 0
142 161 0
145 164 0
142 160 0
142 161 0
142 160 0
141 160 0
140 159 0
142 161 0
143 162 0
143 162 0
142 161 0
140 160 0
141 160 0
142 161 0
142 161 0
140 159 0
143 162 0
143 162 0
141 161 0
142 162 0
142 162 0
143 163 0
143 163 0
141 161 0
143 163 0
141 161 0
144 164 0
144 164 0
141 161 0
142 162 0
141 161 0
141 161 0
139 160 0
141 162 0
141 162 0
143 164 0
141 161 0
141 162 0
141 161 0
143 163 0
140 160 0
142 163 0
142 163 0
141 161 0
139 160 0
140 161 0
139 159 0
139 159 0
140 161 0
140 160 0
138 158 0
139 160 0
140 161 0
141 162 0
137 157 0
141 162 0
140 160 0
140 161 0
140 162 0
137 158 0
138 159 0
140 161 0
139 159 0
136 157 0
140 161 0
138 158 0
140 161 0
138 159 0
138 159 0
138 159 0
138 159 0
136 157 0
138 160 0
136 157 0
138 159 0
139 160 0
138 159 0
135 156 0
136 157 0
138 160 0
133 154 0
135 157 0
137 157 0
135 156 0
134 155 0
135 156 0
137 158 0
132 152 0
137 157 0
134 155 0
134 154 0
135 156 0
136 157 0
133 154 0
135 156 0
132 153 0
137 158 0
134 155 0
135 156 0
134 154 0
131 151 0
133 154 0
133 154 0
131 152 0
132 153 0
134 154 0
133 153 0
132 152 0
131 152 0
132 152 0
128 149 0
132 152 0
130 151 0
132 152 0
131 152 0
133 154 0
134 155 0
131 151 0
132 152 0
132 152 0
129 149 0
134 155 0
130 150 0
133 154 0
130 150 0
131 152 0
129 150 0
131 151 0
130 150 0
131 151 0
128 149 0
135 155 0
134 154 0
132 152 0
127 147 0
131 151 0
131 151 0
132 153 0
132 151 0
131 151 0
128 148 0
133 154 0
134 154 0
133 153 0
129 148 0
132 151 0
132 152 0
134 154 0
131 150 0
131 151 0
133 153 0
131 150 0
133 152 0
136 156 0
133 152 0
132 152 0
134 153 0
134 154 0
133 153 0
132 151 0
132 152 0
133 153 0
134 154 0
134 154 0
135 154 0
134 153 0
133 152 0
136 155 0
133 152 0
134 153 0
133 152 0
132 152 0
134 153 0
137 156 0
137 156 0
135 154 0
138 158 0
137 155 0
136 155 0
136 155 0
136 154 0
132 150 0
134 152 0
134 153 0
138 157 0
137 155 0
135 153 0
137 156 0
134 152 0
137 154 0
137 156 0
134 151 0
137 155 0
139 157 0
135 153 0
138 156 0
136 154 0
137 154 0
138 156 0
135 152 0
136 152 0
137 155 0
137 154 0
137 153 0
137 153 0
138 155 0
138 155 0
136 153 0
134 150 0
139 156 0
137 153 0
137 152 0
136 152 0
139 156 0
135 151 0
139 154 0
138 153 0
139 155 0
136 151 0
138 153 0
138 154 0
138 154 0
141 155 0
137 151 0
139 153 0
140 155 0
137 152 0
139 154 0
138 153 0
138 152 0
137 150 0
139 155 0
140 154 0
139 152 0
135 149 0
139 154 0
137 151 0
138 151 0
137 151 0
138 150 0
135 147 0
139 151 0
140 152 0
139 151 0
138 151 0
136 148 0
136 148 0
137 148 0
138 149 0
137 148 0
136 147 0
139 150 0
137 147 0
139 151 0
136 146 0
140 151 0
136 147 0
138 148 0
135 145 0
136 145 0
136 145 0
135 144 0
138 147 0
135 144 0
138 146 0
138 146 0
137 145 0
137 145 0
135 143 0
138 146 0
139 147 0
136 142 0
138 145 0
139 146 0
136 142 0
138 145 0
134 140 0
134 141 0
139 146 0
136 143 0
139 145 0
138 144 0
139 145 0
137 143 0
139 144 0
138 144 0
139 145 0
138 144 0
140 147 0
139 145 0
139 145 0
139 145 0
139 145 0
141 148 0
141 147 0
142 148 0
140 145 0
138 143 0
140 148 0
143 150 0
142 149 0
143 149 0
143 149 0
145 152 0
144 152 0
144 151 0
144 152 0
144 151 0
144 151 0
144 152 0
144 151 0
145 153 0
145 152 0
145 154 0
146 153 0
144 151 0
147 155 0
147 156 0
148 157 0
147 155 0
148 158 0
147 157 0
148 159 0
149 159 0
151 160 0
149 159 0
151 161 0
156 176 0
156 175 0
156 175 0
155 173 0
156 175 0
155 174 0
155 173 0
154 173 0
153 171 0
153 172 0
152 170 0
153 171 0
150 169 0
153 172 0
152 170 0
150 168 0
151 169 0
150 169 0
151 169 0
152 170 0
150 169 0
149 168 0
149 167 0
151 169 0
150 168 0
149 167 0
148 167 0
148 167 0
147 165 0
148 166 0
148 166 0
147 165 0
147 165 0
147 165 0
147 165 0
146 164 0
147 165 0
146 164 0
144 162 0
147 166 0
147 165 0
145 163 0
145 163 0
145 163 0
146 164 0
147 165 0
144 162 0
145 163 0
144 162 0
144 162 0
146 165 0
146 164 0
145 163 0
147 165 0
146 164 0
143 161 0
146 165 0
147 166 0
143 161 0
143 161 0
141 160 0
145 164 0
144 162 0
143 162 0
142 161 0
142 160 0
143 162 0
142 160 0
143 162 0
146 165 0
143 162 0
142 161 0
143 162 0
141 161 0
144 164 0
144 163 0
142 161 0
142 161 0
143 162 0
140 159 0
143 162 0
144 164 0
140 159 0
141 160 0
142 162 0
143 163 0
141 161 0
142 161 0
142 162 0
143 163 0
141 161 0
144 164 0
144 164 0
140 160 0
141 161 0
141 161 0
139 159 0
144 164 0
144 164 0
143 163 0
145 165 0
144 164 0
140 160 0
141 162 0
142 162 0
143 164 0
140 161 0
142 163 0
142 163 0
141 162 0
142 163 0
142 163 0
140 161 0
138 158 0
142 162 0
141 161 0
139 160 0
138 159 0
140 161 0
141 162 0
140 160 0
139 160 0
143 165 0
142 163 0
140 161 0
138 159 0
139 160 0
139 159 0
138 159 0
138 159 0
139 160 0
141 162 0
139 160 0
137 158 0
139 160 0
139 160 0
139 160 0
135 156 0
139 160 0
137 158 0
139 160 0
137 158 0
137 158 0
138 159 0
137 157 0
137 158 0
138 160 0
136 157 0
135 156 0
136 158 0
138 159 0
138 159 0
136 157 0
133 154 0
135 156 0
138 159 0
134 154 0
137 157 0
137 159 0
135 156 0
135 155 0
134 155 0
134 155 0
136 157 0
134 155 0
138 159 0
133 154 0
135 156 0
137 158 0
137 157 0
136 157 0
135 156 0
135 155 0
133 154 0
135 156 0
133 154 0
133 154 0
132 153 0
134 155 0
132 153 0
134 155 0
136 157 0
133 154 0
134 155 0
134 154 0
130 150 0
131 152 0
132 152 0
131 151 0
132 152 0
134 154 0
131 152 0
134 154 0
131 151 0
131 151 0
133 153 0
133 153 0
128 148 0
131 150 0
132 152 0
130 150 0
132 153 0
133 153 0
132 153 0
133 154 0
133 153 0
132 152 0
132 152 0
132 152 0
133 153 0
135 155 0
130 150 0
132 152 0
132 152 0
133 153 0
132 153 0
132 152 0
132 151 0
133 153 0
133 153 0
131 150 0
131 150 0
133 153 0
132 152 0
134 154 0
131 151 0
133 152 0
133 153 0
133 153 0
133 153 0
138 157 0
133 152 0
135 155 0
132 151 0
131 151 0
134 153 0
135 155 0
133 153 0
133 152 0
137 156 0
137 156 0
133 152 0
134 154 0
135 154 0
132 151 0
135 155 0
135 154 0
134 153 0
133 152 0
139 158 0
139 158 0
135 154 0
136 154 0
135 154 0
136 155 0
138 157 0
137 155 0
137 155 0
138 157 0
138 156 0
135 154 0
136 155 0
138 156 0
138 156 0
138 156 0
138 156 0
139 157 0
135 153 0
137 155 0
135 152 0
136 154 0
137 153 0
138 155 0
137 153 0
136 154 0
139 156 0
137 154 0
135 152 0
138 155 0
136 154 0
135 152 0
139 156 0
141 157 0
138 155 0
140 157 0
138 154 0
136 153 0
138 154 0
139 155 0
138 153 0
138 152 0
139 155 0
138 153 0
140 156 0
139 154 0
139 155 0
140 155 0
138 153 0
137 151 0
139 153 0
141 157 0
139 154 0
136 150 0
138 153 0
137 151 0
137 151 0
139 154 0
138 152 0
138 153 0
140 153 0
137 151 0
139 152 0
138 151 0
138 151 0
139 151 0
138 151 0
137 150 0
136 149 0
139 152 0
137 150 0
137 149 0
139 150 0
136 148 0
138 149 0
137 148 0
139 151 0
137 147 0
138 149 0
136 146 0
135 146 0
138 149 0
140 151 0
137 148 0
135 144 0
136 146 0
134 143 0
141 152 0
137 146 0
138 148 0
138 148 0
139 149 0
138 146 0
137 146 0
138 146 0
140 150 0
140 148 0
139 148 0
135 142 0
140 148 0
137 145 0
139 147 0
137 144 0
138 145 0
138 146 0
136 143 0
139 146 0
138 145 0
141 148 0
140 147 0
140 147 0
139 146 0
140 148 0
141 147 0
141 148 0
138 145 0
141 148 0
141 148 0
140 146 0
142 148 0
143 149 0
143 149 0
141 149 0
140 146 0
142 149 0
143 149 0
143 149 0
141 147 0
141 149 0
142 148 0
142 150 0
143 150 0
144 151 0
144 152 0
145 152 0
145 152 0
144 151 0
146 155 0
147 155 0
145 152 0
148 157 0
147 156 0
146 154 0
146 154 0
148 156 0
147 157 0
147 157 0
150 160 0
150 161 0
149 159 0
149 158 0
156 175 0
157 176 0
155 174 0
154 174 0
155 175 0
155 174 0
154 173 0
154 173 0
155 173 0
153 172 0
152 171 0
152 171 0
152 171 0
151 170 0
153 172 0
151 170 0
151 169 0
152 171 0
152 170 0
150 168 0
149 168 0
151 169 0
150 168 0
150 168 0
148 167 0
147 165 0
149 167 0
148 166 0
149 167 0
148 166 0
149 167 0
147 165 0
147 166 0
147 165 0
148 167 0
148 166 0
147 165 0
147 166 0
147 165 0
146 164 0
143 161 0
146 164 0
147 165 0
145 164 0
146 164 0
144 162 0
146 165 0
145 164 0
149 167 0
144 162 0
146 165 0
144 163 0
145 163 0
146 165 0
144 163 0
144 163 0
145 163 0
144 162 0
144 162 0
145 164 0
144 162 0
144 163 0
145 164 0
143 162 0
142 161 0
141 160 0
143 162 0
144 163 0
147 166 0
144 163 0
144 163 0
143 162 0
144 163 0
142 162 0
144 164 0
143 162 0
142 161 0
145 164 0
141 160 0
142 162 0
144 164 0
142 162 0
144 163 0
143 163 0
144 164 0
143 163 0
142 162 0
144 164 0
143 163 0
144 164 0
145 165 0
143 163 0
144 164 0
144 164 0
143 163 0
144 164 0
142 163 0
141 161 0
145 165 0
142 163 0
143 163 0
144 165 0
143 163 0
142 162 0
143 164 0
141 162 0
142 162 0
140 161 0
143 163 0
142 163 0
143 164 0
144 164 0
141 162 0
143 164 0
141 161 0
144 164 0
138 159 0
140 161 0
142 163 0
142 162 0
141 162 0
143 164 0
140 161 0
138 159 0
140 161 0
140 161 0
141 162 0
143 164 0
140 161 0
140 161 0
139 160 0
141 162 0
139 160 0
138 159 0
140 161 0
141 162 0
138 159 0
138 160 0
138 159 0
135 157 0
138 159 0
138 158 0
140 161 0
137 158 0
139 160 0
136 157 0
138 158 0
138 159 0
137 158 0
139 160 0
138 159 0
138 159 0
139 160 0
139 160 0
138 159 0
139 160 0
138 159 0
136 156 0
136 158 0
136 158 0
138 159 0
137 158 0
136 157 0
138 159 0
134 154 0
136 157 0
134 155 0
135 156 0
134 155 0
132 153 0
133 154 0
135 156 0
133 154 0
135 156 0
134 155 0
135 156 0
132 153 0
134 155 0
133 154 0
133 154 0
134 155 0
136 157 0
132 152 0
131 152 0
131 151 0
134 155 0
136 156 0
133 154 0
132 153 0
133 154 0
133 154 0
130 151 0
134 154 0
131 151 0
135 155 0
132 152 0
131 151 0
133 153 0
131 151 0
132 153 0
133 153 0
132 153 0
134 154 0
130 150 0
132 152 0
132 152 0
132 152 0
133 153 0
131 151 0
133 153 0
132 152 0
132 152 0
134 154 0
131 151 0
133 152 0
132 152 0
135 155 0
134 154 0
134 154 0
132 152 0
130 150 0
133 153 0
130 150 0
132 151 0
132 152 0
135 155 0
138 157 0
136 157 0
132 152 0
133 152 0
134 154 0
131 150 0
136 156 0
135 154 0
134 154 0
136 155 0
133 152 0
135 154 0
136 155 0
135 155 0
136 155 0
137 156 0
135 155 0
136 156 0
137 156 0
138 157 0
136 155 0
137 156 0
134 152 0
136 155 0
136 155 0
134 152 0
138 157 0
138 157 0
139 158 0
137 156 0
140 159 0
138 157 0
137 155 0
138 157 0
136 155 0
136 154 0
135 153 0
138 156 0
137 155 0
140 159 0
137 155 0
136 154 0
137 154 0
139 157 0
139 157 0
138 156 0
139 158 0
140 158 0
138 156 0
138 156 0
139 156 0
138 155 0
137 154 0
138 155 0
136 154 0
141 157 0
138 154 0
139 157 0
136 152 0
140 157 0
135 152 0
140 157 0
140 157 0
139 155 0
137 153 0
137 154 0
139 156 0
138 153 0
139 154 0
140 156 0
140 156 0
138 153 0
141 156 0
137 152 0
140 154 0
141 157 0
139 154 0
139 154 0
143 158 0
140 154 0
140 154 0
139 153 0
138 153 0
138 152 0
138 152 0
139 153 0
137 152 0
141 156 0
138 150 0
140 154 0
138 151 0
139 152 0
136 149 0
139 152 0
139 152 0
138 150 0
141 153 0
139 152 0
139 151 0
139 151 0
137 148 0
137 148 0
137 148 0
139 149 0
139 149 0
137 148 0
135 146 0
139 150 0
139 150 0
137 146 0
138 148 0
139 150 0
139 149 0
139 150 0
140 149 0
140 149 0
140 150 0
141 150 0
139 148 0
142 151 0
137 146 0
140 150 0
139 148 0
140 148 0
141 150 0
139 146 0
140 148 0
138 146 0
139 147 0
138 146 0
140 147 0
138 146 0
140 147 0
139 146 0
140 148 0
140 147 0
140 147 0
139 147 0
141 147 0
139 146 0
143 149 0
141 148 0
143 151 0
145 152 0
141 148 0
141 148 0
140 147 0
144 151 0
142 150 0
142 150 0
143 150 0
145 153 0
146 154 0
144 151 0
145 153 0
144 152 0
146 154 0
146 154 0
144 153 0
146 155 0
146 154 0
147 156 0
146 155 0
145 154 0
149 157 0
148 157 0
146 154 0
150 160 0
148 157 0
150 159 0
149 158 0
148 158 0
146 155 0
149 160 0
156 175 0
155 174 0
156 175 0
153 172 0
154 173 0
155 174 0
155 174 0
154 173 0
152 171 0
153 172 0
153 172 0
152 171 0
152 171 0
152 171 0
151 170 0
152 171 0
151 170 0
150 168 0
149 167 0
151 170 0
150 169 0
150 169 0
151 170 0
151 170 0
150 168 0
151 170 0
149 168 0
147 166 0
150 168 0
149 167 0
150 169 0
147 166 0
148 167 0
147 166 0
146 165 0
146 165 0
146 165 0
147 165 0
147 165 0
146 164 0
146 164 0
146 165 0
145 164 0
146 164 0
146 164 0
146 164 0
146 164 0
146 164 0
143 161 0
143 162 0
145 164 0
147 165 0
146 164 0
147 165 0
146 165 0
146 165 0
146 165 0
146 165 0
145 164 0
145 163 0
145 164 0
147 166 0
145 164 0
144 164 0
143 162 0
144 163 0
146 166 0
142 161 0
144 163 0
146 165 0
144 164 0
144 163 0
145 164 0
144 164 0
145 164 0
147 166 0
142 162 0
144 164 0
143 163 0
142 161 0
143 162 0
142 162 0
144 164 0
144 164 0
142 162 0
144 164 0
142 162 0
144 164 0
145 165 0
144 164 0
143 163 0
144 164 0
144 164 0
143 163 0
142 162 0
146 166 0
144 165 0
145 166 0
144 164 0
143 164 0
145 165 0
142 163 0
144 165 0
144 165 0
144 164 0
141 162 0
142 163 0
143 163 0
143 163 0
145 165 0
144 165 0
144 165 0
140 161 0
143 164 0
143 163 0
142 163 0
143 164 0
143 163 0
142 163 0
142 163 0
139 159 0
144 165 0
141 162 0
142 163 0
141 162 0
137 158 0
141 162 0
142 163 0
139 160 0
143 164 0
140 162 0
139 160 0
139 160 0
140 161 0
138 159 0
139 160 0
139 160 0
141 162 0
141 163 0
140 161 0
139 161 0
141 162 0
138 159 0
136 157 0
138 159 0
138 159 0
140 161 0
139 161 0
139 160 0
138 159 0
138 159 0
139 160 0
137 159 0
139 160 0
138 159 0
137 159 0
139 160 0
135 157 0
137 158 0
138 159 0
136 157 0
138 159 0
137 158 0
136 157 0
138 159 0
137 159 0
135 156 0
137 157 0
137 158 0
138 159 0
136 157 0
135 156 0
136 157 0
134 155 0
136 156 0
136 156 0
137 158 0
133 153 0
136 157 0
134 155 0
136 156 0
133 154 0
135 155 0
135 156 0
133 154 0
135 156 0
131 152 0
134 155 0
133 154 0
137 158 0
130 150 0
133 153 0
134 154 0
132 153 0
133 154 0
132 152 0
135 155 0
133 153 0
133 153 0
132 153 0
133 153 0
133 153 0
133 153 0
134 155 0
135 155 0
130 151 0
132 153 0
133 153 0
134 154 0
135 156 0
135 156 0
132 153 0
131 151 0
133 153 0
135 156 0
134 154 0
133 153 0
133 153 0
133 153 0
134 153 0
133 152 0
136 156 0
134 154 0
134 154 0
135 155 0
134 154 0
135 155 0
135 155 0
138 158 0
135 155 0
134 154 0
136 155 0
137 157 0
134 154 0
137 156 0
136 156 0
138 158 0
134 154 0
135 154 0
134 153 0
139 159 0
135 154 0
139 158 0
135 154 0
137 156 0
135 154 0
135 154 0
140 159 0
137 156 0
136 154 0
135 154 0
140 159 0
141 160 0
139 158 0
137 156 0
138 157 0
138 157 0
138 157 0
136 154 0
136 155 0
138 156 0
137 156 0
141 159 0
139 157 0
138 156 0
136 154 0
137 156 0
139 157 0
139 158 0
141 159 0
138 156 0
135 153 0
140 158 0
139 157 0
139 156 0
138 155 0
138 156 0
140 159 0
138 155 0
137 155 0
138 156 0
138 155 0
139 156 0
138 155 0
136 153 0
139 156 0
138 154 0
141 158 0
139 156 0
140 156 0
142 159 0
139 155 0
138 154 0
139 155 0
141 157 0
140 156 0
141 157 0
138 154 0
139 154 0
139 155 0
139 154 0
142 157 0
141 156 0
142 158 0
136 151 0
139 153 0
142 156 0
138 152 0
140 155 0
140 153 0
140 155 0
137 151 0
139 153 0
139 153 0
139 154 0
140 155 0
139 153 0
138 152 0
139 153 0
139 151 0
138 151 0
138 151 0
142 155 0
140 153 0
140 153 0
139 151 0
139 151 0
139 151 0
140 153 0
141 153 0
141 153 0
137 149 0
140 151 0
137 148 0
142 153 0
139 150 0
139 149 0
140 150 0
140 150 0
138 148 0
141 151 0
141 151 0
138 149 0
138 148 0
139 149 0
138 147 0
140 150 0
139 148 0
139 148 0
138 147 0
141 150 0
140 149 0
139 148 0
141 150 0
138 146 0
142 151 0
139 146 0
139 147 0
139 147 0
140 148 0
141 149 0
139 146 0
142 149 0
141 149 0
142 150 0
142 149 0
141 148 0
143 152 0
141 149 0
143 150 0
144 152 0
141 149 0
142 150 0
143 150 0
142 150 0
144 152 0
143 151 0
143 151 0
144 152 0
145 152 0
143 151 0
145 153 0
145 153 0
145 153 0
144 151 0
145 154 0
143 151 0
147 157 0
147 155 0
146 154 0
147 157 0
146 155 0
148 157 0
148 158 0
147 157 0
149 159 0
147 156 0
150 160 0
149 158 0
149 159 0
156 175 0
156 176 0
156 175 0
153 172 0
154 173 0
153 172 0
152 172 0
152 171 0
153 172 0
153 172 0
153 173 0
153 173 0
152 171 0
154 174 0
153 171 0
152 171 0
152 171 0
150 169 0
150 169 0
150 169 0
151 170 0
149 167 0
149 167 0
149 167 0
149 168 0
150 169 0
148 167 0
148 166 0
148 167 0
149 167 0
148 167 0
147 165 0
149 168 0
148 167 0
146 164 0
146 165 0
148 166 0
148 166 0
147 166 0
147 166 0
145 163 0
147 165 0
145 164 0
147 166 0
146 165 0
144 163 0
146 164 0
144 163 0
147 167 0
147 165 0
147 166 0
142 161 0
147 166 0
145 163 0
147 166 0
144 162 0
144 163 0
145 164 0
145 164 0
147 166 0
145 164 0
145 164 0
145 165 0
144 163 0
144 163 0
145 165 0
144 164 0
144 163 0
147 167 0
143 163 0
144 163 0
143 163 0
144 164 0
145 164 0
144 163 0
143 162 0
143 163 0
144 164 0
144 164 0
144 164 0
143 163 0
142 161 0
144 164 0
144 164 0
143 163 0
142 163 0
144 164 0
143 163 0
142 162 0
144 165 0
145 165 0
141 162 0
143 164 0
145 166 0
144 165 0
142 162 0
143 164 0
143 163 0
144 164 0
144 164 0
143 164 0
142 162 0
142 163 0
146 166 0
142 163 0
142 162 0
142 163 0
142 163 0
143 164 0
144 164 0
144 164 0
142 163 0
145 165 0
143 164 0
142 163 0
141 162 0
142 162 0
142 163 0
142 163 0
140 161 0
143 164 0
140 160 0
143 165 0
141 162 0
140 161 0
143 164 0
140 161 0
143 164 0
140 161 0
142 163 0
141 162 0
142 163 0
141 162 0
142 164 0
141 163 0
139 160 0
142 163 0
140 161 0
139 160 0
142 163 0
140 162 0
141 162 0
140 162 0
141 163 0
137 158 0
139 161 0
139 160 0
137 158 0
140 161 0
137 157 0
138 159 0
138 159 0
140 161 0
137 158 0
139 160 0
139 161 0
137 158 0
139 161 0
137 159 0
136 157 0
138 159 0
138 159 0
136 157 0
137 158 0
137 159 0
135 156 0
136 157 0
137 158 0
135 156 0
136 157 0
135 156 0
138 159 0
135 157 0
138 160 0
137 158 0
136 157 0
132 152 0
136 157 0
132 153 0
138 159 0
133 153 0
135 156 0
132 152 0
134 155 0
135 155 0
135 156 0
133 154 0
136 156 0
134 154 0
133 154 0
135 156 0
134 155 0
133 153 0
136 157 0
131 151 0
133 154 0
136 156 0
135 155 0
135 155 0
134 155 0
135 155 0
134 154 0
131 152 0
130 150 0
130 150 0
133 153 0
132 152 0
133 153 0
133 153 0
130 150 0
134 155 0
134 154 0
136 157 0
133 153 0
133 153 0
139 160 0
133 154 0
135 155 0
135 155 0
134 154 0
138 158 0
136 156 0
135 155 0
134 154 0
134 154 0
136 156 0
136 156 0
134 153 0
138 157 0
135 155 0
136 156 0
138 158 0
134 153 0
136 156 0
138 158 0
138 158 0
138 157 0
136 155 0
135 154 0
139 160 0
136 156 0
139 158 0
137 157 0
139 159 0
140 159 0
136 155 0
137 156 0
138 157 0
139 158 0
138 157 0
138 157 0
136 155 0
139 158 0
138 157 0
138 157 0
137 157 0
139 158 0
135 154 0
137 157 0
138 156 0
137 155 0
139 157 0
140 158 0
140 159 0
138 157 0
141 159 0
142 161 0
139 157 0
139 157 0
138 155 0
140 158 0
139 158 0
139 156 0
139 158 0
137 155 0
138 155 0
140 158 0
137 155 0
139 157 0
139 156 0
137 155 0
141 158 0
140 157 0
138 154 0
141 159 0
139 156 0
142 159 0
139 156 0
140 156 0
140 156 0
139 156 0
140 156 0
141 158 0
140 156 0
139 154 0
140 157 0
139 156 0
140 156 0
139 154 0
139 154 0
140 156 0
138 153 0
141 157 0
140 155 0
141 156 0
139 154 0
139 153 0
140 155 0
141 157 0
141 157 0
138 152 0
141 156 0
141 156 0
140 153 0
141 154 0
142 156 0
140 153 0
140 155 0
140 153 0
142 157 0
140 153 0
141 154 0
137 149 0
140 154 0
139 150 0
140 153 0
140 152 0
139 150 0
143 155 0
140 152 0
140 152 0
139 151 0
140 152 0
139 151 0
141 152 0
137 148 0
142 153 0
141 152 0
141 153 0
143 154 0
140 151 0
139 150 0
142 154 0
138 149 0
139 150 0
141 151 0
140 151 0
138 148 0
139 149 0
141 150 0
140 149 0
142 152 0
140 148 0
141 150 0
142 151 0
141 150 0
142 151 0
141 149 0
142 151 0
143 152 0
140 148 0
144 152 0
141 149 0
141 150 0
143 152 0
140 149 0
144 152 0
144 152 0
144 152 0
144 152 0
143 150 0
143 151 0
144 153 0
143 153 0
143 151 0
142 150 0
143 151 0
144 153 0
143 151 0
144 154 0
146 154 0
145 153 0
145 153 0
144 153 0
149 157 0
147 156 0
145 155 0
149 159 0
146 154 0
147 157 0
147 156 0
145 155 0
147 157 0
146 156 0
149 159 0
148 158 0
148 158 0
149 159 0
152 162 0
147 158 0
154 173 0
155 174 0
153 172 0
154 173 0
152 171 0
154 173 0
154 174 0
153 172 0
153 172 0
153 173 0
152 171 0
153 172 0
151 170 0
152 171 0
152 171 0
150 169 0
150 169 0
151 170 0
150 169 0
151 169 0
149 168 0
150 168 0
148 167 0
148 167 0
149 168 0
150 169 0
149 168 0
150 169 0
149 168 0
148 167 0
148 166 0
148 167 0
147 166 0
149 168 0
150 169 0
148 167 0
145 164 0
148 167 0
148 167 0
145 164 0
148 166 0
149 168 0
146 164 0
146 164 0
146 165 0
144 163 0
147 166 0
148 167 0
147 166 0
149 169 0
146 166 0
147 166 0
146 165 0
145 164 0
145 164 0
147 166 0
145 164 0
145 163 0
146 166 0
145 165 0
145 164 0
146 165 0
146 166 0
145 165 0
143 162 0
143 163 0
145 165 0
145 165 0
143 163 0
143 163 0
145 165 0
143 162 0
144 164 0
144 163 0
144 164 0
145 165 0
146 166 0
145 165 0
145 165 0
144 164 0
145 166 0
144 164 0
147 167 0
146 167 0
144 164 0
145 165 0
143 164 0
143 164 0
144 164 0
146 167 0
144 164 0
146 166 0
145 165 0
143 163 0
142 163 0
143 164 0
144 164 0
145 166 0
145 165 0
143 163 0
145 166 0
142 163 0
145 166 0
144 165 0
141 161 0
142 163 0
143 163 0
145 166 0
143 163 0
143 163 0
144 165 0
144 165 0
146 166 0
142 163 0
142 163 0
143 164 0
142 163 0
143 164 0
142 163 0
143 164 0
142 163 0
141 162 0
142 163 0
142 163 0
140 162 0
141 162 0
139 160 0
144 165 0
142 163 0
141 163 0
139 160 0
140 161 0
141 162 0
141 162 0
141 162 0
141 163 0
139 160 0
141 163 0
140 162 0
140 162 0
138 160 0
142 163 0
137 159 0
138 159 0
135 156 0
139 160 0
141 162 0
138 159 0
138 160 0
137 159 0
140 161 0
135 156 0
139 160 0
140 161 0
137 159 0
139 160 0
138 159 0
137 158 0
141 162 0
138 159 0
138 158 0
138 159 0
140 162 0
140 162 0
138 159 0
139 160 0
138 159 0
137 158 0
137 158 0
134 155 0
137 158 0
137 159 0
137 158 0
139 160 0
136 157 0
137 158 0
136 157 0
135 156 0
136 157 0
136 156 0
136 157 0
134 155 0
135 156 0
134 154 0
134 155 0
136 157 0
135 156 0
132 153 0
131 152 0
132 152 0
135 155 0
135 156 0
132 153 0
136 157 0
134 155 0
134 154 0
135 155 0
136 157 0
132 153 0
132 153 0
131 152 0
134 155 0
135 156 0
137 158 0
134 155 0
136 156 0
136 156 0
135 155 0
133 153 0
135 155 0
135 156 0
134 154 0
135 156 0
137 158 0
137 157 0
137 157 0
136 156 0
134 154 0
135 155 0
133 153 0
137 157 0
136 156 0
134 154 0
136 156 0
137 157 0
135 155 0
134 154 0
139 159 0
137 157 0
137 157 0
136 156 0
137 157 0
134 154 0
135 155 0
135 155 0
138 158 0
138 158 0
137 157 0
137 156 0
137 157 0
139 159 0
137 157 0
138 158 0
137 157 0
134 154 0
138 158 0
138 158 0
137 156 0
138 158 0
139 159 0
136 154 0
140 160 0
138 158 0
136 155 0
137 157 0
138 157 0
138 157 0
137 156 0
140 158 0
139 157 0
139 159 0
136 154 0
139 158 0
138 157 0
139 158 0
139 157 0
138 156 0
141 159 0
136 155 0
139 157 0
137 155 0
141 159 0
139 157 0
138 156 0
140 158 0
141 159 0
138 155 0
143 161 0
137 154 0
140 158 0
139 157 0
138 155 0
140 157 0
139 156 0
139 156 0
139 157 0
140 157 0
140 156 0
138 156 0
141 158 0
140 156 0
139 155 0
143 159 0
142 159 0
140 157 0
141 157 0
142 158 0
141 157 0
139 155 0
141 157 0
138 154 0
140 156 0
140 155 0
141 156 0
143 159 0
139 155 0
142 157 0
139 155 0
139 154 0
143 159 0
138 153 0
141 156 0
140 155 0
141 155 0
141 156 0
141 155 0
141 155 0
138 153 0
142 156 0
139 152 0
139 153 0
140 154 0
139 153 0
141 154 0
142 155 0
139 153 0
141 154 0
140 153 0
140 152 0
142 154 0
140 152 0
143 156 0
140 152 0
142 155 0
140 151 0
142 154 0
138 149 0
142 154 0
141 153 0
142 154 0
140 152 0
140 151 0
141 153 0
140 151 0
139 149 0
141 151 0
141 151 0
143 153 0
143 154 0
142 152 0
143 154 0
139 149 0
140 149 0
141 152 0
141 150 0
142 152 0
142 151 0
142 151 0
142 150 0
143 152 0
141 150 0
142 152 0
143 153 0
140 149 0
144 153 0
144 153 0
142 151 0
142 152 0
141 149 0
140 149 0
144 153 0
142 150 0
143 152 0
144 153 0
145 154 0
145 154 0
142 150 0
145 153 0
145 152 0
145 155 0
145 154 0
143 152 0
147 155 0
144 153 0
146 155 0
146 155 0
147 156 0
147 156 0
147 156 0
148 158 0
148 157 0
149 159 0
148 157 0
149 160 0
146 156 0
148 158 0
149 159 0
148 159 0
149 159 0
149 159 0
156 175 0
155 174 0
154 173 0
153 173 0
153 172 0
154 173 0
153 173 0
154 173 0
154 174 0
151 170 0
153 173 0
152 171 0
152 171 0
150 169 0
152 171 0
150 169 0
153 172 0
151 170 0
152 171 0
151 169 0
150 168 0
152 171 0
149 168 0
151 170 0
150 169 0
150 168 0
150 168 0
149 167 0
149 167 0
148 167 0
147 166 0
149 168 0
149 168 0
148 168 0
148 167 0
147 165 0
148 167 0
148 167 0
147 165 0
146 165 0
146 164 0
148 167 0
148 167 0
147 166 0
148 167 0
146 165 0
147 166 0
145 164 0
148 167 0
146 166 0
147 167 0
147 166 0
147 166 0
148 168 0
145 164 0
146 165 0
147 167 0
147 167 0
145 164 0
146 166 0
146 165 0
145 165 0
145 165 0
145 165 0
145 165 0
145 165 0
148 168 0
145 165 0
145 165 0
146 166 0
145 164 0
143 163 0
145 165 0
145 165 0
146 166 0
147 167 0
144 164 0
147 167 0
144 165 0
146 166 0
144 164 0
143 163 0
146 166 0
145 165 0
144 164 0
146 166 0
143 163 0
145 165 0
144 165 0
145 165 0
144 165 0
145 166 0
144 165 0
144 164 0
144 164 0
147 168 0
145 166 0
146 167 0
142 163 0
145 166 0
145 166 0
144 164 0
145 167 0
143 164 0
145 165 0
145 165 0
144 165 0
143 164 0
141 162 0
144 165 0
146 167 0
144 165 0
145 165 0
143 163 0
145 166 0
141 162 0
143 164 0
143 165 0
141 162 0
142 162 0
141 163 0
142 163 0
142 163 0
142 163 0
144 165 0
144 165 0
141 162 0
141 162 0
140 161 0
141 163 0
139 161 0
143 164 0
141 163 0
138 159 0
142 163 0
140 161 0
140 161 0
139 160 0
140 161 0
141 162 0
139 160 0
140 161 0
143 165 0
138 159 0
142 163 0
140 162 0
142 163 0
142 163 0
141 162 0
139 161 0
142 163 0
139 160 0
139 160 0
138 159 0
138 159 0
139 161 0
139 160 0
140 162 0
139 160 0
136 157 0
137 159 0
138 159 0
140 161 0
139 161 0
138 159 0
139 160 0
138 158 0
135 156 0
137 158 0
137 158 0
135 156 0
135 156 0
140 161 0
137 158 0
138 159 0
136 157 0
137 157 0
136 157 0
136 156 0
138 159 0
137 158 0
137 158 0
137 158 0
136 158 0
138 159 0
134 154 0
138 158 0
133 154 0
136 157 0
132 153 0
138 160 0
134 156 0
137 158 0
136 157 0
135 156 0
132 152 0
135 156 0
135 155 0
134 154 0
134 154 0
136 157 0
135 156 0
136 157 0
138 159 0
137 157 0
136 157 0
135 155 0
135 155 0
134 154 0
137 157 0
133 153 0
133 153 0
136 157 0
136 156 0
133 154 0
137 157 0
135 156 0
135 155 0
134 154 0
136 156 0
135 155 0
131 151 0
136 157 0
134 154 0
135 155 0
135 155 0
136 157 0
134 155 0
137 158 0
135 155 0
139 159 0
137 157 0
136 156 0
137 157 0
137 157 0
137 157 0
139 159 0
136 156 0
138 159 0
136 156 0
139 159 0
138 158 0
135 154 0
138 158 0
136 156 0
139 158 0
138 158 0
136 156 0
137 156 0
137 156 0
138 157 0
137 156 0
137 156 0
137 156 0
138 158 0
136 155 0
139 158 0
139 158 0
139 158 0
140 159 0
138 157 0
141 160 0
140 159 0
140 158 0
141 160 0
140 159 0
139 158 0
140 159 0
141 159 0
140 158 0
137 155 0
140 158 0
140 158 0
141 160 0
141 159 0
142 160 0
141 159 0
142 160 0
141 158 0
140 159 0
138 156 0
141 158 0
139 156 0
141 159 0
138 155 0
141 158 0
140 157 0
140 157 0
139 155 0
144 161 0
140 156 0
141 159 0
139 156 0
141 157 0
143 160 0
141 158 0
142 159 0
140 156 0
141 157 0
139 155 0
139 154 0
141 158 0
142 158 0
139 155 0
141 156 0
142 160 0
142 158 0
142 158 0
140 154 0
143 158 0
142 157 0
140 155 0
141 155 0
143 158 0
138 153 0
141 155 0
141 156 0
141 156 0
143 158 0
142 156 0
142 156 0
142 156 0
141 155 0
140 154 0
141 153 0
140 153 0
142 156 0
140 154 0
143 156 0
140 153 0
142 155 0
143 156 0
142 155 0
141 153 0
143 155 0
142 154 0
142 154 0
142 153 0
143 155 0
143 155 0
141 153 0
140 150 0
142 153 0
142 153 0
142 153 0
140 151 0
140 151 0
141 152 0
140 150 0
141 151 0
143 154 0
142 152 0
143 154 0
142 152 0
144 154 0
144 155 0
144 154 0
142 151 0
143 153 0
142 152 0
142 152 0
142 152 0
143 153 0
142 152 0
143 152 0
146 154 0
141 150 0
143 152 0
143 153 0
145 154 0
144 153 0
146 155 0
143 152 0
144 153 0
146 156 0
144 152 0
146 155 0
145 154 0
143 152 0
145 154 0
147 156 0
147 156 0
145 154 0
145 154 0
145 154 0
143 152 0
145 154 0
146 155 0
147 156 0
147 157 0
145 154 0
146 156 0
149 159 0
147 157 0
147 158 0
149 160 0
148 157 0
148 157 0
148 158 0
149 159 0
154 174 0
154 174 0
153 172 0
155 174 0
153 172 0
154 173 0
153 172 0
154 173 0
153 173 0
152 171 0
152 172 0
151 170 0
152 172 0
151 170 0
152 171 0
151 170 0
149 168 0
151 170 0
152 171 0
150 169 0
151 170 0
151 170 0
151 170 0
150 169 0
152 171 0
149 168 0
149 168 0
150 169 0
147 166 0
151 170 0
149 167 0
148 167 0
149 168 0
150 169 0
149 168 0
149 168 0
150 169 0
147 166 0
149 168 0
149 169 0
147 166 0
147 166 0
147 166 0
145 165 0
149 169 0
149 169 0
146 165 0
151 171 0
146 165 0
148 167 0
146 165 0
148 167 0
147 166 0
145 164 0
149 168 0
147 166 0
149 168 0
145 165 0
147 167 0
146 166 0
146 165 0
147 166 0
146 166 0
147 166 0
145 164 0
144 164 0
146 166 0
146 166 0
146 166 0
146 167 0
146 166 0
145 165 0
148 168 0
146 166 0
146 167 0
146 166 0
144 164 0
146 166 0
145 166 0
144 165 0
150 170 0
146 167 0
145 165 0
145 166 0
144 164 0
147 168 0
145 166 0
144 164 0
145 165 0
146 167 0
147 167 0
145 166 0
146 167 0
146 166 0
144 165 0
143 164 0
144 165 0
143 164 0
143 164 0
143 164 0
145 166 0
144 165 0
144 165 0
144 165 0
145 166 0
145 166 0
144 165 0
146 168 0
144 164 0
143 164 0
145 166 0
145 166 0
142 163 0
144 165 0
144 165 0
143 164 0
141 162 0
143 164 0
144 165 0
143 164 0
143 164 0
142 164 0
143 164 0
142 163 0
143 165 0
141 163 0
141 162 0
144 165 0
144 165 0
141 162 0
141 162 0
142 163 0
141 162 0
141 162 0
141 162 0
138 159 0
141 163 0
139 160 0
140 162 0
141 162 0
139 160 0
141 162 0
137 159 0
143 164 0
142 164 0
141 163 0
140 162 0
139 160 0
141 162 0
140 162 0
140 161 0
137 159 0
139 161 0
141 162 0
143 164 0
141 163 0
139 160 0
138 160 0
139 160 0
139 161 0
140 161 0
138 160 0
139 160 0
138 159 0
140 161 0
138 159 0
141 163 0
140 161 0
138 159 0
142 163 0
136 157 0
140 161 0
140 162 0
137 159 0
137 159 0
137 158 0
138 159 0
137 158 0
136 157 0
138 160 0
136 157 0
137 159 0
137 158 0
137 159 0
134 155 0
137 158 0
134 155 0
134 155 0
135 156 0
136 157 0
136 157 0
135 156 0
137 158 0
133 154 0
136 156 0
136 156 0
135 155 0
135 156 0
137 158 0
136 157 0
136 157 0
133 153 0
136 156 0
135 156 0
136 156 0
136 156 0
134 155 0
134 154 0
136 157 0
136 157 0
135 155 0
133 153 0
137 158 0
136 156 0
135 156 0
136 156 0
137 158 0
136 157 0
137 157 0
135 155 0
137 158 0
136 156 0
137 157 0
138 158 0
134 155 0
135 156 0
138 158 0
139 160 0
132 152 0
138 158 0
138 158 0
142 162 0
137 157 0
137 157 0
138 158 0
138 158 0
135 154 0
138 159 0
139 159 0
138 158 0
137 157 0
139 158 0
138 158 0
140 160 0
137 157 0
139 158 0
137 156 0
136 156 0
139 158 0
138 157 0
141 161 0
139 158 0
141 160 0
140 160 0
137 155 0
138 157 0
141 160 0
141 161 0
139 158 0
137 156 0
141 160 0
140 159 0
138 156 0
140 158 0
138 157 0
139 158 0
140 159 0
140 158 0
138 157 0
143 162 0
141 159 0
137 155 0
139 158 0
141 159 0
140 157 0
140 158 0
141 159 0
140 159 0
141 159 0
139 156 0
141 159 0
139 156 0
140 157 0
141 158 0
140 157 0
140 158 0
143 160 0
140 157 0
142 159 0
142 159 0
141 159 0
139 156 0
142 159 0
141 157 0
142 159 0
142 159 0
141 158 0
141 158 0
141 157 0
141 156 0
143 159 0
143 160 0
140 157 0
142 158 0
140 156 0
142 157 0
141 157 0
142 157 0
140 155 0
143 158 0
144 159 0
143 159 0
142 157 0
143 158 0
140 155 0
144 159 0
142 156 0
142 157 0
141 156 0
141 155 0
143 158 0
140 152 0
142 155 0
140 154 0
142 156 0
141 155 0
143 156 0
143 158 0
141 154 0
142 156 0
141 155 0
144 156 0
139 152 0
142 155 0
143 155 0
142 155 0
140 153 0
141 154 0
139 152 0
139 151 0
142 153 0
142 153 0
142 154 0
143 154 0
140 152 0
143 155 0
143 155 0
143 154 0
142 153 0
142 153 0
145 157 0
142 153 0
142 153 0
141 152 0
142 152 0
143 153 0
142 153 0
143 154 0
142 153 0
142 151 0
143 153 0
141 151 0
145 155 0
143 153 0
143 153 0
145 154 0
144 154 0
144 154 0
145 155 0
146 156 0
142 150 0
144 153 0
142 151 0
144 152 0
145 155 0
145 154 0
145 154 0
148 158 0
144 153 0
145 154 0
146 156 0
145 155 0
147 157 0
147 158 0
146 155 0
146 155 0
144 153 0
145 155 0
145 154 0
146 155 0
148 158 0
148 158 0
147 156 0
147 156 0
149 158 0
150 160 0
147 156 0
149 160 0
150 160 0
149 160 0
152 172 0
154 173 0
155 175 0
154 173 0
155 174 0
155 174 0
154 173 0
154 173 0
152 172 0
151 170 0
152 171 0
154 173 0
153 173 0
153 172 0
151 170 0
151 171 0
151 170 0
151 170 0
152 172 0
151 170 0
150 169 0
152 171 0
149 168 0
151 170 0
151 170 0
150 169 0
149 168 0
150 169 0
150 169 0
150 169 0
148 167 0
148 168 0
150 170 0
151 170 0
150 170 0
147 167 0
149 168 0
148 167 0
148 167 0
146 165 0
149 168 0
147 167 0
148 167 0
149 169 0
149 169 0
147 166 0
146 166 0
148 167 0
149 168 0
148 167 0
146 165 0
148 168 0
146 165 0
146 166 0
147 167 0
148 168 0
147 167 0
146 166 0
144 164 0
146 166 0
149 168 0
148 168 0
147 167 0
145 165 0
147 167 0
146 167 0
146 166 0
146 166 0
147 166 0
146 166 0
146 166 0
145 166 0
148 168 0
145 166 0
145 166 0
145 166 0
144 164 0
144 164 0
147 167 0
148 169 0
146 166 0
146 167 0
146 167 0
145 166 0
143 164 0
146 167 0
146 167 0
148 168 0
146 166 0
143 163 0
143 163 0
146 167 0
146 166 0
144 165 0
146 167 0
145 165 0
147 168 0
144 164 0
145 166 0
145 166 0
144 165 0
145 166 0
147 168 0
144 166 0
143 165 0
145 165 0
145 166 0
144 165 0
143 164 0
143 164 0
143 165 0
141 162 0
143 165 0
145 166 0
144 166 0
144 165 0
145 166 0
145 167 0
145 166 0
144 165 0
144 165 0
144 165 0
145 166 0
145 166 0
145 166 0
146 168 0
144 165 0
140 162 0
141 162 0
143 164 0
143 164 0
140 161 0
140 162 0
141 163 0
143 165 0
140 162 0
142 164 0
141 162 0
143 164 0
140 161 0
139 161 0
142 163 0
143 165 0
141 163 0
141 163 0
142 164 0
139 160 0
140 161 0
140 162 0
141 163 0
141 163 0
141 163 0
141 163 0
136 158 0
138 159 0
142 163 0
140 162 0
137 159 0
142 163 0
138 159 0
139 160 0
139 160 0
141 163 0
136 157 0
140 161 0
139 160 0
137 158 0
139 160 0
137 158 0
138 160 0
140 161 0
137 158 0
137 158 0
136 157 0
138 160 0
133 154 0
138 159 0
140 161 0
138 159 0
140 161 0
136 157 0
136 157 0
138 159 0
137 157 0
137 157 0
136 157 0
137 159 0
136 157 0
138 159 0
136 157 0
136 157 0
135 156 0
138 159 0
137 158 0
137 158 0
136 157 0
135 156 0
137 158 0
136 157 0
135 156 0
138 159 0
139 159 0
137 158 0
133 154 0
137 158 0
137 158 0
137 158 0
133 153 0
134 155 0
138 159 0
135 156 0
133 153 0
135 156 0
135 155 0
135 155 0
135 155 0
136 156 0
137 158 0
138 158 0
139 159 0
134 155 0
138 158 0
140 161 0
137 157 0
136 156 0
139 159 0
138 158 0
139 159 0
137 157 0
138 158 0
137 157 0
138 159 0
138 157 0
139 159 0
142 162 0
139 160 0
141 161 0
138 158 0
137 157 0
140 160 0
136 156 0
139 159 0
141 161 0
138 158 0
140 160 0
138 158 0
138 157 0
139 159 0
140 160 0
138 157 0
142 162 0
137 157 0
138 157 0
139 158 0
141 160 0
137 156 0
141 160 0
139 158 0
141 160 0
140 159 0
140 160 0
138 157 0
138 158 0
141 159 0
137 155 0
140 159 0
142 161 0
142 161 0
140 157 0
138 156 0
141 159 0
139 158 0
141 159 0
141 159 0
138 156 0
140 158 0
142 161 0
140 158 0
143 161 0
142 161 0
138 156 0
143 161 0
141 159 0
143 162 0
139 157 0
142 159 0
143 160 0
141 159 0
142 159 0
141 158 0
142 160 0
142 159 0
144 161 0
141 158 0
140 157 0
141 159 0
141 158 0
142 159 0
144 160 0
141 157 0
139 155 0
140 156 0
142 158 0
143 160 0
140 156 0
140 155 0
144 161 0
143 159 0
142 157 0
141 157 0
143 159 0
144 160 0
143 159 0
143 159 0
141 156 0
142 157 0
140 155 0
141 156 0
141 156 0
141 156 0
145 160 0
142 157 0
140 154 0
142 156 0
139 153 0
142 157 0
143 157 0
142 156 0
142 155 0
143 156 0
143 157 0
142 155 0
144 158 0
143 156 0
143 156 0
144 157 0
143 156 0
140 153 0
143 157 0
143 155 0
142 155 0
142 155 0
143 155 0
143 154 0
142 155 0
141 152 0
144 156 0
144 155 0
144 154 0
141 152 0
142 153 0
142 153 0
143 154 0
144 157 0
140 152 0
144 156 0
141 151 0
145 156 0
143 153 0
141 152 0
141 151 0
142 153 0
143 154 0
143 153 0
144 155 0
143 154 0
145 155 0
145 156 0
145 155 0
145 154 0
144 153 0
145 155 0
144 153 0
145 156 0
146 155 0
145 155 0
146 155 0
145 154 0
147 157 0
146 156 0
145 155 0
146 156 0
146 156 0
147 157 0
146 154 0
148 158 0
147 156 0
149 159 0
148 157 0
146 156 0
148 158 0
149 160 0
146 155 0
148 158 0
147 157 0
148 158 0
148 158 0
150 159 0
150 161 0
148 158 0
156 175 0
155 174 0
154 174 0
155 174 0
155 174 0
153 172 0
153 173 0
153 172 0
154 173 0
152 171 0
153 173 0
154 173 0
152 171 0
153 172 0
152 171 0
153 172 0
151 170 0
152 172 0
152 171 0
152 171 0
151 171 0
150 169 0
150 169 0
153 171 0
150 169 0
150 169 0
148 167 0
148 167 0
150 169 0
149 169 0
150 169 0
150 169 0
148 168 0
149 168 0
149 169 0
149 169 0
149 168 0
150 169 0
148 167 0
147 167 0
148 167 0
149 168 0
147 166 0
149 168 0
148 167 0
150 169 0
150 169 0
149 169 0
148 167 0
148 168 0
147 167 0
149 168 0
147 167 0
146 166 0
147 167 0
147 167 0
147 167 0
149 169 0
147 166 0
145 165 0
147 167 0
145 164 0
147 168 0
145 165 0
146 166 0
146 166 0
147 167 0
147 167 0
147 167 0
146 166 0
145 166 0
146 167 0
144 164 0
148 168 0
146 166 0
149 169 0
145 166 0
148 168 0
147 167 0
147 167 0
144 164 0
146 167 0
147 167 0
145 166 0
147 168 0
147 168 0
145 166 0
147 168 0
145 165 0
147 168 0
148 169 0
147 167 0
145 166 0
146 166 0
144 165 0
145 166 0
145 166 0
144 165 0
145 165 0
145 166 0
146 167 0
146 167 0
144 165 0
144 165 0
146 167 0
145 166 0
144 165 0
145 166 0
144 166 0
142 163 0
143 164 0
145 166 0
145 167 0
143 164 0
145 166 0
144 165 0
143 164 0
146 167 0
143 164 0
144 165 0
144 165 0
143 165 0
144 165 0
140 161 0
144 165 0
146 167 0
143 165 0
142 164 0
141 163 0
143 165 0
143 164 0
143 164 0
141 163 0
142 163 0
141 163 0
142 164 0
142 164 0
141 162 0
140 161 0
139 161 0
142 164 0
142 163 0
140 162 0
140 161 0
142 164 0
142 164 0
139 160 0
143 164 0
141 162 0
142 163 0
140 162 0
140 161 0
139 160 0
139 160 0
139 160 0
139 161 0
141 162 0
140 161 0
139 160 0
139 160 0
141 163 0
137 158 0
139 160 0
138 159 0
139 160 0
140 161 0
141 162 0
139 160 0
137 158 0
139 160 0
139 160 0
136 157 0
139 160 0
138 160 0
140 161 0
138 159 0
136 157 0
139 160 0
136 156 0
138 159 0
139 160 0
137 159 0
138 159 0
138 159 0
137 158 0
137 158 0
136 157 0
137 158 0
134 155 0
137 158 0
139 160 0
136 157 0
135 157 0
136 156 0
136 157 0
138 159 0
135 156 0
140 161 0
135 156 0
136 157 0
137 158 0
135 155 0
134 155 0
139 160 0
136 157 0
137 158 0
136 156 0
137 158 0
136 157 0
137 158 0
136 157 0
137 158 0
135 155 0
136 156 0
137 157 0
138 159 0
137 158 0
138 158 0
137 157 0
139 159 0
139 159 0
139 160 0
138 158 0
139 159 0
136 156 0
136 157 0
136 157 0
138 159 0
139 158 0
140 161 0
136 157 0
139 159 0
138 159 0
141 161 0
141 162 0
139 159 0
135 155 0
139 159 0
139 159 0
138 157 0
141 161 0
139 159 0
139 159 0
141 160 0
139 160 0
141 161 0
140 160 0
142 163 0
139 159 0
140 160 0
141 161 0
138 158 0
136 156 0
141 161 0
140 160 0
139 158 0
140 159 0
138 157 0
141 160 0
138 157 0
140 160 0
140 159 0
140 159 0
140 159 0
141 161 0
142 161 0
139 158 0
141 160 0
139 157 0
139 157 0
141 160 0
139 158 0
139 158 0
141 159 0
143 161 0
140 158 0
142 161 0
143 162 0
141 159 0
143 161 0
142 161 0
142 159 0
141 159 0
140 158 0
140 158 0
143 161 0
142 160 0
142 160 0
142 160 0
138 155 0
142 159 0
142 159 0
143 159 0
141 158 0
141 158 0
143 160 0
142 159 0
143 160 0
142 158 0
144 161 0
143 160 0
142 159 0
141 158 0
142 158 0
143 160 0
142 158 0
142 158 0
144 160 0
143 159 0
141 157 0
142 158 0
143 159 0
142 158 0
140 156 0
145 161 0
145 161 0
140 153 0
140 155 0
140 156 0
142 157 0
143 158 0
144 160 0
143 158 0
143 158 0
141 155 0
140 155 0
139 153 0
143 158 0
141 155 0
142 156 0
142 156 0
142 156 0
143 157 0
142 156 0
144 158 0
143 157 0
144 157 0
142 155 0
142 154 0
145 157 0
142 155 0
141 153 0
142 153 0
142 155 0
143 155 0
143 156 0
142 154 0
142 154 0
143 155 0
143 155 0
140 151 0
143 155 0
143 154 0
145 156 0
145 157 0
143 154 0
144 156 0
144 155 0
143 154 0
144 155 0
143 154 0
144 155 0
147 158 0
142 152 0
147 156 0
144 155 0
147 158 0
144 155 0
144 155 0
146 156 0
144 155 0
147 158 0
146 156 0
144 155 0
147 157 0
145 155 0
146 156 0
145 155 0
147 157 0
146 157 0
147 156 0
146 156 0
148 158 0
147 158 0
145 155 0
147 157 0
146 157 0
148 158 0
146 157 0
148 159 0
146 155 0
148 159 0
149 158 0
148 157 0
148 159 0
148 158 0
149 159 0
149 159 0
151 162 0
150 162 0
156 176 0
156 176 0
155 174 0
155 174 0
154 173 0
154 174 0
153 172 0
153 172 0
154 173 0
153 172 0
152 171 0
153 172 0
152 172 0
150 170 0
151 171 0
151 170 0
151 171 0
151 170 0
151 171 0
151 170 0
151 171 0
153 172 0
150 170 0
151 171 0
150 170 0
148 167 0
150 170 0
150 169 0
150 170 0
152 171 0
150 169 0
151 170 0
148 168 0
148 168 0
149 168 0
150 169 0
150 169 0
148 168 0
149 169 0
149 169 0
150 169 0
149 168 0
149 168 0
148 168 0
149 169 0
149 169 0
149 169 0
147 166 0
148 168 0
148 168 0
147 167 0
150 170 0
148 168 0
147 167 0
149 168 0
148 168 0
148 167 0
147 167 0
148 168 0
147 167 0
148 168 0
146 166 0
146 165 0
146 166 0
148 168 0
147 167 0
147 167 0
149 170 0
146 166 0
147 167 0
148 168 0
147 168 0
147 168 0
145 165 0
148 169 0
147 167 0
147 167 0
146 166 0
149 170 0
145 165 0
147 168 0
148 169 0
146 167 0
146 167 0
145 166 0
146 166 0
148 168 0
147 168 0
145 166 0
146 167 0
146 167 0
146 167 0
144 165 0
145 166 0
149 170 0
146 167 0
146 167 0
147 168 0
147 168 0
146 168 0
146 167 0
147 167 0
145 166 0
147 168 0
144 165 0
143 164 0
144 165 0
146 168 0
146 167 0
145 167 0
144 165 0
144 165 0
144 165 0
144 165 0
142 163 0
146 167 0
146 167 0
145 166 0
147 168 0
144 166 0
145 167 0
144 165 0
145 167 0
148 169 0
144 166 0
143 165 0
145 166 0
141 163 0
143 164 0
141 162 0
145 166 0
142 164 0
142 164 0
141 163 0
145 167 0
144 165 0
143 165 0
142 163 0
141 163 0
141 162 0
139 160 0
143 165 0
139 160 0
143 164 0
140 161 0
142 163 0
141 162 0
141 163 0
141 162 0
140 161 0
142 164 0
141 163 0
141 163 0
141 163 0
139 161 0
140 162 0
142 163 0
143 165 0
140 162 0
138 160 0
141 163 0
141 163 0
140 162 0
141 163 0
138 159 0
140 162 0
140 161 0
140 162 0
139 160 0
136 157 0
139 160 0
136 157 0
141 162 0
139 160 0
138 160 0
141 162 0
141 161 0
139 160 0
135 157 0
138 159 0
138 158 0
136 158 0
139 160 0
138 160 0
138 159 0
135 156 0
136 157 0
135 156 0
139 161 0
136 156 0
138 159 0
139 160 0
134 155 0
137 159 0
137 158 0
136 157 0
137 157 0
136 158 0
134 155 0
137 158 0
139 160 0
137 158 0
138 159 0
136 157 0
136 157 0
137 157 0
138 159 0
138 159 0
137 157 0
139 160 0
137 158 0
137 158 0
135 156 0
137 158 0
137 158 0
136 157 0
136 156 0
140 160 0
138 159 0
141 161 0
140 160 0
139 159 0
139 160 0
137 157 0
138 158 0
136 157 0
140 161 0
139 159 0
136 156 0
141 162 0
138 159 0
138 158 0
140 161 0
141 162 0
139 159 0
139 159 0
138 158 0
140 161 0
140 161 0
138 158 0
139 159 0
139 159 0
140 160 0
138 159 0
140 160 0
138 158 0
140 160 0
138 158 0
139 159 0
138 158 0
140 159 0
140 159 0
140 160 0
140 160 0
141 160 0
139 159 0
141 161 0
141 160 0
142 161 0
142 161 0
139 158 0
143 162 0
139 158 0
140 159 0
142 161 0
139 158 0
141 160 0
140 159 0
140 160 0
143 161 0
140 160 0
142 161 0
143 162 0
140 158 0
143 162 0
142 161 0
143 162 0
140 159 0
141 160 0
142 160 0
142 161 0
140 157 0
144 163 0
142 161 0
142 161 0
143 162 0
142 160 0
141 159 0
143 160 0
142 160 0
142 160 0
142 159 0
142 160 0
142 159 0
142 159 0
141 158 0
139 156 0
143 160 0
144 161 0
142 159 0
143 160 0
145 162 0
143 160 0
143 159 0
144 160 0
142 159 0
143 158 0
141 157 0
142 158 0
142 158 0
144 160 0
141 157 0
141 157 0
143 158 0
145 161 0
143 159 0
144 160 0
142 158 0
142 157 0
143 158 0
142 157 0
143 159 0
142 156 0
142 157 0
146 160 0
142 156 0
142 155 0
141 155 0
141 155 0
144 158 0
144 158 0
144 158 0
145 159 0
143 156 0
142 155 0
146 161 0
141 154 0
143 157 0
143 156 0
142 155 0
143 156 0
142 155 0
141 154 0
143 157 0
144 157 0
144 156 0
145 158 0
142 154 0
143 154 0
142 154 0
142 153 0
143 155 0
145 156 0
144 156 0
144 155 0
143 154 0
143 155 0
144 156 0
144 154 0
144 155 0
142 153 0
142 153 0
146 158 0
146 158 0
144 155 0
145 157 0
145 156 0
144 156 0
144 154 0
144 154 0
145 156 0
147 158 0
149 159 0
144 155 0
144 154 0
144 153 0
145 155 0
145 155 0
147 157 0
147 158 0
146 155 0
147 157 0
147 158 0
148 159 0
147 156 0
146 156 0
144 154 0
148 158 0
149 160 0
145 156 0
147 159 0
145 155 0
149 160 0
146 157 0
147 158 0
149 160 0
149 161 0
150 161 0
151 162 0
149 159 0
153 173 0
153 173 0
153 173 0
154 174 0
153 172 0
153 173 0
154 173 0
153 172 0
152 172 0
153 172 0
152 171 0
153 173 0
151 170 0
153 173 0
153 172 0
150 170 0
151 171 0
152 171 0
151 170 0
152 172 0
150 169 0
149 169 0
151 170 0
152 171 0
150 170 0
152 171 0
150 169 0
151 171 0
152 172 0
149 169 0
150 169 0
151 171 0
148 167 0
148 168 0
151 170 0
147 166 0
150 170 0
148 168 0
150 170 0
149 168 0
148 168 0
150 170 0
149 168 0
148 168 0
149 168 0
148 168 0
150 169 0
149 168 0
148 168 0
148 168 0
148 168 0
148 168 0
149 169 0
146 166 0
148 168 0
146 166 0
146 166 0
148 168 0
147 167 0
148 168 0
147 167 0
148 168 0
149 169 0
147 167 0
147 167 0
149 169 0
148 168 0
146 167 0
147 167 0
146 166 0
149 170 0
145 166 0
148 169 0
148 168 0
146 167 0
147 168 0
146 167 0
149 169 0
147 167 0
146 167 0
146 167 0
146 166 0
147 168 0
147 168 0
149 170 0
145 166 0
146 166 0
148 169 0
147 168 0
147 168 0
146 168 0
147 168 0
146 167 0
146 167 0
147 168 0
146 167 0
147 168 0
149 170 0
146 167 0
146 168 0
147 168 0
145 166 0
145 166 0
147 169 0
147 168 0
147 168 0
149 170 0
146 167 0
143 164 0
145 166 0
146 167 0
147 168 0
143 165 0
145 166 0
145 166 0
146 167 0
144 166 0
144 165 0
147 168 0
144 166 0
145 167 0
145 166 0
142 164 0
145 166 0
145 167 0
144 165 0
144 165 0
143 164 0
145 166 0
146 167 0
143 164 0
144 166 0
143 165 0
144 166 0
143 164 0
139 161 0
141 162 0
142 164 0
142 163 0
142 163 0
142 164 0
142 164 0
142 163 0
142 163 0
143 165 0
142 163 0
143 164 0
140 161 0
143 165 0
142 163 0
142 164 0
143 165 0
139 160 0
143 164 0
143 165 0
141 163 0
141 162 0
136 157 0
141 162 0
138 159 0
142 164 0
142 163 0
139 160 0
140 162 0
141 163 0
140 162 0
139 160 0
142 163 0
143 164 0
140 161 0
138 160 0
139 161 0
138 159 0
139 160 0
141 162 0
137 159 0
141 163 0
136 158 0
139 161 0
137 157 0
138 159 0
137 158 0
139 160 0
138 159 0
138 160 0
141 162 0
141 162 0
137 158 0
136 157 0
136 157 0
136 158 0
138 159 0
137 158 0
138 159 0
138 159 0
136 158 0
138 159 0
137 158 0
138 159 0
137 158 0
138 160 0
139 160 0
137 158 0
138 159 0
137 158 0
138 158 0
143 164 0
140 161 0
136 157 0
139 160 0
137 157 0
136 157 0
135 156 0
136 157 0
139 160 0
137 158 0
137 158 0
138 159 0
140 160 0
138 159 0
139 160 0
137 158 0
137 158 0
141 162 0
138 159 0
139 160 0
139 159 0
140 161 0
140 161 0
137 157 0
139 160 0
140 161 0
141 161 0
138 159 0
142 162 0
140 160 0
140 161 0
139 159 0
138 158 0
138 158 0
139 160 0
142 163 0
138 158 0
141 161 0
142 161 0
140 160 0
138 158 0
141 162 0
142 163 0
141 161 0
141 162 0
141 161 0
141 161 0
142 162 0
143 163 0
142 162 0
143 162 0
142 161 0
140 159 0
140 159 0
139 158 0
137 156 0
142 161 0
141 161 0
138 157 0
140 159 0
142 160 0
141 160 0
139 157 0
138 156 0
139 158 0
140 159 0
141 160 0
142 161 0
144 163 0
144 162 0
144 163 0
141 160 0
143 162 0
143 162 0
139 157 0
141 159 0
140 158 0
142 160 0
143 161 0
143 161 0
143 161 0
142 160 0
141 158 0
142 160 0
143 161 0
145 163 0
142 159 0
141 158 0
143 159 0
142 159 0
143 161 0
144 161 0
144 161 0
142 159 0
144 161 0
141 159 0
143 159 0
143 160 0
142 159 0
142 158 0
144 160 0
141 158 0
142 159 0
144 160 0
143 160 0
143 159 0
145 161 0
144 160 0
143 159 0
142 158 0
144 160 0
143 158 0
140 156 0
144 159 0
143 159 0
141 157 0
144 159 0
141 157 0
146 162 0
142 157 0
146 161 0
142 157 0
143 158 0
143 158 0
145 159 0
142 156 0
143 159 0
142 158 0
145 159 0
144 159 0
144 158 0
144 159 0
143 156 0
144 157 0
143 157 0
145 158 0
144 158 0
141 154 0
143 157 0
144 157 0
144 156 0
143 156 0
145 159 0
142 155 0
144 158 0
145 158 0
144 156 0
144 155 0
144 156 0
142 154 0
143 154 0
145 158 0
145 157 0
142 154 0
143 155 0
144 154 0
144 156 0
143 155 0
145 157 0
146 157 0
146 158 0
142 153 0
146 157 0
144 155 0
146 157 0
145 156 0
146 157 0
146 157 0
148 159 0
146 156 0
145 154 0
146 157 0
146 156 0
148 159 0
146 157 0
147 157 0
146 156 0
148 159 0
148 159 0
148 158 0
148 159 0
147 158 0
144 155 0
148 159 0
147 158 0
149 159 0
149 160 0
149 160 0
149 159 0
149 160 0
148 159 0
150 159 0
147 157 0
150 161 0
155 175 0
155 175 0
155 174 0
156 175 0
154 174 0
154 174 0
152 171 0
153 172 0
153 173 0
151 171 0
153 172 0
154 173 0
152 172 0
151 170 0
152 171 0
150 170 0
151 171 0
150 169 0
152 172 0
152 171 0
152 172 0
150 169 0
151 170 0
152 171 0
151 170 0
151 171 0
151 170 0
150 169 0
151 170 0
150 169 0
151 171 0
150 169 0
149 168 0
152 172 0
149 169 0
150 170 0
150 170 0
149 169 0
152 171 0
148 168 0
150 170 0
148 168 0
151 171 0
148 167 0
150 170 0
149 168 0
150 170 0
148 167 0
148 167 0
148 168 0
149 168 0
148 168 0
148 168 0
149 169 0
147 167 0
147 167 0
147 168 0
150 171 0
148 168 0
149 169 0
147 167 0
149 170 0
147 167 0
149 170 0
148 168 0
146 166 0
149 170 0
148 168 0
148 168 0
148 168 0
147 168 0
149 170 0
148 168 0
149 170 0
148 169 0
145 166 0
145 165 0
148 168 0
149 170 0
146 167 0
148 169 0
149 170 0
147 167 0
146 167 0
146 167 0
146 166 0
146 167 0
147 168 0
145 166 0
147 168 0
146 167 0
147 167 0
147 167 0
145 166 0
146 167 0
147 168 0
146 167 0
144 166 0
149 170 0
147 168 0
147 168 0
144 166 0
146 167 0
144 165 0
146 167 0
147 169 0
147 168 0
147 168 0
146 167 0
146 167 0
146 167 0
146 167 0
145 166 0
146 167 0
144 166 0
143 164 0
145 166 0
144 166 0
146 168 0
143 164 0
144 166 0
145 166 0
146 168 0
145 166 0
144 166 0
144 166 0
143 165 0
145 166 0
144 166 0
143 165 0
142 164 0
144 165 0
144 166 0
142 164 0
144 166 0
144 165 0
142 163 0
145 166 0
142 164 0
141 162 0
143 164 0
144 166 0
142 164 0
144 166 0
143 164 0
143 165 0
139 161 0
143 164 0
142 164 0
140 162 0
141 163 0
141 163 0
144 165 0
142 163 0
143 164 0
141 163 0
140 162 0
142 163 0
141 163 0
141 163 0
140 161 0
142 164 0
138 160 0
140 161 0
139 161 0
140 162 0
139 160 0
140 161 0
139 161 0
139 160 0
140 162 0
137 159 0
139 160 0
140 161 0
142 164 0
137 158 0
139 161 0
140 162 0
140 162 0
139 161 0
137 159 0
142 163 0
139 160 0
139 160 0
140 162 0
139 160 0
140 161 0
135 156 0
139 160 0
140 161 0
139 159 0
138 160 0
140 160 0
137 158 0
137 158 0
137 158 0
140 162 0
138 159 0
139 160 0
137 158 0
140 160 0
138 158 0
137 158 0
136 157 0
139 159 0
136 157 0
138 159 0
138 159 0
139 160 0
137 158 0
138 159 0
139 160 0
140 161 0
139 159 0
140 161 0
139 159 0
140 162 0
137 158 0
140 161 0
139 160 0
140 161 0
140 161 0
140 161 0
139 159 0
141 161 0
138 159 0
137 157 0
135 156 0
139 159 0
140 160 0
142 162 0
139 159 0
141 162 0
140 160 0
138 158 0
140 161 0
140 160 0
141 161 0
137 157 0
141 161 0
139 159 0
140 160 0
138 158 0
143 163 0
140 160 0
141 161 0
143 163 0
139 159 0
140 161 0
143 163 0
141 161 0
140 159 0
144 164 0
142 162 0
140 160 0
143 163 0
141 161 0
142 162 0
141 161 0
142 161 0
141 161 0
141 160 0
143 162 0
142 162 0
141 160 0
139 158 0
144 164 0
144 163 0
143 161 0
142 161 0
142 161 0
143 162 0
141 159 0
141 159 0
140 159 0
142 161 0
142 162 0
143 161 0
142 161 0
141 159 0
143 162 0
143 161 0
144 162 0
144 162 0
143 162 0
144 161 0
143 161 0
141 158 0
145 163 0
143 161 0
143 161 0
142 159 0
142 160 0
144 162 0
145 162 0
142 160 0
145 163 0
141 158 0
143 161 0
143 160 0
144 161 0
144 161 0
140 157 0
144 161 0
144 160 0
144 162 0
144 161 0
146 163 0
144 160 0
142 158 0
143 160 0
143 160 0
145 162 0
144 160 0
146 162 0
146 162 0
144 159 0
143 158 0
145 162 0
144 161 0
146 162 0
144 159 0
146 162 0
144 160 0
144 159 0
144 159 0
146 161 0
145 160 0
144 159 0
145 161 0
144 160 0
144 159 0
147 162 0
145 160 0
141 155 0
143 159 0
143 157 0
144 159 0
144 158 0
143 156 0
141 155 0
143 156 0
145 158 0
143 156 0
142 156 0
147 160 0
147 162 0
145 158 0
143 156 0
145 158 0
141 154 0
143 156 0
144 155 0
145 158 0
143 155 0
145 159 0
144 156 0
144 157 0
143 154 0
144 157 0
146 157 0
145 157 0
143 155 0
145 156 0
145 157 0
146 158 0
146 158 0
144 156 0
143 154 0
147 158 0
143 154 0
146 157 0
146 157 0
147 158 0
146 157 0
144 155 0
147 158 0
147 158 0
147 157 0
148 159 0
146 156 0
147 158 0
149 161 0
147 157 0
147 158 0
147 158 0
149 160 0
148 159 0
146 157 0
149 160 0
150 161 0
147 158 0
146 157 0
147 157 0
149 159 0
149 160 0
149 160 0
149 161 0
148 158 0
148 159 0
155 175 0
155 175 0
154 174 0
153 172 0
154 173 0
154 174 0
154 174 0
152 172 0
154 174 0
152 172 0
153 172 0
151 171 0
151 171 0
152 172 0
153 172 0
153 172 0
151 171 0
152 172 0
151 171 0
151 171 0
153 173 0
154 174 0
151 170 0
152 172 0
151 170 0
150 170 0
150 170 0
151 170 0
151 171 0
149 169 0
149 169 0
150 170 0
152 172 0
151 170 0
151 171 0
150 170 0
149 169 0
148 167 0
151 171 0
150 170 0
149 169 0
149 168 0
150 169 0
149 169 0
149 170 0
149 169 0
150 170 0
150 171 0
148 168 0
148 169 0
150 170 0
148 168 0
149 169 0
149 169 0
149 170 0
148 168 0
147 168 0
148 169 0
148 169 0
152 172 0
149 169 0
149 170 0
150 171 0
147 168 0
148 168 0
148 168 0
148 169 0
147 167 0
148 168 0
150 170 0
148 169 0
151 172 0
147 168 0
148 168 0
147 168 0
149 170 0
148 169 0
147 167 0
147 168 0
149 169 0
149 169 0
145 165 0
146 167 0
147 168 0
145 166 0
146 167 0
146 167 0
149 170 0
147 168 0
146 167 0
147 169 0
147 169 0
146 168 0
147 168 0
146 168 0
147 168 0
147 168 0
149 170 0
145 166 0
147 168 0
146 168 0
146 168 0
146 167 0
147 168 0
145 167 0
144 166 0
148 170 0
145 166 0
146 168 0
145 167 0
144 166 0
146 167 0
147 169 0
147 169 0
143 164 0
143 165 0
144 165 0
146 167 0
146 168 0
143 164 0
145 166 0
146 168 0
146 168 0
144 166 0
143 165 0
144 166 0
145 166 0
143 164 0
145 167 0
143 165 0
144 166 0
143 164 0
146 168 0
144 166 0
145 167 0
142 164 0
143 165 0
142 163 0
142 163 0
144 166 0
143 165 0
140 161 0
143 165 0
141 163 0
143 165 0
141 163 0
144 166 0
142 163 0
144 165 0
143 165 0
143 165 0
143 165 0
140 162 0
145 167 0
142 163 0
141 163 0
142 164 0
139 161 0
141 163 0
141 163 0
143 164 0
142 163 0
139 161 0
142 164 0
140 162 0
140 162 0
141 162 0
139 160 0
142 164 0
140 162 0
142 164 0
138 159 0
139 160 0
140 162 0
142 164 0
141 163 0
141 162 0
141 162 0
140 161 0
138 160 0
139 161 0
141 162 0
140 161 0
138 159 0
139 160 0
139 160 0
138 159 0
141 163 0
139 160 0
140 161 0
140 161 0
141 162 0
138 159 0
141 162 0
136 158 0
139 160 0
136 157 0
137 158 0
139 160 0
135 156 0
139 160 0
139 160 0
137 158 0
136 156 0
138 159 0
136 158 0
136 157 0
139 160 0
137 158 0
141 162 0
138 159 0
140 160 0
139 160 0
139 160 0
141 162 0
138 159 0
137 158 0
138 158 0
139 160 0
141 162 0
140 161 0
138 159 0
140 161 0
139 160 0
140 161 0
141 161 0
141 161 0
141 161 0
139 159 0
139 160 0
141 161 0
138 159 0
138 158 0
142 163 0
139 160 0
139 160 0
139 159 0
142 163 0
140 161 0
141 161 0
141 161 0
138 158 0
137 157 0
139 159 0
141 161 0
141 161 0
142 162 0
141 162 0
144 164 0
140 160 0
144 164 0
141 161 0
139 159 0
141 161 0
143 163 0
141 160 0
142 162 0
142 162 0
142 161 0
142 161 0
142 162 0
140 160 0
142 161 0
142 161 0
142 161 0
144 163 0
140 160 0
144 163 0
139 158 0
142 160 0
145 164 0
142 161 0
145 165 0
143 161 0
144 164 0
145 165 0
141 159 0
141 159 0
144 163 0
142 160 0
143 162 0
142 160 0
143 161 0
142 161 0
144 162 0
141 160 0
144 162 0
145 163 0
145 163 0
142 160 0
143 161 0
144 161 0
144 161 0
143 161 0
144 161 0
143 161 0
144 161 0
144 162 0
146 164 0
145 162 0
142 159 0
144 162 0
145 162 0
144 161 0
145 162 0
146 163 0
145 161 0
144 160 0
145 162 0
146 163 0
142 159 0
145 162 0
145 161 0
143 160 0
142 157 0
147 163 0
144 160 0
140 156 0
144 160 0
144 160 0
143 159 0
144 160 0
144 160 0
145 161 0
142 157 0
146 162 0
144 159 0
146 161 0
145 160 0
143 157 0
144 160 0
143 158 0
146 160 0
143 158 0
144 159 0
144 158 0
144 159 0
144 159 0
145 160 0
143 157 0
145 160 0
143 158 0
144 157 0
142 156 0
146 160 0
144 157 0
144 158 0
146 160 0
144 158 0
144 157 0
142 154 0
143 157 0
145 159 0
145 157 0
144 158 0
145 157 0
144 156 0
144 157 0
143 155 0
143 154 0
143 156 0
144 156 0
145 158 0
147 159 0
145 158 0
147 159 0
144 156 0
147 159 0
145 157 0
145 156 0
147 159 0
147 158 0
147 158 0
147 158 0
146 157 0
149 161 0
147 158 0
147 159 0
148 159 0
147 158 0
145 156 0
147 158 0
148 160 0
147 158 0
146 156 0
146 157 0
149 160 0
149 161 0
147 158 0
148 159 0
150 160 0
146 156 0
148 159 0
149 160 0
150 161 0
146 157 0
149 160 0
148 159 0
148 159 0
147 158 0
155 175 0
155 175 0
154 174 0
152 172 0
153 172 0
155 175 0
154 174 0
154 173 0
153 173 0
155 175 0
151 171 0
152 172 0
153 173 0
151 171 0
152 172 0
153 173 0
152 171 0
152 172 0
152 172 0
153 172 0
152 173 0
150 170 0
152 172 0
151 171 0
152 172 0
153 173 0
151 171 0
153 173 0
151 171 0
151 171 0
150 170 0
150 170 0
152 172 0
149 169 0
151 172 0
152 172 0
150 170 0
150 170 0
150 171 0
151 171 0
150 170 0
150 170 0
147 167 0
148 168 0
148 168 0
150 170 0
148 168 0
150 170 0
149 169 0
148 169 0
150 171 0
148 169 0
148 169 0
149 169 0
147 167 0
147 167 0
146 166 0
149 169 0
150 171 0
150 170 0
147 168 0
146 167 0
150 170 0
148 169 0
149 170 0
148 168 0
149 170 0
147 168 0
148 168 0
150 171 0
149 170 0
147 168 0
147 167 0
147 167 0
150 171 0
150 171 0
147 168 0
146 167 0
151 172 0
146 166 0
147 168 0
146 166 0
147 168 0
149 171 0
149 170 0
148 169 0
147 168 0
148 169 0
148 170 0
147 168 0
147 169 0
148 169 0
148 169 0
146 167 0
148 169 0
148 169 0
145 166 0
147 168 0
149 170 0
148 169 0
148 170 0
145 166 0
148 169 0
143 164 0
145 166 0
147 169 0
147 169 0
145 167 0
145 167 0
146 167 0
149 171 0
147 169 0
146 168 0
146 167 0
146 167 0
144 166 0
145 166 0
145 166 0
145 167 0
146 168 0
145 166 0
145 167 0
143 165 0
145 167 0
144 166 0
146 168 0
144 165 0
145 166 0
143 165 0
147 169 0
144 165 0
144 165 0
143 165 0
144 165 0
143 165 0
142 164 0
143 164 0
145 166 0
144 165 0
144 165 0
145 166 0
141 163 0
143 164 0
144 166 0
142 165 0
144 166 0
142 164 0
141 163 0
143 165 0
144 166 0
142 163 0
143 164 0
142 164 0
143 164 0
141 162 0
140 162 0
142 163 0
143 165 0
140 162 0
142 164 0
142 164 0
144 166 0
142 164 0
140 162 0
143 165 0
142 164 0
142 164 0
142 164 0
143 164 0
139 161 0
140 162 0
140 162 0
142 163 0
139 160 0
140 162 0
139 161 0
140 162 0
141 163 0
141 162 0
141 162 0
142 163 0
140 162 0
140 161 0
139 161 0
139 160 0
141 162 0
141 162 0
137 158 0
142 163 0
137 158 0
142 164 0
141 162 0
139 160 0
138 160 0
138 158 0
141 162 0
141 162 0
138 160 0
139 160 0
140 161 0
141 162 0
139 160 0
138 158 0
137 157 0
138 159 0
140 161 0
141 162 0
140 161 0
142 163 0
139 160 0
139 160 0
138 159 0
141 162 0
139 160 0
139 160 0
137 157 0
141 162 0
139 159 0
141 162 0
140 161 0
140 160 0
142 163 0
138 158 0
139 160 0
141 162 0
141 162 0
140 161 0
140 161 0
141 162 0
140 160 0
140 161 0
142 163 0
142 163 0
144 165 0
139 160 0
138 158 0
141 162 0
141 161 0
140 161 0
140 160 0
142 163 0
142 162 0
141 161 0
142 163 0
140 161 0
141 161 0
141 162 0
141 162 0
140 161 0
142 162 0
144 165 0
143 163 0
142 162 0
140 160 0
140 160 0
141 161 0
140 159 0
141 162 0
142 162 0
139 159 0
140 159 0
141 161 0
142 162 0
144 164 0
140 159 0
142 161 0
143 162 0
142 162 0
144 163 0
144 163 0
142 162 0
143 162 0
142 161 0
142 161 0
144 163 0
143 161 0
143 162 0
145 164 0
144 162 0
144 163 0
142 161 0
142 161 0
142 161 0
144 163 0
144 162 0
146 165 0
144 162 0
144 161 0
145 162 0
145 163 0
142 160 0
143 162 0
144 161 0
142 159 0
142 160 0
141 159 0
142 160 0
146 164 0
142 160 0
143 161 0
146 163 0
143 160 0
145 162 0
144 162 0
144 160 0
145 162 0
144 161 0
145 162 0
144 160 0
142 158 0
142 159 0
144 161 0
145 161 0
144 161 0
146 163 0
142 159 0
146 162 0
144 160 0
146 162 0
146 162 0
145 160 0
144 159 0
145 162 0
143 158 0
143 158 0
144 160 0
145 161 0
145 161 0
145 161 0
142 158 0
145 160 0
146 161 0
144 159 0
145 161 0
147 162 0
145 160 0
144 159 0
145 160 0
146 160 0
146 160 0
142 156 0
144 159 0
145 159 0
145 160 0
144 157 0
144 157 0
144 158 0
144 157 0
146 160 0
144 159 0
142 156 0
145 159 0
143 155 0
147 161 0
146 160 0
145 159 0
145 159 0
145 158 0
145 158 0
146 159 0
145 158 0
145 158 0
145 157 0
144 157 0
144 156 0
146 159 0
148 160 0
146 157 0
146 159 0
146 158 0
145 157 0
145 157 0
147 159 0
147 160 0
147 159 0
146 157 0
147 158 0
148 159 0
147 159 0
149 162 0
148 160 0
146 157 0
148 159 0
150 162 0
147 159 0
148 159 0
148 159 0
150 162 0
149 160 0
148 158 0
147 156 0
149 160 0
147 157 0
148 159 0
148 159 0
149 159 0
150 161 0
150 162 0
149 161 0
151 162 0
155 174 0
153 172 0
153 173 0
153 173 0
152 172 0
153 173 0
154 174 0
153 173 0
156 176 0
153 173 0
155 174 0
152 172 0
153 173 0
152 172 0
153 173 0
154 174 0
153 173 0
153 173 0
152 172 0
153 173 0
152 172 0
150 170 0
152 172 0
151 171 0
151 171 0
150 170 0
150 170 0
151 171 0
153 172 0
151 171 0
153 173 0
151 171 0
152 171 0
150 170 0
150 170 0
152 172 0
149 169 0
151 171 0
151 170 0
149 169 0
149 169 0
149 169 0
151 172 0
149 169 0
149 169 0
150 170 0
151 171 0
149 169 0
151 171 0
150 170 0
147 167 0
147 167 0
146 167 0
148 168 0
150 170 0
149 170 0
149 169 0
149 170 0
149 170 0
149 169 0
149 170 0
149 170 0
148 169 0
148 169 0
149 170 0
149 170 0
149 169 0
147 168 0
148 169 0
148 169 0
148 169 0
147 168 0
150 171 0
150 171 0
150 171 0
148 169 0
147 168 0
149 169 0
148 169 0
150 171 0
149 170 0
148 169 0
147 169 0
147 167 0
147 168 0
148 169 0
146 167 0
149 170 0
148 170 0
148 170 0
148 169 0
148 169 0
147 169 0
147 168 0
146 167 0
148 169 0
145 166 0
147 168 0
146 167 0
150 172 0
147 169 0
147 169 0
148 170 0
144 166 0
150 171 0
149 170 0
147 169 0
145 166 0
144 166 0
144 166 0
144 166 0
146 167 0
146 167 0
145 166 0
147 169 0
145 167 0
144 165 0
144 166 0
144 166 0
147 169 0
146 168 0
144 165 0
144 165 0
143 165 0
145 166 0
144 166 0
145 166 0
146 168 0
143 165 0
144 165 0
144 166 0
144 165 0
142 164 0
145 167 0
143 165 0
145 167 0
144 165 0
146 168 0
142 163 0
144 165 0
144 166 0
144 166 0
142 164 0
143 165 0
141 163 0
144 165 0
143 164 0
142 163 0
142 164 0
142 163 0
142 163 0
142 163 0
143 165 0
143 164 0
144 166 0
145 166 0
141 162 0
143 165 0
140 161 0
144 166 0
143 165 0
138 159 0
143 165 0
141 162 0
142 163 0
145 166 0
141 163 0
142 164 0
141 162 0
143 165 0
142 164 0
140 161 0
142 164 0
142 163 0
142 164 0
141 162 0
142 164 0
141 162 0
142 163 0
139 160 0
139 160 0
141 163 0
140 161 0
142 163 0
139 161 0
139 161 0
142 164 0
141 163 0
139 160 0
140 162 0
142 163 0
140 161 0
141 163 0
143 165 0
142 164 0
139 161 0
140 161 0
140 161 0
138 159 0
138 159 0
139 160 0
140 161 0
139 160 0
140 161 0
139 160 0
142 163 0
138 159 0
140 161 0
136 157 0
141 163 0
141 162 0
141 161 0
140 161 0
139 160 0
141 161 0
141 162 0
139 160 0
140 162 0
141 162 0
139 160 0
139 159 0
139 160 0
140 161 0
139 159 0
139 159 0
141 161 0
140 161 0
139 160 0
141 162 0
139 160 0
141 161 0
141 161 0
139 159 0
142 164 0
141 161 0
142 162 0
142 163 0
140 160 0
141 161 0
140 160 0
141 160 0
141 162 0
139 160 0
141 162 0
141 162 0
140 160 0
143 163 0
143 164 0
141 160 0
143 163 0
142 162 0
143 163 0
144 163 0
142 162 0
142 162 0
142 163 0
143 162 0
144 164 0
143 162 0
143 163 0
143 163 0
142 162 0
142 162 0
145 165 0
144 164 0
142 162 0
142 161 0
143 162 0
145 164 0
142 161 0
145 165 0
144 163 0
145 164 0
143 162 0
144 163 0
143 163 0
144 162 0
144 163 0
144 163 0
144 164 0
143 163 0
142 161 0
144 163 0
144 163 0
145 163 0
143 162 0
146 164 0
144 162 0
141 159 0
141 160 0
143 161 0
143 162 0
144 163 0
142 159 0
145 163 0
142 159 0
144 162 0
144 162 0
146 164 0
144 163 0
145 163 0
144 162 0
146 164 0
145 162 0
143 161 0
144 162 0
143 159 0
147 164 0
143 161 0
142 159 0
145 162 0
146 163 0
143 159 0
146 163 0
146 163 0
144 160 0
145 161 0
144 160 0
147 164 0
144 162 0
143 159 0
144 160 0
142 157 0
144 160 0
144 160 0
147 162 0
144 160 0
146 161 0
145 161 0
147 162 0
145 161 0
144 159 0
145 160 0
145 161 0
146 161 0
146 162 0
145 160 0
144 158 0
143 158 0
146 160 0
145 160 0
144 158 0
146 161 0
144 159 0
143 158 0
146 161 0
146 161 0
141 155 0
144 158 0
148 162 0
144 158 0
145 158 0
146 160 0
144 158 0
144 157 0
143 156 0
146 159 0
146 159 0
144 157 0
146 160 0
144 157 0
145 159 0
147 159 0
147 160 0
148 161 0
146 159 0
146 159 0
145 158 0
146 159 0
143 155 0
146 158 0
146 158 0
148 159 0
149 162 0
146 158 0
149 162 0
146 158 0
147 159 0
147 159 0
147 159 0
148 160 0
148 160 0
149 162 0
145 157 0
147 159 0
150 162 0
148 160 0
149 161 0
150 161 0
146 156 0
146 157 0
150 162 0
150 162 0
150 162 0
147 158 0
147 157 0
148 160 0
150 161 0
149 160 0
151 162 0
155 175 0
154 174 0
154 175 0
153 172 0
154 174 0
155 175 0
156 176 0
151 171 0
153 173 0
155 175 0
153 173 0
154 174 0
152 172 0
152 172 0
153 173 0
152 173 0
152 172 0
152 172 0
152 172 0
151 171 0
153 173 0
151 171 0
153 173 0
151 171 0
152 172 0
150 170 0
151 171 0
152 172 0
150 171 0
151 170 0
150 170 0
150 170 0
150 170 0
153 173 0
149 170 0
152 172 0
149 169 0
150 170 0
149 169 0
150 170 0
149 169 0
150 170 0
149 169 0
149 169 0
149 170 0
149 170 0
147 167 0
150 170 0
149 170 0
146 167 0
153 173 0
149 170 0
150 171 0
152 172 0
150 170 0
151 172 0
148 169 0
149 170 0
148 168 0
149 170 0
148 169 0
149 169 0
149 170 0
149 171 0
150 171 0
150 171 0
151 172 0
146 167 0
151 171 0
150 171 0
147 168 0
149 170 0
150 171 0
148 169 0
149 171 0
148 169 0
149 170 0
148 168 0
148 170 0
149 170 0
148 170 0
148 169 0
149 170 0
149 170 0
147 169 0
150 171 0
149 170 0
146 167 0
147 168 0
148 169 0
148 169 0
148 170 0
148 169 0
148 169 0
145 166 0
149 171 0
146 168 0
148 170 0
147 169 0
150 172 0
148 169 0
147 168 0
147 168 0
146 168 0
147 169 0
145 166 0
146 167 0
148 169 0
148 170 0
146 168 0
148 170 0
147 169 0
146 168 0
145 167 0
147 168 0
146 168 0
144 166 0
144 166 0
146 167 0
147 169 0
144 166 0
146 168 0
145 166 0
145 167 0
144 166 0
146 168 0
145 167 0
145 167 0
144 167 0
144 166 0
143 165 0
144 166 0
144 166 0
145 167 0
145 167 0
144 166 0
144 166 0
143 165 0
142 164 0
143 165 0
145 167 0
145 167 0
143 164 0
145 167 0
143 165 0
146 168 0
143 165 0
141 163 0
143 165 0
144 166 0
144 166 0
141 163 0
145 167 0
143 165 0
143 165 0
141 163 0
142 164 0
144 165 0
142 164 0
142 164 0
143 164 0
139 161 0
143 165 0
141 162 0
139 160 0
142 164 0
143 164 0
147 169 0
140 162 0
141 162 0
144 166 0
141 163 0
142 163 0
139 160 0
142 163 0
141 162 0
144 165 0
140 162 0
140 161 0
141 162 0
142 164 0
139 161 0
142 163 0
141 163 0
141 162 0
142 164 0
141 162 0
140 162 0
140 162 0
143 164 0
140 162 0
139 160 0
140 162 0
140 161 0
138 160 0
141 163 0
139 161 0
142 163 0
139 161 0
140 161 0
141 162 0
139 160 0
140 161 0
137 158 0
140 161 0
140 161 0
139 160 0
139 160 0
140 161 0
140 161 0
140 161 0
141 162 0
140 161 0
139 160 0
139 160 0
141 162 0
139 160 0
140 161 0
143 164 0
140 161 0
143 164 0
140 161 0
140 160 0
141 161 0
141 162 0
141 163 0
142 162 0
143 163 0
142 162 0
140 161 0
142 162 0
144 164 0
142 163 0
144 165 0
141 161 0
140 160 0
139 160 0
141 161 0
144 164 0
142 163 0
142 162 0
143 163 0
141 161 0
142 162 0
143 163 0
141 161 0
142 162 0
144 164 0
143 163 0
142 162 0
145 165 0
141 162 0
142 162 0
143 164 0
144 164 0
145 165 0
143 163 0
142 162 0
143 163 0
142 162 0
145 165 0
143 163 0
144 164 0
146 165 0
142 161 0
144 164 0
143 163 0
144 164 0
145 164 0
144 163 0
145 164 0
144 164 0
143 162 0
144 163 0
145 165 0
143 162 0
145 164 0
144 164 0
143 162 0
144 163 0
145 163 0
145 163 0
143 162 0
144 163 0
146 165 0
144 163 0
142 160 0
144 162 0
145 164 0
144 162 0
145 164 0
142 160 0
146 164 0
143 162 0
146 164 0
144 162 0
145 163 0
143 161 0
145 162 0
143 161 0
147 165 0
144 162 0
145 162 0
144 162 0
144 162 0
147 165 0
144 161 0
146 163 0
145 163 0
144 161 0
144 161 0
148 166 0
143 159 0
145 162 0
145 162 0
144 161 0
144 161 0
145 161 0
146 163 0
145 162 0
146 163 0
142 159 0
145 162 0
145 161 0
146 163 0
145 161 0
146 162 0
145 161 0
147 163 0
143 159 0
145 161 0
143 158 0
145 160 0
143 158 0
146 161 0
146 160 0
143 158 0
145 160 0
146 161 0
144 159 0
146 161 0
146 161 0
145 159 0
147 162 0
147 162 0
143 157 0
147 162 0
147 161 0
145 159 0
145 159 0
144 158 0
144 159 0
144 158 0
143 157 0
146 160 0
145 159 0
146 160 0
147 160 0
147 161 0
145 159 0
143 156 0
145 158 0
145 158 0
146 159 0
148 161 0
146 159 0
147 160 0
146 158 0
148 161 0
146 159 0
144 157 0
147 160 0
145 157 0
148 161 0
146 158 0
146 158 0
147 160 0
146 159 0
148 159 0
147 158 0
146 157 0
144 155 0
147 160 0
149 161 0
147 158 0
147 158 0
149 161 0
148 160 0
150 162 0
148 160 0
148 159 0
148 159 0
149 160 0
149 161 0
150 162 0
148 159 0
149 160 0
150 163 0
151 163 0
151 164 0
155 175 0
153 173 0
155 175 0
155 176 0
153 173 0
153 173 0
154 174 0
152 172 0
152 172 0
154 174 0
153 173 0
154 174 0
153 173 0
153 173 0
153 172 0
152 172 0
152 171 0
151 171 0
150 170 0
154 174 0
152 172 0
153 173 0
154 174 0
151 171 0
152 172 0
152 173 0
152 173 0
151 171 0
151 171 0
150 170 0
151 171 0
151 172 0
152 172 0
150 170 0
152 172 0
150 170 0
151 171 0
151 171 0
148 168 0
153 174 0
150 170 0
150 170 0
152 172 0
149 170 0
150 171 0
149 169 0
150 171 0
149 169 0
150 171 0
149 169 0
148 169 0
150 170 0
150 171 0
150 171 0
150 171 0
150 171 0
149 170 0
152 173 0
150 171 0
149 170 0
150 171 0
150 170 0
148 169 0
147 167 0
149 170 0
149 170 0
148 168 0
150 171 0
147 168 0
147 168 0
147 168 0
149 170 0
149 170 0
150 171 0
149 170 0
150 171 0
149 170 0
149 170 0
151 172 0
149 169 0
149 171 0
148 169 0
149 170 0
147 168 0
149 170 0
150 172 0
149 170 0
148 170 0
147 168 0
148 170 0
147 169 0
149 170 0
147 169 0
147 169 0
148 170 0
148 169 0
149 170 0
148 169 0
148 169 0
147 168 0
148 170 0
147 169 0
146 168 0
150 172 0
146 167 0
147 168 0
144 166 0
147 169 0
146 168 0
145 167 0
147 168 0
147 168 0
148 170 0
147 169 0
145 167 0
146 168 0
146 168 0
145 167 0
145 167 0
146 168 0
146 168 0
145 166 0
146 168 0
146 167 0
147 168 0
146 168 0
143 164 0
144 166 0
147 168 0
146 169 0
145 167 0
146 168 0
142 164 0
143 165 0
143 165 0
144 166 0
144 165 0
144 166 0
144 166 0
144 165 0
143 165 0
144 166 0
146 167 0
142 164 0
144 166 0
142 164 0
144 166 0
145 167 0
142 163 0
142 164 0
143 165 0
145 167 0
144 166 0
142 164 0
143 165 0
141 162 0
142 164 0
142 164 0
143 165 0
144 166 0
142 164 0
141 162 0
143 164 0
142 163 0
139 160 0
143 165 0
143 164 0
142 164 0
142 163 0
139 160 0
142 163 0
141 163 0
142 163 0
142 164 0
142 163 0
143 164 0
139 161 0
141 163 0
142 164 0
139 161 0
140 162 0
137 159 0
142 163 0
139 161 0
141 162 0
139 161 0
143 165 0
139 160 0
140 162 0
141 162 0
143 164 0
140 161 0
142 164 0
140 161 0
140 162 0
139 160 0
141 162 0
141 162 0
142 163 0
138 160 0
141 163 0
141 162 0
143 164 0
141 162 0
142 163 0
141 163 0
144 165 0
138 159 0
140 161 0
142 163 0
141 162 0
139 159 0
140 161 0
140 161 0
140 161 0
139 160 0
141 162 0
140 160 0
142 163 0
144 165 0
142 163 0
143 163 0
143 164 0
143 164 0
143 164 0
143 164 0
141 162 0
139 159 0
140 160 0
141 161 0
144 164 0
141 163 0
141 161 0
141 161 0
141 161 0
141 162 0
141 162 0
143 164 0
144 166 0
142 163 0
143 164 0
141 161 0
143 163 0
142 163 0
142 163 0
138 158 0
143 163 0
143 163 0
141 161 0
142 162 0
143 163 0
142 162 0
144 165 0
143 162 0
141 162 0
144 164 0
144 164 0
144 164 0
147 168 0
143 163 0
143 163 0
145 165 0
143 163 0
143 162 0
143 163 0
143 163 0
143 162 0
143 162 0
141 160 0
143 162 0
144 163 0
140 159 0
146 165 0
143 161 0
143 162 0
143 162 0
146 164 0
143 162 0
144 163 0
144 163 0
142 161 0
145 165 0
144 163 0
141 160 0
145 164 0
147 166 0
145 164 0
144 162 0
146 165 0
141 159 0
144 162 0
144 162 0
146 164 0
142 160 0
147 165 0
145 164 0
143 161 0
144 162 0
145 163 0
146 163 0
145 163 0
145 163 0
144 162 0
145 163 0
144 161 0
145 163 0
145 162 0
146 163 0
146 163 0
143 161 0
145 163 0
145 162 0
146 163 0
144 160 0
145 162 0
147 164 0
145 161 0
147 164 0
147 163 0
144 160 0
145 162 0
145 161 0
143 159 0
145 161 0
146 162 0
147 164 0
148 165 0
145 161 0
144 160 0
145 161 0
144 160 0
143 159 0
147 164 0
146 162 0
148 163 0
144 160 0
147 163 0
145 160 0
147 162 0
146 160 0
145 160 0
145 161 0
146 161 0
146 161 0
143 157 0
146 160 0
145 160 0
146 160 0
146 160 0
144 159 0
145 160 0
148 162 0
147 161 0
146 161 0
145 158 0
146 160 0
146 160 0
145 158 0
147 161 0
146 159 0
146 159 0
144 158 0
147 161 0
146 159 0
147 160 0
146 160 0
147 161 0
144 157 0
147 161 0
145 158 0
146 159 0
146 159 0
147 161 0
147 159 0
145 157 0
147 158 0
149 161 0
148 161 0
147 160 0
149 163 0
148 161 0
148 160 0
147 159 0
146 158 0
147 159 0
148 160 0
148 159 0
149 161 0
148 159 0
149 160 0
148 159 0
149 161 0
149 161 0
150 163 0
149 162 0
149 160 0
150 163 0
148 160 0
151 164 0
151 163 0
153 173 0
155 175 0
155 175 0
153 173 0
155 175 0
153 173 0
153 173 0
155 175 0
154 175 0
154 174 0
152 172 0
153 173 0
155 175 0
154 174 0
152 172 0
154 174 0
153 173 0
153 173 0
153 173 0
154 174 0
152 172 0
152 172 0
153 173 0
154 174 0
153 174 0
153 174 0
152 172 0
153 173 0
152 172 0
152 172 0
153 173 0
152 172 0
151 171 0
151 171 0
151 172 0
152 172 0
151 171 0
150 171 0
152 172 0
149 169 0
150 170 0
149 169 0
149 169 0
150 171 0
152 172 0
149 169 0
150 171 0
150 171 0
152 172 0
151 171 0
148 168 0
148 169 0
149 170 0
150 171 0
150 170 0
150 170 0
150 170 0
151 171 0
149 170 0
149 170 0
149 170 0
147 168 0
149 170 0
149 169 0
149 170 0
147 168 0
149 170 0
149 170 0
151 172 0
149 170 0
150 171 0
150 171 0
147 168 0
147 168 0
150 171 0
148 169 0
149 170 0
149 171 0
149 171 0
151 172 0
148 170 0
147 168 0
149 170 0
147 168 0
149 170 0
149 170 0
148 170 0
147 168 0
145 166 0
149 170 0
150 171 0
148 170 0
147 169 0
147 169 0
151 173 0
148 169 0
148 170 0
149 171 0
148 169 0
147 168 0
147 168 0
147 169 0
150 171 0
146 168 0
146 168 0
147 169 0
145 167 0
147 169 0
147 169 0
145 167 0
146 168 0
147 169 0
144 165 0
147 169 0
147 168 0
148 170 0
148 170 0
146 167 0
147 169 0
146 168 0
145 167 0
147 169 0
145 167 0
144 166 0
145 167 0
145 167 0
145 167 0
145 167 0
147 168 0
144 166 0
143 164 0
147 168 0
144 166 0
144 167 0
144 166 0
144 166 0
145 167 0
148 170 0
142 164 0
144 166 0
145 167 0
144 166 0
143 165 0
143 165 0
146 168 0
143 164 0
145 167 0
144 166 0
145 167 0
143 164 0
145 167 0
144 165 0
142 163 0
143 165 0
143 164 0
144 166 0
142 164 0
145 167 0
144 166 0
142 164 0
142 164 0
144 167 0
142 164 0
141 163 0
141 163 0
142 163 0
143 165 0
143 165 0
142 164 0
144 165 0
143 165 0
142 164 0
143 164 0
142 164 0
144 166 0
143 165 0
144 165 0
142 163 0
143 164 0
144 166 0
142 163 0
142 163 0
143 164 0
143 165 0
140 161 0
140 162 0
143 164 0
142 164 0
140 161 0
141 163 0
143 164 0
141 162 0
143 165 0
139 160 0
142 163 0
139 161 0
142 163 0
143 164 0
139 160 0
141 162 0
141 162 0
140 162 0
141 162 0
141 162 0
140 161 0
141 162 0
141 162 0
140 161 0
141 162 0
141 162 0
141 162 0
142 163 0
141 161 0
142 162 0
140 161 0
141 162 0
142 162 0
143 164 0
143 164 0
142 162 0
141 162 0
140 161 0
139 160 0
142 164 0
141 161 0
142 163 0
144 164 0
142 162 0
142 163 0
139 160 0
139 160 0
143 164 0
142 162 0
143 163 0
142 162 0
142 163 0
140 161 0
145 166 0
142 163 0
142 163 0
141 162 0
143 164 0
142 163 0
144 164 0
144 164 0
143 163 0
140 160 0
144 164 0
141 161 0
142 162 0
143 163 0
143 164 0
142 162 0
141 161 0
142 162 0
143 163 0
144 164 0
143 163 0
141 161 0
142 161 0
142 162 0
142 162 0
145 165 0
141 161 0
143 162 0
143 163 0
145 165 0
143 163 0
144 163 0
143 162 0
143 163 0
143 163 0
145 165 0
147 167 0
143 163 0
144 164 0
142 162 0
147 166 0
144 162 0
145 165 0
146 166 0
143 161 0
144 163 0
145 164 0
145 165 0
143 162 0
143 162 0
147 165 0
144 163 0
143 161 0
144 162 0
142 160 0
145 164 0
144 163 0
145 164 0
144 161 0
144 163 0
144 163 0
146 164 0
145 164 0
143 161 0
147 166 0
147 165 0
145 162 0
146 164 0
145 163 0
142 160 0
146 163 0
147 165 0
145 163 0
146 164 0
147 165 0
145 163 0
144 161 0
146 163 0
146 163 0
144 161 0
146 163 0
146 162 0
148 165 0
146 163 0
146 162 0
146 162 0
144 160 0
146 162 0
146 163 0
146 163 0
145 161 0
145 161 0
146 163 0
149 166 0
147 163 0
145 162 0
146 162 0
147 164 0
146 162 0
146 162 0
146 162 0
144 159 0
146 162 0
146 163 0
146 161 0
145 160 0
146 161 0
148 164 0
145 160 0
146 161 0
147 162 0
146 161 0
146 161 0
146 161 0
147 162 0
146 160 0
146 161 0
146 160 0
146 160 0
145 159 0
148 162 0
146 160 0
145 159 0
148 162 0
146 159 0
147 161 0
146 159 0
148 162 0
143 156 0
147 161 0
146 158 0
146 159 0
148 162 0
149 163 0
150 163 0
149 162 0
147 160 0
148 161 0
146 159 0
146 158 0
149 162 0
146 159 0
149 162 0
146 159 0
147 160 0
148 160 0
149 163 0
149 162 0
147 159 0
147 159 0
150 162 0
151 163 0
148 160 0
148 160 0
149 161 0
147 159 0
151 163 0
148 160 0
148 161 0
148 161 0
149 162 0
151 163 0
150 162 0
156 176 0
154 174 0
152 172 0
155 175 0
155 175 0
155 175 0
155 175 0
154 174 0
153 174 0
155 175 0
153 173 0
154 174 0
153 173 0
155 175 0
153 173 0
152 172 0
153 173 0
152 173 0
153 173 0
151 171 0
153 173 0
151 171 0
152 172 0
152 172 0
151 171 0
153 173 0
153 173 0
153 173 0
151 172 0
152 172 0
153 173 0
151 172 0
149 169 0
151 172 0
152 173 0
150 170 0
151 171 0
149 169 0
151 171 0
151 172 0
151 172 0
150 170 0
151 171 0
150 171 0
151 172 0
150 170 0
151 172 0
150 171 0
148 169 0
151 172 0
151 172 0
149 169 0
150 172 0
150 171 0
150 171 0
151 172 0
150 171 0
150 171 0
150 171 0
147 168 0
149 169 0
150 171 0
149 170 0
148 169 0
149 170 0
151 173 0
149 170 0
150 171 0
150 170 0
148 169 0
150 171 0
150 171 0
148 169 0
150 171 0
147 169 0
150 171 0
150 171 0
147 168 0
148 170 0
150 171 0
147 169 0
149 171 0
150 172 0
150 172 0
149 171 0
146 168 0
151 172 0
147 169 0
148 169 0
147 168 0
147 169 0
148 170 0
147 169 0
148 169 0
149 170 0
149 171 0
148 170 0
147 169 0
147 169 0
148 170 0
148 169 0
148 170 0
149 170 0
146 168 0
147 168 0
147 168 0
146 168 0
146 168 0
146 168 0
147 169 0
147 170 0
147 169 0
150 172 0
145 167 0
148 170 0
147 169 0
148 169 0
145 167 0
147 169 0
147 169 0
147 169 0
148 170 0
145 167 0
146 169 0
144 166 0
145 166 0
146 168 0
145 167 0
147 169 0
145 166 0
146 168 0
146 168 0
146 167 0
145 167 0
145 167 0
147 168 0
145 167 0
148 170 0
143 165 0
142 163 0
143 165 0
142 164 0
144 165 0
145 167 0
144 166 0
146 168 0
145 167 0
143 165 0
144 165 0
143 165 0
143 165 0
143 164 0
145 167 0
145 167 0
146 169 0
144 166 0
144 165 0
145 167 0
143 164 0
144 166 0
142 164 0
144 166 0
144 165 0
142 164 0
142 163 0
142 163 0
145 167 0
142 163 0
144 166 0
143 165 0
143 165 0
143 164 0
143 165 0
143 165 0
141 163 0
144 166 0
141 163 0
141 162 0
141 162 0
142 164 0
141 163 0
142 163 0
142 163 0
144 165 0
138 160 0
143 164 0
142 164 0
141 162 0
141 163 0
143 165 0
140 161 0
144 165 0
142 163 0
142 163 0
142 163 0
142 163 0
142 163 0
143 164 0
142 163 0
141 162 0
139 161 0
141 162 0
139 161 0
142 164 0
143 164 0
140 161 0
143 164 0
142 163 0
141 161 0
140 161 0
143 164 0
140 161 0
140 160 0
141 162 0
142 163 0
141 162 0
142 164 0
141 162 0
142 163 0
144 165 0
143 164 0
141 161 0
143 163 0
140 161 0
141 162 0
141 162 0
142 163 0
141 162 0
143 164 0
143 164 0
143 164 0
143 164 0
145 166 0
144 165 0
142 163 0
144 165 0
141 162 0
141 162 0
143 163 0
145 165 0
141 161 0
141 161 0
142 162 0
141 162 0
141 162 0
141 161 0
145 166 0
142 163 0
143 164 0
144 165 0
144 165 0
146 167 0
145 165 0
143 163 0
146 167 0
142 162 0
142 162 0
144 164 0
145 166 0
143 163 0
145 165 0
144 164 0
146 166 0
142 162 0
144 164 0
142 162 0
143 163 0
145 165 0
142 162 0
146 166 0
144 164 0
143 163 0
145 165 0
145 164 0
145 166 0
146 166 0
143 162 0
144 164 0
144 163 0
145 164 0
146 165 0
145 164 0
144 163 0
146 164 0
145 163 0
144 163 0
144 163 0
144 163 0
145 164 0
147 166 0
143 162 0
144 162 0
142 160 0
145 164 0
144 163 0
145 163 0
145 164 0
147 165 0
145 164 0
146 165 0
146 163 0
145 164 0
146 164 0
146 163 0
147 165 0
145 163 0
145 162 0
147 165 0
146 164 0
148 166 0
146 164 0
146 164 0
147 164 0
143 160 0
147 163 0
147 165 0
145 163 0
145 162 0
145 162 0
145 163 0
146 163 0
145 162 0
145 162 0
145 161 0
146 162 0
147 164 0
145 161 0
146 162 0
146 162 0
144 161 0
144 160 0
145 161 0
147 163 0
146 162 0
147 163 0
144 159 0
145 162 0
144 159 0
145 161 0
147 163 0
146 162 0
145 161 0
148 163 0
144 159 0
146 161 0
146 161 0
146 161 0
146 161 0
144 160 0
146 161 0
146 161 0
146 161 0
148 163 0
147 163 0
146 160 0
146 160 0
147 161 0
146 160 0
146 159 0
145 157 0
147 161 0
145 158 0
145 159 0
148 161 0
145 158 0
146 159 0
146 159 0
147 161 0
146 160 0
147 160 0
146 159 0
147 161 0
147 160 0
147 161 0
147 161 0
148 160 0
146 159 0
148 161 0
146 159 0
148 161 0
149 161 0
146 160 0
149 162 0
149 162 0
148 161 0
148 161 0
148 161 0
148 161 0
147 158 0
149 162 0
149 162 0
149 162 0
149 162 0
146 158 0
148 159 0
149 162 0
149 161 0
148 160 0
150 161 0
151 164 0
155 175 0
154 175 0
155 176 0
154 174 0
155 175 0
154 174 0
155 175 0
154 174 0
153 173 0
154 174 0
153 173 0
154 174 0
156 176 0
153 173 0
152 172 0
154 174 0
154 174 0
153 172 0
152 172 0
154 174 0
152 173 0
153 174 0
151 171 0
152 173 0
151 171 0
151 172 0
152 173 0
152 173 0
150 170 0
152 173 0
151 171 0
151 171 0
152 173 0
151 171 0
152 173 0
152 172 0
152 172 0
151 172 0
151 172 0
152 173 0
151 172 0
151 171 0
152 173 0
149 170 0
151 172 0
150 170 0
150 171 0
149 169 0
151 172 0
148 168 0
150 171 0
151 172 0
150 171 0
151 171 0
149 170 0
150 170 0
149 170 0
149 170 0
149 170 0
152 173 0
151 172 0
148 169 0
149 170 0
151 172 0
149 170 0
148 169 0
150 171 0
149 171 0
150 171 0
151 172 0
150 172 0
149 170 0
150 171 0
149 170 0
149 171 0
150 171 0
150 171 0
148 170 0
149 170 0
150 172 0
148 169 0
150 171 0
147 169 0
150 172 0
148 169 0
151 172 0
149 170 0
149 170 0
149 170 0
148 169 0
149 171 0
150 172 0
149 171 0
148 169 0
149 171 0
149 170 0
147 169 0
148 170 0
147 168 0
149 171 0
150 172 0
149 170 0
147 169 0
147 168 0
148 170 0
146 168 0
146 168 0
148 170 0
149 171 0
149 171 0
148 169 0
147 169 0
146 168 0
147 169 0
145 167 0
146 168 0
147 169 0
147 169 0
146 168 0
146 167 0
146 168 0
145 166 0
146 168 0
144 165 0
145 166 0
145 167 0
145 166 0
145 167 0
147 169 0
148 170 0
145 167 0
146 168 0
146 168 0
144 166 0
144 166 0
147 169 0
146 168 0
148 170 0
144 166 0
142 164 0
143 165 0
144 166 0
146 167 0
146 168 0
146 168 0
146 167 0
144 165 0
145 167 0
144 166 0
146 167 0
144 166 0
146 168 0
144 166 0
144 166 0
143 165 0
143 164 0
146 169 0
144 167 0
142 164 0
143 165 0
145 167 0
144 166 0
145 167 0
143 165 0
144 165 0
144 166 0
144 165 0
144 166 0
145 167 0
143 165 0
142 163 0
142 163 0
144 166 0
144 165 0
144 166 0
144 166 0
142 163 0
141 163 0
141 163 0
143 165 0
142 163 0
142 164 0
141 162 0
142 163 0
144 165 0
142 163 0
144 165 0
142 164 0
142 163 0
143 164 0
141 162 0
141 162 0
143 164 0
143 165 0
141 163 0
142 164 0
140 161 0
142 163 0
142 164 0
141 163 0
141 162 0
144 166 0
142 164 0
143 163 0
143 164 0
141 162 0
142 163 0
143 165 0
141 162 0
143 164 0
143 164 0
141 163 0
141 162 0
140 161 0
141 161 0
142 163 0
143 164 0
142 163 0
143 164 0
142 163 0
145 166 0
142 163 0
141 162 0
142 163 0
144 165 0
142 163 0
143 164 0
139 160 0
143 163 0
142 163 0
143 163 0
142 163 0
141 162 0
144 165 0
144 165 0
143 164 0
142 163 0
143 164 0
145 166 0
143 163 0
143 163 0
142 162 0
143 164 0
144 164 0
144 165 0
143 164 0
143 164 0
142 163 0
142 163 0
143 164 0
143 164 0
143 163 0
143 163 0
146 167 0
144 165 0
144 164 0
146 166 0
146 167 0
143 163 0
144 165 0
143 163 0
143 164 0
145 165 0
146 166 0
144 164 0
144 163 0
143 163 0
146 166 0
145 164 0
145 165 0
143 163 0
144 164 0
141 160 0
145 165 0
142 162 0
145 165 0
147 167 0
145 165 0
145 165 0
144 164 0
143 163 0
144 163 0
146 165 0
146 164 0
146 165 0
145 164 0
145 165 0
146 165 0
145 164 0
148 167 0
144 162 0
144 162 0
146 165 0
145 163 0
146 164 0
145 164 0
147 166 0
145 163 0
144 161 0
145 163 0
144 163 0
144 162 0
143 161 0
144 163 0
145 162 0
148 165 0
144 162 0
144 162 0
146 163 0
144 162 0
144 162 0
146 163 0
149 167 0
145 162 0
146 162 0
146 164 0
144 162 0
145 163 0
147 165 0
148 165 0
147 164 0
147 164 0
146 163 0
147 164 0
146 163 0
147 164 0
147 164 0
149 166 0
146 162 0
148 165 0
145 161 0
148 164 0
145 161 0
146 162 0
149 166 0
146 162 0
147 164 0
148 164 0
146 162 0
147 164 0
149 165 0
145 161 0
146 162 0
148 164 0
148 164 0
145 159 0
146 162 0
147 162 0
143 158 0
144 160 0
147 162 0
147 162 0
147 162 0
145 160 0
143 157 0
147 161 0
147 161 0
145 160 0
147 162 0
149 164 0
145 159 0
147 161 0
147 162 0
147 161 0
147 161 0
148 162 0
148 162 0
147 162 0
147 161 0
144 157 0
148 162 0
148 161 0
147 161 0
147 160 0
145 158 0
149 162 0
148 161 0
144 157 0
148 161 0
146 159 0
147 160 0
148 162 0
149 162 0
149 162 0
148 161 0
148 162 0
146 159 0
149 162 0
148 161 0
150 163 0
151 164 0
149 161 0
148 161 0
150 162 0
151 164 0
150 163 0
151 162 0
149 161 0
151 164 0
151 164 0
154 175 0
155 175 0
155 176 0
154 174 0
155 175 0
153 173 0
153 173 0
154 174 0
154 173 0
154 175 0
154 175 0
154 174 0
154 174 0
155 175 0
155 175 0
154 174 0
153 173 0
154 175 0
153 173 0
154 174 0
153 174 0
152 172 0
152 172 0
152 173 0
153 173 0
151 172 0
153 173 0
152 173 0
153 173 0
150 170 0
152 172 0
153 174 0
151 172 0
152 173 0
152 172 0
153 173 0
153 173 0
149 169 0
152 173 0
152 172 0
151 172 0
150 170 0
151 172 0
151 172 0
150 171 0
151 172 0
151 172 0
149 170 0
152 173 0
150 171 0
151 172 0
150 171 0
152 174 0
150 170 0
151 172 0
151 173 0
151 172 0
151 172 0
151 173 0
152 173 0
150 171 0
149 170 0
149 170 0
151 172 0
150 171 0
151 173 0
148 169 0
149 170 0
149 170 0
151 173 0
151 172 0
150 172 0
149 170 0
149 170 0
152 173 0
148 170 0
149 170 0
149 170 0
148 169 0
149 171 0
150 171 0
148 170 0
149 171 0
149 170 0
148 170 0
149 170 0
150 172 0
148 170 0
148 170 0
150 171 0
148 169 0
150 172 0
149 170 0
149 171 0
150 172 0
148 170 0
149 171 0
147 169 0
147 168 0
149 170 0
150 171 0
146 168 0
148 170 0
148 169 0
150 172 0
147 168 0
146 168 0
148 170 0
148 170 0
148 170 0
149 171 0
147 169 0
148 170 0
147 168 0
148 169 0
147 168 0
148 170 0
147 168 0
149 171 0
148 170 0
146 168 0
148 170 0
148 170 0
147 169 0
147 169 0
146 168 0
145 167 0
149 170 0
145 167 0
147 169 0
147 168 0
146 167 0
146 168 0
146 169 0
146 168 0
145 167 0
146 168 0
146 168 0
146 168 0
145 167 0
147 168 0
142 163 0
144 166 0
146 168 0
146 168 0
145 167 0
146 168 0
145 167 0
145 167 0
144 165 0
147 169 0
142 164 0
143 165 0
144 166 0
145 166 0
145 167 0
143 165 0
144 166 0
144 166 0
143 165 0
143 165 0
145 167 0
143 164 0
142 163 0
141 163 0
142 163 0
143 164 0
142 164 0
141 163 0
144 166 0
143 165 0
142 164 0
143 165 0
144 166 0
142 163 0
145 167 0
142 164 0
144 165 0
142 163 0
142 164 0
141 162 0
141 163 0
143 165 0
145 166 0
144 166 0
142 163 0
144 165 0
144 166 0
140 161 0
145 167 0
143 165 0
142 163 0
140 161 0
142 163 0
142 164 0
142 164 0
142 164 0
143 164 0
144 166 0
143 164 0
143 164 0
142 164 0
141 162 0
144 165 0
143 164 0
144 166 0
142 163 0
141 162 0
142 163 0
144 166 0
143 164 0
142 163 0
143 165 0
143 164 0
141 163 0
142 163 0
139 160 0
141 162 0
143 165 0
143 164 0
142 163 0
144 165 0
143 164 0
142 164 0
144 165 0
141 162 0
143 164 0
141 162 0
142 163 0
144 165 0
144 165 0
141 162 0
146 167 0
141 161 0
142 163 0
144 164 0
146 166 0
143 164 0
143 163 0
140 161 0
142 163 0
144 165 0
141 162 0
142 162 0
141 161 0
144 165 0
143 164 0
145 165 0
146 167 0
144 164 0
144 165 0
143 164 0
142 162 0
143 163 0
145 165 0
144 165 0
146 167 0
145 166 0
145 166 0
146 166 0
146 166 0
144 164 0
145 165 0
144 164 0
146 166 0
146 166 0
146 166 0
144 164 0
144 164 0
144 164 0
145 164 0
144 164 0
147 167 0
145 164 0
146 166 0
146 165 0
144 164 0
145 164 0
144 163 0
145 165 0
144 163 0
149 168 0
145 164 0
147 167 0
147 166 0
145 164 0
146 164 0
144 163 0
146 165 0
145 163 0
146 165 0
147 166 0
146 164 0
146 165 0
145 165 0
144 163 0
144 162 0
145 164 0
149 168 0
147 165 0
146 165 0
144 162 0
146 164 0
146 164 0
145 162 0
146 164 0
145 164 0
145 164 0
148 166 0
147 165 0
145 162 0
144 162 0
147 165 0
148 167 0
146 164 0
146 164 0
146 163 0
145 162 0
146 163 0
149 166 0
147 165 0
146 163 0
148 165 0
149 166 0
146 163 0
148 165 0
145 163 0
146 163 0
147 164 0
148 164 0
147 164 0
148 165 0
145 162 0
147 164 0
144 161 0
146 162 0
147 163 0
146 163 0
147 164 0
147 163 0
146 162 0
147 163 0
147 163 0
148 163 0
147 163 0
144 160 0
146 161 0
146 162 0
145 160 0
148 163 0
149 165 0
148 164 0
145 160 0
146 161 0
147 162 0
146 161 0
147 163 0
146 161 0
148 163 0
147 162 0
145 159 0
149 164 0
149 164 0
147 161 0
146 161 0
148 163 0
149 164 0
147 162 0
146 159 0
147 161 0
147 161 0
145 160 0
149 163 0
147 161 0
147 160 0
150 164 0
147 161 0
147 160 0
147 160 0
147 161 0
148 160 0
146 159 0
150 163 0
148 161 0
151 164 0
151 164 0
149 161 0
147 160 0
148 161 0
148 160 0
151 164 0
149 162 0
149 161 0
150 162 0
148 161 0
149 162 0
149 161 0
150 163 0
149 162 0
147 159 0
154 174 0
153 174 0
155 175 0
156 176 0
156 176 0
155 175 0
156 176 0
154 174 0
153 173 0
153 173 0
155 176 0
155 176 0
155 175 0
154 174 0
151 171 0
152 172 0
153 174 0
152 173 0
152 172 0
154 175 0
153 173 0
153 174 0
152 173 0
153 174 0
152 172 0
151 171 0
152 173 0
151 172 0
151 171 0
153 173 0
151 172 0
152 172 0
152 173 0
152 173 0
151 172 0
152 173 0
151 172 0
151 172 0
148 168 0
151 172 0
151 171 0
149 170 0
151 172 0
152 172 0
151 172 0
148 169 0
151 172 0
150 171 0
150 171 0
151 171 0
150 171 0
151 172 0
151 172 0
151 172 0
150 171 0
151 172 0
150 171 0
149 170 0
148 170 0
151 172 0
150 171 0
151 172 0
147 167 0
151 172 0
150 171 0
150 171 0
151 173 0
150 172 0
153 174 0
150 172 0
149 171 0
150 171 0
149 170 0
148 170 0
149 171 0
149 170 0
149 170 0
146 167 0
150 171 0
149 170 0
149 171 0
149 170 0
149 171 0
148 169 0
147 169 0
149 171 0
150 171 0
150 171 0
147 169 0
148 169 0
149 171 0
147 169 0
148 170 0
150 172 0
148 170 0
150 172 0
148 169 0
147 169 0
148 170 0
150 172 0
147 169 0
148 170 0
149 171 0
147 168 0
148 170 0
147 168 0
149 172 0
146 168 0
148 169 0
148 170 0
147 169 0
148 170 0
148 169 0
146 168 0
149 171 0
149 171 0
147 169 0
144 166 0
146 167 0
145 167 0
147 169 0
145 167 0
148 170 0
146 168 0
145 167 0
147 169 0
144 165 0
147 169 0
148 171 0
147 169 0
148 170 0
147 168 0
148 170 0
146 168 0
147 169 0
148 170 0
146 168 0
143 164 0
146 168 0
146 169 0
144 166 0
146 168 0
143 165 0
144 166 0
146 168 0
145 167 0
146 168 0
147 169 0
145 167 0
145 167 0
143 165 0
144 165 0
143 165 0
144 166 0
147 169 0
145 167 0
145 166 0
145 167 0
146 168 0
145 167 0
143 165 0
143 164 0
142 163 0
141 163 0
143 165 0
144 165 0
144 166 0
144 166 0
146 168 0
143 164 0
146 168 0
141 163 0
145 167 0
144 166 0
144 166 0
143 164 0
143 165 0
144 165 0
143 164 0
144 166 0
142 164 0
143 165 0
141 164 0
143 165 0
146 167 0
142 163 0
147 169 0
143 165 0
142 163 0
141 163 0
142 163 0
140 161 0
143 165 0
143 164 0
140 162 0
144 166 0
141 163 0
144 166 0
144 165 0
143 164 0
142 163 0
141 161 0
142 163 0
144 166 0
143 165 0
143 164 0
143 165 0
143 164 0
143 164 0
141 163 0
142 163 0
143 165 0
143 165 0
142 163 0
145 166 0
143 165 0
144 165 0
142 163 0
144 165 0
144 165 0
143 164 0
141 162 0
143 164 0
141 162 0
144 165 0
142 163 0
143 164 0
143 165 0
144 165 0
143 164 0
144 166 0
143 163 0
143 164 0
146 167 0
144 165 0
145 167 0
143 164 0
144 165 0
142 163 0
142 163 0
144 165 0
144 165 0
143 164 0
144 165 0
146 167 0
145 165 0
142 163 0
145 165 0
143 163 0
142 162 0
142 163 0
145 165 0
141 161 0
144 164 0
147 167 0
144 165 0
146 166 0
146 167 0
143 163 0
143 162 0
144 164 0
142 163 0
145 165 0
147 167 0
146 167 0
147 167 0
145 165 0
145 165 0
144 164 0
145 165 0
146 166 0
146 166 0
146 166 0
147 167 0
144 164 0
143 163 0
145 164 0
144 163 0
146 165 0
146 166 0
143 163 0
148 167 0
146 165 0
146 166 0
146 165 0
147 167 0
147 166 0
145 165 0
148 167 0
149 169 0
146 164 0
144 163 0
144 163 0
145 164 0
145 163 0
145 164 0
146 165 0
146 165 0
147 166 0
147 166 0
148 166 0
147 166 0
147 166 0
145 164 0
146 164 0
146 165 0
144 162 0
147 165 0
148 166 0
148 166 0
147 164 0
146 163 0
146 164 0
145 163 0
145 162 0
146 164 0
147 166 0
148 165 0
147 164 0
146 164 0
145 162 0
146 164 0
145 161 0
146 164 0
147 165 0
147 164 0
147 164 0
149 167 0
148 164 0
149 166 0
147 165 0
145 162 0
147 163 0
147 164 0
147 162 0
145 161 0
148 165 0
145 162 0
147 164 0
146 163 0
146 162 0
147 163 0
148 164 0
147 162 0
148 163 0
148 163 0
146 162 0
148 164 0
146 162 0
147 164 0
148 164 0
146 161 0
148 163 0
146 161 0
147 162 0
146 161 0
147 161 0
146 162 0
146 161 0
148 163 0
147 162 0
147 162 0
146 161 0
148 162 0
147 162 0
147 162 0
150 164 0
147 161 0
147 160 0
147 161 0
148 162 0
150 164 0
148 162 0
149 164 0
148 162 0
146 161 0
147 161 0
148 162 0
149 163 0
147 160 0
149 163 0
148 161 0
147 161 0
148 161 0
149 163 0
147 159 0
149 162 0
149 162 0
150 163 0
148 160 0
150 163 0
150 163 0
148 160 0
150 162 0
152 165 0
148 160 0
148 160 0
148 161 0
151 164 0
149 161 0
155 175 0
153 172 0
154 174 0
152 173 0
155 175 0
155 175 0
154 174 0
155 176 0
155 176 0
155 175 0
153 173 0
153 173 0
154 174 0
154 174 0
153 174 0
154 174 0
151 171 0
153 173 0
153 174 0
152 173 0
153 174 0
151 172 0
152 173 0
154 175 0
154 175 0
153 173 0
151 171 0
152 173 0
153 174 0
152 172 0
153 174 0
154 175 0
152 172 0
151 172 0
149 170 0
151 172 0
152 173 0
152 173 0
152 173 0
150 171 0
151 172 0
149 170 0
152 173 0
151 172 0
152 173 0
151 172 0
150 171 0
151 172 0
150 171 0
150 170 0
151 172 0
151 172 0
150 171 0
150 171 0
150 171 0
151 172 0
151 172 0
150 171 0
151 172 0
150 172 0
151 172 0
148 169 0
152 173 0
150 171 0
149 171 0
147 168 0
150 171 0
149 170 0
149 170 0
150 171 0
151 172 0
150 172 0
150 172 0
149 170 0
148 169 0
149 171 0
148 170 0
150 171 0
150 171 0
150 172 0
147 169 0
150 172 0
149 170 0
148 170 0
150 172 0
151 172 0
148 169 0
151 173 0
151 173 0
148 170 0
148 170 0
149 171 0
149 171 0
149 171 0
148 169 0
148 170 0
149 171 0
150 172 0
148 170 0
149 171 0
147 169 0
149 171 0
149 170 0
149 171 0
148 170 0
147 169 0
147 169 0
148 170 0
147 169 0
148 170 0
147 169 0
148 170 0
146 168 0
145 167 0
149 171 0
146 168 0
148 170 0
146 168 0
145 167 0
147 169 0
147 169 0
148 170 0
148 170 0
148 170 0
143 165 0
150 172 0
147 169 0
146 167 0
143 165 0
146 167 0
147 168 0
148 169 0
146 168 0
146 167 0
146 168 0
146 167 0
145 167 0
146 168 0
146 168 0
146 168 0
147 169 0
145 167 0
148 170 0
144 166 0
143 165 0
145 167 0
147 169 0
143 165 0
145 168 0
143 165 0
147 169 0
146 168 0
145 166 0
145 167 0
147 169 0
148 170 0
146 168 0
147 169 0
145 166 0
144 166 0
146 168 0
143 165 0
144 166 0
145 167 0
144 165 0
142 164 0
143 165 0
145 167 0
143 165 0
145 167 0
144 166 0
144 166 0
146 168 0
143 164 0
143 165 0
142 164 0
144 166 0
144 165 0
146 168 0
145 167 0
143 165 0
144 166 0
144 166 0
145 166 0
143 165 0
144 166 0
143 164 0
143 165 0
144 165 0
145 166 0
143 165 0
144 165 0
143 164 0
144 165 0
144 166 0
144 166 0
143 165 0
145 166 0
145 167 0
142 163 0
142 164 0
141 163 0
142 164 0
143 164 0
143 164 0
142 163 0
143 164 0
142 163 0
143 165 0
144 165 0
144 166 0
143 164 0
145 167 0
143 164 0
141 161 0
143 164 0
144 165 0
144 165 0
145 166 0
144 166 0
141 162 0
143 164 0
144 165 0
147 169 0
144 165 0
141 162 0
144 165 0
143 164 0
144 165 0
144 165 0
144 165 0
145 166 0
143 164 0
145 166 0
141 162 0
144 165 0
143 163 0
147 168 0
143 164 0
146 168 0
144 164 0
147 168 0
145 166 0
145 166 0
143 164 0
142 163 0
144 164 0
142 163 0
144 165 0
143 164 0
144 165 0
143 163 0
145 165 0
143 163 0
148 169 0
145 165 0
146 166 0
141 161 0
144 165 0
147 167 0
142 162 0
145 166 0
144 164 0
145 165 0
145 165 0
145 165 0
144 164 0
143 163 0
143 163 0
145 166 0
144 164 0
145 164 0
145 165 0
146 166 0
149 169 0
145 165 0
144 164 0
148 168 0
147 167 0
145 164 0
146 166 0
148 168 0
144 163 0
146 166 0
144 163 0
142 161 0
147 167 0
145 164 0
144 164 0
146 166 0
145 164 0
148 167 0
149 168 0
146 165 0
147 166 0
146 164 0
146 165 0
145 164 0
145 164 0
146 164 0
147 166 0
145 163 0
147 167 0
148 167 0
146 165 0
147 165 0
147 165 0
148 166 0
147 166 0
148 166 0
147 165 0
147 165 0
144 161 0
147 165 0
147 165 0
148 165 0
147 165 0
148 166 0
147 165 0
149 166 0
146 164 0
148 166 0
145 162 0
145 161 0
146 163 0
147 164 0
146 163 0
148 165 0
147 164 0
146 163 0
147 164 0
146 163 0
146 164 0
147 164 0
146 162 0
148 165 0
147 164 0
146 162 0
149 166 0
148 165 0
147 163 0
148 164 0
145 161 0
146 163 0
148 165 0
146 162 0
146 161 0
147 162 0
147 163 0
148 164 0
146 161 0
150 165 0
149 165 0
147 163 0
149 165 0
147 162 0
146 161 0
146 162 0
150 166 0
148 163 0
148 163 0
147 162 0
146 161 0
147 163 0
146 160 0
146 161 0
146 161 0
146 161 0
147 161 0
150 165 0
148 162 0
151 166 0
148 163 0
147 161 0
148 162 0
148 162 0
150 164 0
146 160 0
147 160 0
149 162 0
150 164 0
147 160 0
150 165 0
146 159 0
149 162 0
149 162 0
149 163 0
148 162 0
150 163 0
148 162 0
148 161 0
150 162 0
149 162 0
150 163 0
149 161 0
149 162 0
148 162 0
151 165 0
151 165 0
152 165 0
155 175 0
155 175 0
155 176 0
154 174 0
154 175 0
154 175 0
155 176 0
154 174 0
153 174 0
152 172 0
153 173 0
152 173 0
153 173 0
153 174 0
153 174 0
154 174 0
154 175 0
155 175 0
153 173 0
155 175 0
152 172 0
154 175 0
153 173 0
153 174 0
153 174 0
152 173 0
153 174 0
153 173 0
153 174 0
152 172 0
151 172 0
153 174 0
152 172 0
153 175 0
154 175 0
152 173 0
151 171 0
153 174 0
151 171 0
152 173 0
153 174 0
154 175 0
152 173 0
151 172 0
150 171 0
151 172 0
152 173 0
152 173 0
149 170 0
151 172 0
151 172 0
152 173 0
153 174 0
152 174 0
150 170 0
151 173 0
151 172 0
151 173 0
150 171 0
150 172 0
150 171 0
147 169 0
150 171 0
150 171 0
152 173 0
150 172 0
150 172 0
151 172 0
151 172 0
149 171 0
151 172 0
150 172 0
149 171 0
149 171 0
149 171 0
151 173 0
150 172 0
150 172 0
149 170 0
147 168 0
150 172 0
150 172 0
151 173 0
150 172 0
148 170 0
149 171 0
148 170 0
149 171 0
149 171 0
149 170 0
149 170 0
149 171 0
149 171 0
148 169 0
150 171 0
148 170 0
150 172 0
149 171 0
147 168 0
149 171 0
147 169 0
147 169 0
149 171 0
147 169 0
149 171 0
149 171 0
149 171 0
148 170 0
151 173 0
149 172 0
149 171 0
145 167 0
146 168 0
147 169 0
146 167 0
149 170 0
149 170 0
150 172 0
146 168 0
149 171 0
149 172 0
147 170 0
146 168 0
147 169 0
149 171 0
146 168 0
147 169 0
148 170 0
147 169 0
147 169 0
146 168 0
147 169 0
147 169 0
147 169 0
145 167 0
147 169 0
145 167 0
146 168 0
148 170 0
146 168 0
148 170 0
148 170 0
143 165 0
146 168 0
146 168 0
147 169 0
146 168 0
145 167 0
144 166 0
143 165 0
145 167 0
144 165 0
147 169 0
147 169 0
145 167 0
144 166 0
146 169 0
143 165 0
140 162 0
145 167 0
145 167 0
146 168 0
145 166 0
144 166 0
143 165 0
142 164 0
145 167 0
144 166 0
145 168 0
144 166 0
143 165 0
144 166 0
142 164 0
143 164 0
145 166 0
142 164 0
146 168 0
144 166 0
145 166 0
140 162 0
145 167 0
144 166 0
144 166 0
146 167 0
144 166 0
143 165 0
143 164 0
144 166 0
145 167 0
142 163 0
145 167 0
144 165 0
144 165 0
145 167 0
142 164 0
143 165 0
142 164 0
144 166 0
144 166 0
143 164 0
143 165 0
143 164 0
143 165 0
144 165 0
141 162 0
144 165 0
143 164 0
144 165 0
143 164 0
146 167 0
144 165 0
144 166 0
142 163 0
142 163 0
141 162 0
146 168 0
143 164 0
144 165 0
146 168 0
144 166 0
143 164 0
141 162 0
144 166 0
142 163 0
146 167 0
145 166 0
148 169 0
143 164 0
145 166 0
144 164 0
144 165 0
145 166 0
141 162 0
145 166 0
143 164 0
143 164 0
144 165 0
146 166 0
146 167 0
146 167 0
145 167 0
143 163 0
144 165 0
144 165 0
146 167 0
145 165 0
146 167 0
143 163 0
143 164 0
146 166 0
145 165 0
144 164 0
144 164 0
146 166 0
145 165 0
146 165 0
146 166 0
149 170 0
145 165 0
145 165 0
142 162 0
144 164 0
146 166 0
143 163 0
144 164 0
146 166 0
144 164 0
144 163 0
145 164 0
145 165 0
145 165 0
145 164 0
144 164 0
147 167 0
145 165 0
145 164 0
147 167 0
145 164 0
148 168 0
147 167 0
146 166 0
145 164 0
146 165 0
146 165 0
145 164 0
145 164 0
146 166 0
149 169 0
147 166 0
144 163 0
149 169 0
147 166 0
145 163 0
146 165 0
148 167 0
145 164 0
144 163 0
146 164 0
147 166 0
148 167 0
146 165 0
148 167 0
145 163 0
146 164 0
145 163 0
147 166 0
147 165 0
149 168 0
146 164 0
147 164 0
145 163 0
148 167 0
147 165 0
147 165 0
146 164 0
147 165 0
146 164 0
147 165 0
146 164 0
147 165 0
148 166 0
149 166 0
149 167 0
147 164 0
147 165 0
148 165 0
147 164 0
149 167 0
148 166 0
147 165 0
147 164 0
149 167 0
148 166 0
148 165 0
147 164 0
148 164 0
149 166 0
148 165 0
146 163 0
148 166 0
149 165 0
146 162 0
148 165 0
148 164 0
147 163 0
150 166 0
147 163 0
149 165 0
148 165 0
146 162 0
148 164 0
149 166 0
149 164 0
147 163 0
146 163 0
148 163 0
148 164 0
149 163 0
147 162 0
148 164 0
146 161 0
148 163 0
147 162 0
150 165 0
144 158 0
148 163 0
148 163 0
147 162 0
149 164 0
148 162 0
149 164 0
147 161 0
146 160 0
151 166 0
148 162 0
146 160 0
147 161 0
150 165 0
149 163 0
149 164 0
148 162 0
148 162 0
147 161 0
150 164 0
150 164 0
150 164 0
149 163 0
150 164 0
150 164 0
148 161 0
150 163 0
148 161 0
151 165 0
149 162 0
150 163 0
148 161 0
150 163 0
150 163 0
151 164 0
151 165 0
153 174 0
155 175 0
155 176 0
154 174 0
155 176 0
153 173 0
155 176 0
153 174 0
152 173 0
155 175 0
153 173 0
154 175 0
153 173 0
153 173 0
152 172 0
152 173 0
154 174 0
153 174 0
153 174 0
153 173 0
154 175 0
154 174 0
153 174 0
153 174 0
150 171 0
152 173 0
153 174 0
153 173 0
152 173 0
153 173 0
152 172 0
155 175 0
151 172 0
155 176 0
154 175 0
153 174 0
152 172 0
151 172 0
150 171 0
151 173 0
152 173 0
152 173 0
151 172 0
152 173 0
151 172 0
150 171 0
151 172 0
151 172 0
152 173 0
150 171 0
151 172 0
152 173 0
154 175 0
150 171 0
151 173 0
151 172 0
150 170 0
151 173 0
151 172 0
149 171 0
149 170 0
151 172 0
150 171 0
151 172 0
151 172 0
149 170 0
149 171 0
150 171 0
150 171 0
149 171 0
152 174 0
151 172 0
149 171 0
150 172 0
151 173 0
150 172 0
149 170 0
151 173 0
150 172 0
149 171 0
150 172 0
150 172 0
150 171 0
147 169 0
149 170 0
147 169 0
149 170 0
150 171 0
149 171 0
149 171 0
150 172 0
150 171 0
148 169 0
150 171 0
150 172 0
147 168 0
149 171 0
146 168 0
148 170 0
149 172 0
150 171 0
149 171 0
151 172 0
148 171 0
149 171 0
149 170 0
147 169 0
146 168 0
148 169 0
147 169 0
148 170 0
148 170 0
148 170 0
147 169 0
150 172 0
146 168 0
147 169 0
148 170 0
146 168 0
148 170 0
147 170 0
148 170 0
148 170 0
147 170 0
147 169 0
146 167 0
147 169 0
147 169 0
148 170 0
149 171 0
147 168 0
146 168 0
147 170 0
145 167 0
148 170 0
146 168 0
147 169 0
144 166 0
146 169 0
147 169 0
148 170 0
147 169 0
147 169 0
146 168 0
148 170 0
147 169 0
147 169 0
147 169 0
145 167 0
147 169 0
146 168 0
146 167 0
147 169 0
146 168 0
146 168 0
143 165 0
145 167 0
146 167 0
144 166 0
144 166 0
146 168 0
143 165 0
143 164 0
145 166 0
146 168 0
145 167 0
146 167 0
144 166 0
144 165 0
144 166 0
144 166 0
146 167 0
145 166 0
146 168 0
145 166 0
147 169 0
144 166 0
145 166 0
145 166 0
145 167 0
147 169 0
143 164 0
145 167 0
145 167 0
145 167 0
145 167 0
143 165 0
145 167 0
142 164 0
142 164 0
145 167 0
144 166 0
142 164 0
143 165 0
143 165 0
143 164 0
144 166 0
144 166 0
142 163 0
142 163 0
144 165 0
143 164 0
142 164 0
145 166 0
142 163 0
147 169 0
143 165 0
146 167 0
145 166 0
145 166 0
144 165 0
146 168 0
143 164 0
143 164 0
142 163 0
143 164 0
146 168 0
144 165 0
144 165 0
145 166 0
142 164 0
144 166 0
147 169 0
144 165 0
146 167 0
143 165 0
143 165 0
146 167 0
145 166 0
144 166 0
144 165 0
143 164 0
144 165 0
144 164 0
145 166 0
145 166 0
146 167 0
146 168 0
145 166 0
143 164 0
145 166 0
144 165 0
147 168 0
143 164 0
147 168 0
144 165 0
143 164 0
144 164 0
145 166 0
144 165 0
147 168 0
144 165 0
146 167 0
144 165 0
147 168 0
145 166 0
143 163 0
145 165 0
146 167 0
145 165 0
146 166 0
145 166 0
145 165 0
145 165 0
142 161 0
145 165 0
145 166 0
146 166 0
145 165 0
144 163 0
145 165 0
147 167 0
145 165 0
143 163 0
145 165 0
147 167 0
145 164 0
145 165 0
146 166 0
146 166 0
145 165 0
145 165 0
145 165 0
147 167 0
147 166 0
148 167 0
147 167 0
149 168 0
146 166 0
145 165 0
148 168 0
146 165 0
144 163 0
145 164 0
148 167 0
147 165 0
148 167 0
146 165 0
149 168 0
147 166 0
144 163 0
144 163 0
146 165 0
148 167 0
146 165 0
146 165 0
146 164 0
149 167 0
148 167 0
148 166 0
146 165 0
149 166 0
148 167 0
145 162 0
144 161 0
147 165 0
146 165 0
149 167 0
147 165 0
148 167 0
147 164 0
149 167 0
148 165 0
147 165 0
148 166 0
148 166 0
146 163 0
147 164 0
147 164 0
148 165 0
149 165 0
147 164 0
147 164 0
148 165 0
148 164 0
148 165 0
148 165 0
148 165 0
146 163 0
148 166 0
147 165 0
147 163 0
147 164 0
148 165 0
146 163 0
148 164 0
150 167 0
148 165 0
146 162 0
146 163 0
151 167 0
148 164 0
148 165 0
147 162 0
147 163 0
150 166 0
145 160 0
148 164 0
147 163 0
149 164 0
149 165 0
148 163 0
149 164 0
146 161 0
145 160 0
149 166 0
149 164 0
150 164 0
145 160 0
147 162 0
148 162 0
147 162 0
147 163 0
148 163 0
149 164 0
150 165 0
148 162 0
148 163 0
150 164 0
149 163 0
147 161 0
150 165 0
148 162 0
148 162 0
150 164 0
148 161 0
150 164 0
148 161 0
148 161 0
147 161 0
151 165 0
149 163 0
150 163 0
150 164 0
149 163 0
149 163 0
150 163 0
149 163 0
150 164 0
149 163 0
155 175 0
156 177 0
155 176 0
155 176 0
155 175 0
155 175 0
154 174 0
152 173 0
155 175 0
156 176 0
153 174 0
153 174 0
155 176 0
153 174 0
154 175 0
153 173 0
154 174 0
154 175 0
152 173 0
153 174 0
151 172 0
154 175 0
153 173 0
154 175 0
151 172 0
153 174 0
152 173 0
152 172 0
152 173 0
154 175 0
150 171 0
152 173 0
152 173 0
152 173 0
154 175 0
153 174 0
152 173 0
152 173 0
151 172 0
153 174 0
152 173 0
152 174 0
151 172 0
151 172 0
151 173 0
153 174 0
151 172 0
152 173 0
149 171 0
150 171 0
152 173 0
151 173 0
150 172 0
153 175 0
150 172 0
152 173 0
150 172 0
150 172 0
150 171 0
150 171 0
148 170 0
151 172 0
151 172 0
149 170 0
152 173 0
151 172 0
150 172 0
152 174 0
151 172 0
148 170 0
151 172 0
151 172 0
150 172 0
151 173 0
151 173 0
151 172 0
150 171 0
150 171 0
149 170 0
151 172 0
150 172 0
150 172 0
150 172 0
149 171 0
151 173 0
150 172 0
150 172 0
152 174 0
148 169 0
150 172 0
148 170 0
149 171 0
151 173 0
148 170 0
149 171 0
149 171 0
148 170 0
149 171 0
148 169 0
151 174 0
149 171 0
148 169 0
149 171 0
150 172 0
148 170 0
148 170 0
149 171 0
147 169 0
149 171 0
148 170 0
148 170 0
150 172 0
149 171 0
146 167 0
151 173 0
150 172 0
148 171 0
146 168 0
145 167 0
148 170 0
149 170 0
148 170 0
148 170 0
148 170 0
150 172 0
148 169 0
150 172 0
148 170 0
149 171 0
147 168 0
146 167 0
145 167 0
147 169 0
147 169 0
145 168 0
146 168 0
148 170 0
147 169 0
147 169 0
147 169 0
144 166 0
146 168 0
146 168 0
145 167 0
147 169 0
146 168 0
147 169 0
146 168 0
147 170 0
147 169 0
146 169 0
149 172 0
149 171 0
144 166 0
146 168 0
145 167 0
145 167 0
147 169 0
148 170 0
145 167 0
147 169 0
146 168 0
145 167 0
146 168 0
144 166 0
143 165 0
147 169 0
145 167 0
144 166 0
145 167 0
146 167 0
145 166 0
146 168 0
143 165 0
146 168 0
146 168 0
146 168 0
145 167 0
147 169 0
142 164 0
144 165 0
146 167 0
144 166 0
145 166 0
145 166 0
143 165 0
145 167 0
145 167 0
145 167 0
144 166 0
148 170 0
144 165 0
145 167 0
144 166 0
142 164 0
145 166 0
145 166 0
143 165 0
142 164 0
144 165 0
143 164 0
145 166 0
146 168 0
144 166 0
144 165 0
143 164 0
144 166 0
142 163 0
144 165 0
145 166 0
145 167 0
144 165 0
144 166 0
145 166 0
146 167 0
144 165 0
144 165 0
144 166 0
148 170 0
145 166 0
144 165 0
144 165 0
144 165 0
144 165 0
142 163 0
146 167 0
145 166 0
144 165 0
147 168 0
145 166 0
144 165 0
143 164 0
143 164 0
141 162 0
146 167 0
146 167 0
147 168 0
146 167 0
147 168 0
147 168 0
145 165 0
143 164 0
145 166 0
146 167 0
146 167 0
144 165 0
146 167 0
145 166 0
145 166 0
145 166 0
145 165 0
146 167 0
147 168 0
147 167 0
145 166 0
144 165 0
146 166 0
146 166 0
147 168 0
146 166 0
146 166 0
147 167 0
147 167 0
146 166 0
147 167 0
144 164 0
147 167 0
144 164 0
147 168 0
145 166 0
147 167 0
147 167 0
147 167 0
147 167 0
145 164 0
148 169 0
145 165 0
146 167 0
148 168 0
144 163 0
147 167 0
145 165 0
146 164 0
147 166 0
146 166 0
145 165 0
144 164 0
146 166 0
147 166 0
148 168 0
145 164 0
146 165 0
150 169 0
147 166 0
146 165 0
145 164 0
150 169 0
146 165 0
148 168 0
148 167 0
146 165 0
147 166 0
148 167 0
148 166 0
146 165 0
149 168 0
146 164 0
144 163 0
147 166 0
145 164 0
146 164 0
146 165 0
145 162 0
147 165 0
146 163 0
150 168 0
147 165 0
148 166 0
148 166 0
147 164 0
147 165 0
147 164 0
149 167 0
146 163 0
147 164 0
148 166 0
145 163 0
149 167 0
147 165 0
147 165 0
148 166 0
147 165 0
149 167 0
147 164 0
147 164 0
147 164 0
147 164 0
147 164 0
149 165 0
147 164 0
148 165 0
147 164 0
146 163 0
147 163 0
149 166 0
149 166 0
149 165 0
147 163 0
147 163 0
149 165 0
148 165 0
148 165 0
149 165 0
150 167 0
148 163 0
147 162 0
150 166 0
149 166 0
147 162 0
149 164 0
151 167 0
147 163 0
148 163 0
148 163 0
147 164 0
147 162 0
148 163 0
148 163 0
149 163 0
148 164 0
150 166 0
149 165 0
147 162 0
149 164 0
149 164 0
149 164 0
148 163 0
150 165 0
149 163 0
148 163 0
150 165 0
148 161 0
147 161 0
149 163 0
148 162 0
151 165 0
151 165 0
150 164 0
149 162 0
150 164 0
149 162 0
150 165 0
151 166 0
151 165 0
151 166 0
149 164 0
151 166 0
150 163 0
150 162 0
149 163 0
155 175 0
154 174 0
153 174 0
155 175 0
153 173 0
154 175 0
155 176 0
155 175 0
154 174 0
154 175 0
154 175 0
155 176 0
154 174 0
152 173 0
153 174 0
153 174 0
152 173 0
154 174 0
151 171 0
152 173 0
153 174 0
153 174 0
153 173 0
153 173 0
154 175 0
153 174 0
152 173 0
152 173 0
153 173 0
151 172 0
153 174 0
152 173 0
152 173 0
152 173 0
154 176 0
152 173 0
153 174 0
151 173 0
153 175 0
150 171 0
152 173 0
151 172 0
153 174 0
151 172 0
152 173 0
153 174 0
151 172 0
150 171 0
149 170 0
151 172 0
152 173 0
154 175 0
151 172 0
150 172 0
152 173 0
149 170 0
153 174 0
150 172 0
150 171 0
152 174 0
153 175 0
149 170 0
151 173 0
149 171 0
149 171 0
152 174 0
150 171 0
151 173 0
151 173 0
148 170 0
150 172 0
151 173 0
150 172 0
150 171 0
151 173 0
150 171 0
150 171 0
151 173 0
150 172 0
149 171 0
150 173 0
149 171 0
150 171 0
150 172 0
149 171 0
149 171 0
150 172 0
149 171 0
151 173 0
147 168 0
149 171 0
149 171 0
148 169 0
150 172 0
149 171 0
150 172 0
149 172 0
149 171 0
149 171 0
151 173 0
148 170 0
150 172 0
148 170 0
148 170 0
148 170 0
147 169 0
148 170 0
148 170 0
151 173 0
147 168 0
150 173 0
150 172 0
147 169 0
147 169 0
147 168 0
149 171 0
149 171 0
148 170 0
145 167 0
147 168 0
148 170 0
148 170 0
148 170 0
147 169 0
148 170 0
147 170 0
147 169 0
150 172 0
148 170 0
148 170 0
147 169 0
144 166 0
148 170 0
147 169 0
148 170 0
148 171 0
146 168 0
148 170 0
148 170 0
148 170 0
145 167 0
148 170 0
146 168 0
148 170 0
148 171 0
148 171 0
146 168 0
145 167 0
145 166 0
148 170 0
147 169 0
145 167 0
146 167 0
146 168 0
147 169 0
146 168 0
147 170 0
146 168 0
145 167 0
145 167 0
148 170 0
146 167 0
145 167 0
145 167 0
145 167 0
145 166 0
144 166 0
145 167 0
147 170 0
144 167 0
146 168 0
146 168 0
146 167 0
146 168 0
146 168 0
145 166 0
145 166 0
145 167 0
144 166 0
145 167 0
145 166 0
144 166 0
147 169 0
143 164 0
147 169 0
146 167 0
144 166 0
145 167 0
143 164 0
144 166 0
145 166 0
144 166 0
144 166 0
145 167 0
147 168 0
144 166 0
145 167 0
144 165 0
145 166 0
145 167 0
146 168 0
144 166 0
144 165 0
146 167 0
146 168 0
143 164 0
144 166 0
143 164 0
144 165 0
144 166 0
147 168 0
143 164 0
146 167 0
145 166 0
145 166 0
146 168 0
147 168 0
147 168 0
146 167 0
146 168 0
144 165 0
145 166 0
144 165 0
145 166 0
146 167 0
145 167 0
145 165 0
146 167 0
144 165 0
144 164 0
146 167 0
148 169 0
144 166 0
144 164 0
146 167 0
144 165 0
145 166 0
145 166 0
146 167 0
147 167 0
146 167 0
146 167 0
145 166 0
146 167 0
147 168 0
146 166 0
145 165 0
148 169 0
146 166 0
145 165 0
146 166 0
146 166 0
147 168 0
146 167 0
145 166 0
146 166 0
145 166 0
145 165 0
149 169 0
144 165 0
147 168 0
147 167 0
146 166 0
146 166 0
147 167 0
146 167 0
147 168 0
146 167 0
146 166 0
145 166 0
148 168 0
146 167 0
142 162 0
145 165 0
146 166 0
146 167 0
146 166 0
144 164 0
146 166 0
145 165 0
148 168 0
148 168 0
146 166 0
146 165 0
148 168 0
147 166 0
146 166 0
145 164 0
148 167 0
147 166 0
146 166 0
147 166 0
145 164 0
148 167 0
146 165 0
147 167 0
145 165 0
147 166 0
145 164 0
146 165 0
149 169 0
143 162 0
149 168 0
147 166 0
148 166 0
148 167 0
147 166 0
147 167 0
146 165 0
147 166 0
148 167 0
148 166 0
148 167 0
145 163 0
150 168 0
149 169 0
148 166 0
147 165 0
146 164 0
149 167 0
148 166 0
145 163 0
147 165 0
147 165 0
147 164 0
146 164 0
149 166 0
148 166 0
148 165 0
150 167 0
148 165 0
148 166 0
148 165 0
148 166 0
149 167 0
147 164 0
147 164 0
148 165 0
149 165 0
149 166 0
147 163 0
149 165 0
150 167 0
151 168 0
147 164 0
147 164 0
147 164 0
149 165 0
147 164 0
150 167 0
149 165 0
148 165 0
149 165 0
147 163 0
146 162 0
150 166 0
147 163 0
149 165 0
147 164 0
149 165 0
149 165 0
150 166 0
148 164 0
148 164 0
149 165 0
150 166 0
146 161 0
148 164 0
147 162 0
150 165 0
149 166 0
149 164 0
148 163 0
151 167 0
149 164 0
148 163 0
150 165 0
148 163 0
148 164 0
148 163 0
150 164 0
150 165 0
149 164 0
147 162 0
149 163 0
151 165 0
150 164 0
148 161 0
148 162 0
149 163 0
150 164 0
149 163 0
149 163 0
151 165 0
149 164 0
150 163 0
149 163 0
150 164 0
150 164 0
152 165 0
155 176 0
155 176 0
153 174 0
153 174 0
153 174 0
154 175 0
155 175 0
154 174 0
155 175 0
154 175 0
153 174 0
154 174 0
154 175 0
153 174 0
154 175 0
153 174 0
154 174 0
152 172 0
154 175 0
154 175 0
155 176 0
152 173 0
152 173 0
153 174 0
152 173 0
153 173 0
153 174 0
151 172 0
154 175 0
152 173 0
153 174 0
152 174 0
153 174 0
152 173 0
152 173 0
152 173 0
153 174 0
151 172 0
153 174 0
152 174 0
153 174 0
153 174 0
153 175 0
151 172 0
153 174 0
151 173 0
149 170 0
150 172 0
151 173 0
150 171 0
151 172 0
153 174 0
151 172 0
149 171 0
152 173 0
152 174 0
150 172 0
152 173 0
149 170 0
151 173 0
151 173 0
151 173 0
153 174 0
150 171 0
151 172 0
150 171 0
150 171 0
150 172 0
149 171 0
149 171 0
150 172 0
148 170 0
149 171 0
151 173 0
149 170 0
150 172 0
151 173 0
150 171 0
148 170 0
149 170 0
149 171 0
149 171 0
148 169 0
150 172 0
147 169 0
150 171 0
152 174 0
150 172 0
149 171 0
151 173 0
150 172 0
150 172 0
151 172 0
150 172 0
149 171 0
149 171 0
148 170 0
148 170 0
150 172 0
148 170 0
148 170 0
149 171 0
150 173 0
149 171 0
148 171 0
149 171 0
150 172 0
148 170 0
148 171 0
148 171 0
150 172 0
149 172 0
149 171 0
147 169 0
148 170 0
147 169 0
148 171 0
149 171 0
149 172 0
149 171 0
149 171 0
146 168 0
148 170 0
146 168 0
148 170 0
148 170 0
149 172 0
149 171 0
148 170 0
148 171 0
148 170 0
146 168 0
147 168 0
146 168 0
146 168 0
148 169 0
148 170 0
148 170 0
146 168 0
148 169 0
146 168 0
149 171 0
147 169 0
148 170 0
145 166 0
147 169 0
147 169 0
146 168 0
147 169 0
146 168 0
146 168 0
145 167 0
148 171 0
147 169 0
147 169 0
147 169 0
145 168 0
146 167 0
149 172 0
146 169 0
147 169 0
146 168 0
144 165 0
146 168 0
146 168 0
145 167 0
147 169 0
145 167 0
145 167 0
143 165 0
143 165 0
148 170 0
143 165 0
144 165 0
144 166 0
145 166 0
146 169 0
146 168 0
145 167 0
145 167 0
145 167 0
146 167 0
143 165 0
145 167 0
144 166 0
145 167 0
145 167 0
144 165 0
146 167 0
145 167 0
144 165 0
145 166 0
147 168 0
145 167 0
143 164 0
147 169 0
145 166 0
146 167 0
146 167 0
145 167 0
144 165 0
145 166 0
144 165 0
145 167 0
146 168 0
144 166 0
143 164 0
145 167 0
143 165 0
145 167 0
144 165 0
143 164 0
144 166 0
145 167 0
145 166 0
146 168 0
146 167 0
144 165 0
145 166 0
144 165 0
145 167 0
144 166 0
143 164 0
146 167 0
144 165 0
144 166 0
146 168 0
146 167 0
146 168 0
148 169 0
146 166 0
146 168 0
148 169 0
143 164 0
145 166 0
146 167 0
147 168 0
148 170 0
146 167 0
147 168 0
145 167 0
144 165 0
148 169 0
144 165 0
147 168 0
147 167 0
147 168 0
147 168 0
146 167 0
145 166 0
144 165 0
145 167 0
146 167 0
146 167 0
145 166 0
146 167 0
145 166 0
146 167 0
145 166 0
147 168 0
147 168 0
144 165 0
145 165 0
146 167 0
148 169 0
146 167 0
146 166 0
147 167 0
147 168 0
145 165 0
148 168 0
146 166 0
148 168 0
147 167 0
149 169 0
147 167 0
147 167 0
146 165 0
148 169 0
148 168 0
147 167 0
149 169 0
148 168 0
146 166 0
146 165 0
149 168 0
145 165 0
147 167 0
146 165 0
147 166 0
145 164 0
145 165 0
144 164 0
148 167 0
145 165 0
148 168 0
146 165 0
150 169 0
146 165 0
147 167 0
146 166 0
150 169 0
146 165 0
147 166 0
145 163 0
149 168 0
151 170 0
148 167 0
147 166 0
149 168 0
150 170 0
148 166 0
146 165 0
150 168 0
147 165 0
147 165 0
147 165 0
148 167 0
149 168 0
147 164 0
149 167 0
148 165 0
147 165 0
147 165 0
149 168 0
148 167 0
146 163 0
150 168 0
148 166 0
149 167 0
149 166 0
150 168 0
149 166 0
147 165 0
151 168 0
146 162 0
150 167 0
146 164 0
147 164 0
148 166 0
148 165 0
149 167 0
150 167 0
148 166 0
150 167 0
148 165 0
146 163 0
148 164 0
146 163 0
149 166 0
150 168 0
149 166 0
149 165 0
150 167 0
149 165 0
150 166 0
149 165 0
148 165 0
149 166 0
150 166 0
148 164 0
149 165 0
151 167 0
147 162 0
150 166 0
149 166 0
149 164 0
150 166 0
148 163 0
151 167 0
147 162 0
148 164 0
149 165 0
147 163 0
150 165 0
150 165 0
149 164 0
150 165 0
149 164 0
147 162 0
148 163 0
150 165 0
149 164 0
150 165 0
148 163 0
148 163 0
150 165 0
148 162 0
148 162 0
150 165 0
150 164 0
149 163 0
149 164 0
150 164 0
149 164 0
150 164 0
151 166 0
151 166 0
148 163 0
152 167 0
156 177 0
155 176 0
156 177 0
154 175 0
156 177 0
155 176 0
154 175 0
154 175 0
154 175 0
154 174 0
154 175 0
153 173 0
153 174 0
154 174 0
152 173 0
152 172 0
152 173 0
154 175 0
154 175 0
153 173 0
154 174 0
154 175 0
153 174 0
153 174 0
152 173 0
152 173 0
154 175 0
151 172 0
152 173 0
152 173 0
152 173 0
152 173 0
153 175 0
153 174 0
152 174 0
152 173 0
151 173 0
152 173 0
152 174 0
153 175 0
153 175 0
152 173 0
153 174 0
153 174 0
151 173 0
151 172 0
151 173 0
151 172 0
152 173 0
150 172 0
152 173 0
151 172 0
151 172 0
152 173 0
152 173 0
151 173 0
150 172 0
150 172 0
152 174 0
150 172 0
152 174 0
151 172 0
150 171 0
151 172 0
151 173 0
151 173 0
150 172 0
150 171 0
149 170 0
151 173 0
152 174 0
149 171 0
150 171 0
151 172 0
151 172 0
153 175 0
151 173 0
151 173 0
151 173 0
150 172 0
152 174 0
150 171 0
148 170 0
147 169 0
148 170 0
150 172 0
152 174 0
149 171 0
149 171 0
148 170 0
149 171 0
150 172 0
149 171 0
150 172 0
151 173 0
149 172 0
150 172 0
146 168 0
150 172 0
150 172 0
150 172 0
149 171 0
149 171 0
149 171 0
147 169 0
148 171 0
149 171 0
150 171 0
149 172 0
148 170 0
149 172 0
150 172 0
150 172 0
148 171 0
149 171 0
148 170 0
149 171 0
148 170 0
148 170 0
150 172 0
150 172 0
148 170 0
148 171 0
148 170 0
147 169 0
149 172 0
146 168 0
149 171 0
148 170 0
145 167 0
148 170 0
148 171 0
150 173 0
147 169 0
149 171 0
148 170 0
148 170 0
149 171 0
148 170 0
147 169 0
147 170 0
146 168 0
146 168 0
148 169 0
146 168 0
147 169 0
149 171 0
146 168 0
145 167 0
147 169 0
146 168 0
145 167 0
145 166 0
145 167 0
146 168 0
147 169 0
147 170 0
149 171 0
148 170 0
145 167 0
147 169 0
145 167 0
146 167 0
148 170 0
146 168 0
146 168 0
147 169 0
145 167 0
147 169 0
146 167 0
145 167 0
146 168 0
146 168 0
145 167 0
146 168 0
146 168 0
146 168 0
147 169 0
147 169 0
143 165 0
147 169 0
148 170 0
146 167 0
145 167 0
145 167 0
146 168 0
147 169 0
145 167 0
146 167 0
144 166 0
144 165 0
145 166 0
143 165 0
145 166 0
145 167 0
149 170 0
144 165 0
144 165 0
146 168 0
144 165 0
147 168 0
145 166 0
145 166 0
144 166 0
144 166 0
145 167 0
145 166 0
146 168 0
145 167 0
144 165 0
146 168 0
143 164 0
146 167 0
143 165 0
147 168 0
145 167 0
146 167 0
145 167 0
144 165 0
146 168 0
146 167 0
148 170 0
147 169 0
146 167 0
145 167 0
147 168 0
147 168 0
145 166 0
146 167 0
146 167 0
145 167 0
145 166 0
147 168 0
146 167 0
147 168 0
146 167 0
144 165 0
146 167 0
145 166 0
147 168 0
146 168 0
146 167 0
147 168 0
146 166 0
147 169 0
146 167 0
147 168 0
147 168 0
144 165 0
147 168 0
147 168 0
147 168 0
148 168 0
147 168 0
147 169 0
147 167 0
145 166 0
144 165 0
145 166 0
147 168 0
145 166 0
146 167 0
147 168 0
147 168 0
147 168 0
148 169 0
147 168 0
147 167 0
146 166 0
148 169 0
146 166 0
147 167 0
149 169 0
147 168 0
147 167 0
146 166 0
146 167 0
147 167 0
147 167 0
147 167 0
146 166 0
147 167 0
147 167 0
149 169 0
147 167 0
146 166 0
145 165 0
149 169 0
148 168 0
148 168 0
147 167 0
147 167 0
147 166 0
148 167 0
149 168 0
146 165 0
148 167 0
147 167 0
147 166 0
149 168 0
147 165 0
148 168 0
147 166 0
148 169 0
148 168 0
149 168 0
148 168 0
146 164 0
149 168 0
148 167 0
149 168 0
149 168 0
149 168 0
149 168 0
149 167 0
149 168 0
149 168 0
148 167 0
148 166 0
147 165 0
147 165 0
147 165 0
147 165 0
149 167 0
148 166 0
147 165 0
148 165 0
148 166 0
148 165 0
147 165 0
149 166 0
149 166 0
148 165 0
150 168 0
148 165 0
150 167 0
148 164 0
149 166 0
148 165 0
149 167 0
150 167 0
150 167 0
147 164 0
149 167 0
151 168 0
150 167 0
149 166 0
152 169 0
148 165 0
150 167 0
149 166 0
148 166 0
149 165 0
149 166 0
149 166 0
149 166 0
149 166 0
148 164 0
150 166 0
149 164 0
147 163 0
148 164 0
147 163 0
150 166 0
149 166 0
151 167 0
150 165 0
149 164 0
148 164 0
149 165 0
151 166 0
148 165 0
150 166 0
149 165 0
150 166 0
150 166 0
149 164 0
149 165 0
149 163 0
149 164 0
148 163 0
151 166 0
150 165 0
149 165 0
149 163 0
149 164 0
150 165 0
147 162 0
150 165 0
150 164 0
150 164 0
150 165 0
151 165 0
150 164 0
150 164 0
148 162 0
149 163 0
153 167 0
149 163 0
150 164 0
